; generated by Slic3r 1.2.9 on 2016-12-18 at 13:40:39

; external perimeters extrusion width = 0.40mm
; perimeters extrusion width = 0.67mm
; infill extrusion width = 0.67mm
; solid infill extrusion width = 0.67mm
; top infill extrusion width = 0.67mm

M107
M190 S70 ; set bed temperature
M104 S200 ; set temperature
G28 ; home all axes
G1 Z5 F5000 ; lift nozzle

M109 S200 ; wait for temperature to be reached
G21 ; set units to millimeters
G90 ; use absolute coordinates
M82 ; use absolute distances for extrusion
G92 E0
G1 Z0.250 F7800.000
G1 E-2.00000 F2400.00000
G92 E0
G1 X88.445 Y86.872 F7800.000
G1 E2.00000 F2400.00000
G1 X89.585 Y85.818 E2.07205 F1500.000
G1 X89.988 Y85.482 E2.09637
G1 X90.719 Y84.922 E2.13911
G1 X91.217 Y84.576 E2.16725
G1 X91.875 Y84.163 E2.20328
G1 X92.486 Y83.824 E2.23568
G1 X93.082 Y83.535 E2.26642
G1 X93.811 Y83.235 E2.30298
G1 X94.358 Y83.048 E2.32981
G1 X95.179 Y82.827 E2.36924
G1 X95.692 Y82.724 E2.39352
G1 X96.541 Y82.612 E2.43323
G1 X97.044 Y82.580 E2.45663
G1 X97.866 Y82.580 E2.49477
G1 X98.361 Y82.612 E2.51779 F1500.000
G1 X99.194 Y82.721 E2.55674
G1 X99.731 Y82.828 E2.58217
G1 X100.518 Y83.039 E2.61995
G1 X101.103 Y83.239 E2.64861
G1 X101.788 Y83.519 E2.68295
G1 X102.430 Y83.830 E2.71605
G1 X102.992 Y84.140 E2.74585
G1 X103.699 Y84.584 E2.78457
G1 X104.148 Y84.894 E2.80988
G1 X105.283 Y85.786 E2.87685
G1 X106.426 Y86.838 E2.94888
G1 X107.596 Y88.073 E3.02783
G1 X108.800 Y89.515 E3.11498
G1 X110.031 Y91.173 E3.21081
G1 X111.261 Y93.041 E3.31455
G1 X112.288 Y94.794 E3.40882
G1 X113.368 Y96.887 E3.51806
G1 X114.290 Y98.937 E3.62234
G1 X115.044 Y100.872 E3.71869
G1 X115.638 Y102.654 E3.80587
G1 X116.090 Y104.270 E3.88370
G1 X116.418 Y105.722 E3.95274
G1 X116.642 Y107.024 E4.01403
G1 X116.779 Y108.190 E4.06853
G1 X117.621 Y118.066 E4.52834
G1 X117.589 Y119.454 E4.59276
G1 X117.489 Y120.214 E4.62829
G1 X117.054 Y121.839 E4.70637
G1 X116.761 Y122.547 E4.74190
G1 X115.919 Y124.004 E4.81995
G1 X115.483 Y124.573 E4.85323
G1 X114.263 Y125.801 E4.93353
G1 X113.656 Y126.267 E4.96906
G1 X112.198 Y127.109 E5.04713
G1 X111.491 Y127.402 E5.08266
G1 X109.865 Y127.837 E5.16072
G1 X109.106 Y127.937 E5.19625
G1 X107.423 Y127.937 E5.27433
G1 X106.408 Y127.798 E5.32188
G1 X92.349 Y125.369 E5.98378
G1 X91.209 Y125.132 E6.03779
G1 X90.181 Y124.872 E6.08698
G1 X89.091 Y124.546 E6.13973
G1 X88.278 Y124.264 E6.17966
G1 X86.924 Y123.710 E6.24756
G1 X85.895 Y123.207 E6.30070
G1 X85.246 Y122.846 E6.33515
G1 X84.738 Y122.534 E6.36278
G1 X84.020 Y122.050 E6.40296
G1 X83.197 Y121.409 E6.45134
G1 X82.778 Y121.039 E6.47728
G1 X82.388 Y120.663 E6.50242
G1 X81.840 Y120.079 E6.53958
G1 X81.324 Y119.446 E6.57745
G1 X81.070 Y119.100 E6.59737
G1 X80.694 Y118.543 E6.62855
G1 X80.330 Y117.952 E6.66074
G1 X79.917 Y117.227 E6.69944
G1 X79.531 Y116.476 E6.73865
G1 X79.218 Y115.786 E6.77380
G1 X78.920 Y115.026 E6.81167
G1 X78.670 Y114.263 E6.84892
G1 X78.429 Y113.331 E6.89357
G1 X78.264 Y112.476 E6.93395
G1 X78.170 Y111.812 E6.96508
G1 X78.096 Y111.060 E7.00014
G1 X78.054 Y110.204 E7.03991
G1 X78.059 Y109.250 E7.08416
G1 X78.125 Y108.194 E7.13325
G1 X78.263 Y107.018 E7.18816
G1 X78.422 Y106.051 E7.23364
G1 X78.816 Y104.262 E7.31863
G1 X79.268 Y102.645 E7.39651
G1 X79.756 Y101.163 E7.46889
G1 X80.494 Y99.228 E7.56498
G1 X81.542 Y96.875 E7.68449
G1 X82.623 Y94.782 E7.79378
G1 X83.813 Y92.769 E7.90224
G1 X85.057 Y90.915 E8.00582
G1 X86.311 Y89.256 E8.10231
G1 X87.278 Y88.109 E8.17191
G1 X88.403 Y86.915 E8.24802
G1 E6.24802 F2400.00000
G92 E0
G1 X109.525 Y119.873 F7800.000
G1 E2.00000 F2400.00000
G1 X109.156 Y120.156 E2.02159 F1500.000
G1 X108.726 Y120.334 E2.04318
G1 X108.265 Y120.395 E2.06477
G1 X107.803 Y120.334 E2.08636
G1 X107.373 Y120.156 E2.10795
G1 X107.004 Y119.873 E2.12954
G1 X106.721 Y119.504 E2.15113
G1 X106.543 Y119.074 E2.17272
G1 X106.482 Y118.613 E2.19431
G1 X106.543 Y118.151 E2.21590
G1 X106.721 Y117.721 E2.23749
G1 X107.004 Y117.352 E2.25907
G1 X107.373 Y117.069 E2.28066
G1 X107.803 Y116.891 E2.30226
G1 X108.237 Y116.833 E2.32258 F1500.000
G1 X108.724 Y116.890 E2.34530
G1 X109.156 Y117.069 E2.36699
G1 X109.525 Y117.352 E2.38858
G1 X109.808 Y117.721 E2.41016
G1 X109.986 Y118.151 E2.43175
G1 X110.047 Y118.613 E2.45334
G1 X109.986 Y119.074 E2.47493
G1 X109.808 Y119.504 E2.49652
G1 X109.562 Y119.825 E2.51533
G1 X109.612 Y120.264 F7800.000
G1 E0.51533 F2400.00000
G92 E0
G1 X98.684 Y96.864 F7800.000
G1 E2.00000 F2400.00000
G1 X99.659 Y97.292 E2.04942 F1500.000
G1 X100.504 Y97.428 E2.08913
G1 X100.471 Y97.632 E2.09873
G1 X101.067 Y98.023 E2.13182
G1 X101.548 Y98.501 E2.16327
G1 X101.879 Y99.005 E2.19126
G1 X102.122 Y99.598 E2.22098
G1 X102.258 Y100.264 E2.25250
G1 X102.288 Y100.893 E2.28174
G1 X102.225 Y101.649 E2.31692
G1 X102.085 Y102.249 E2.34550
G1 X101.818 Y102.863 E2.37658
G1 X101.528 Y103.286 E2.40037
G1 X101.041 Y103.749 E2.43153
G1 X100.480 Y104.066 E2.46140
G1 X99.923 Y104.244 E2.48855
G1 X99.396 Y104.323 E2.51325
G1 X98.627 Y108.964 E2.73149
G1 X99.023 Y109.304 E2.75569
G1 X99.823 Y110.109 E2.80833
G1 X100.175 Y110.525 E2.83363
G1 X100.630 Y111.149 E2.86947
G1 X100.852 Y111.505 E2.88891
G1 X101.124 Y112.032 E2.91645
G1 X101.280 Y112.432 E2.93637
G1 X101.404 Y112.903 E2.95894
G1 X101.460 Y113.377 E2.98108
G1 X101.440 Y113.858 E3.00344
G1 X101.332 Y114.426 E3.03024
G1 X101.150 Y114.903 E3.05392
G1 X100.825 Y115.365 E3.08011
G1 X100.351 Y115.712 E3.10738
G1 X99.981 Y115.843 E3.12559
G1 X99.606 Y115.895 E3.14318
G1 X99.113 Y115.865 E3.16610
G1 X98.643 Y115.722 E3.18887
G1 X98.204 Y115.470 E3.21236
G1 X97.843 Y115.154 E3.23460
G1 X97.580 Y114.835 E3.25380
G1 X97.347 Y114.480 E3.27349
G1 X97.089 Y113.969 E3.30004
G1 X96.873 Y113.413 E3.32770
G1 X96.733 Y112.955 E3.34995
G1 X96.591 Y112.326 E3.37983
G1 X96.519 Y111.854 E3.40202
G1 X96.466 Y111.296 E3.42800
G1 X96.444 Y110.705 E3.45542
G1 X96.482 Y109.816 E3.49671
G1 X96.675 Y108.047 E3.57929
G1 X96.267 Y107.722 E3.60349
G1 X95.421 Y106.974 E3.65589
G1 X94.810 Y106.369 E3.69578
G1 X94.358 Y105.857 E3.72748
G1 X94.068 Y105.477 E3.74964
G1 X93.625 Y104.789 E3.78760
G1 X93.363 Y104.291 E3.81374
G1 X93.133 Y103.767 E3.84028
G1 X92.967 Y103.301 E3.86321
G1 X92.854 Y102.861 E3.88427
G1 X92.788 Y102.435 E3.90427
G1 X92.764 Y101.998 E3.92461
G1 X92.795 Y101.538 E3.94599
G1 X92.883 Y101.032 E3.96982
G1 X93.017 Y100.565 E3.99232
G1 X93.229 Y100.051 E4.01812
G1 X93.631 Y99.384 E4.05428
G1 X93.886 Y99.059 E4.07342
G1 X94.304 Y98.620 E4.10152
G1 X94.724 Y98.258 E4.12727
G1 X95.086 Y97.997 E4.14798
G1 X95.748 Y97.624 E4.18322
G1 X96.344 Y97.386 E4.21301
G1 X96.858 Y97.245 E4.23773
G1 X97.324 Y97.162 E4.25970
G1 X98.086 Y97.107 E4.29514
G1 X98.641 Y97.132 E4.32089
G1 X98.674 Y96.923 E4.33073
G1 E2.33073 F2400.00000
G92 E0
G1 X97.103 Y108.244 F7800.000
G1 E2.00000 F2400.00000
G1 X98.719 Y109.631 E2.09879 F1500.000
G1 X99.494 Y110.411 E2.14980
G1 X99.824 Y110.801 E2.17351
G1 X100.260 Y111.399 E2.20785
G1 X100.464 Y111.726 E2.22571
G1 X100.717 Y112.216 E2.25132
G1 X100.855 Y112.571 E2.26898
G1 X100.965 Y112.986 E2.28889
G1 X101.012 Y113.393 E2.30792
G1 X100.995 Y113.807 E2.32712
G1 X100.900 Y114.303 E2.35058
G1 X100.753 Y114.692 E2.36985
G1 X100.502 Y115.048 E2.39005
G1 X100.141 Y115.313 E2.41086
G1 X99.875 Y115.407 E2.42391
G1 X99.588 Y115.446 E2.43735
G1 X99.192 Y115.422 E2.45577
G1 X98.821 Y115.310 E2.47376
G1 X98.465 Y115.105 E2.49282
G1 X98.165 Y114.842 E2.51134
G1 X97.939 Y114.569 E2.52774
G1 X97.734 Y114.256 E2.54511
G1 X97.497 Y113.787 E2.56948
G1 X97.295 Y113.267 E2.59537
G1 X97.165 Y112.840 E2.61608
G1 X97.030 Y112.243 E2.64448
G1 X96.962 Y111.799 E2.66534
G1 X96.912 Y111.267 E2.69013
G1 X96.891 Y110.707 E2.71613
G1 X96.928 Y109.850 E2.75591
G1 X97.096 Y108.304 E2.82808
G1 X97.455 Y109.134 F7800.000
G1 X98.415 Y109.958 E2.88677 F1500.000
G1 X99.165 Y110.713 E2.93614
G1 X99.473 Y111.077 E2.95826
G1 X99.889 Y111.649 E2.99111
G1 X100.075 Y111.947 E3.00738
G1 X100.309 Y112.401 E3.03107
G1 X100.430 Y112.710 E3.04647
G1 X100.525 Y113.069 E3.06371
G1 X100.565 Y113.410 E3.07964
G1 X100.551 Y113.755 E3.09568
G1 X100.469 Y114.181 E3.11578
G1 X100.355 Y114.481 E3.13065
G1 X100.179 Y114.731 E3.14487
G1 X99.930 Y114.914 E3.15921
G1 X99.769 Y114.971 E3.16710
G1 X99.571 Y114.998 E3.17639
G1 X99.271 Y114.980 E3.19032
G1 X98.999 Y114.897 E3.20352
G1 X98.726 Y114.740 E3.21816
G1 X98.486 Y114.530 E3.23295
G1 X98.299 Y114.304 E3.24656
G1 X98.121 Y114.033 E3.26161
G1 X97.905 Y113.606 E3.28380
G1 X97.717 Y113.121 E3.30791
G1 X97.597 Y112.726 E3.32708
G1 X97.469 Y112.160 E3.35401
G1 X97.405 Y111.744 E3.37354
G1 X97.357 Y111.238 E3.39712
G1 X97.338 Y110.708 E3.42171
G1 X97.373 Y109.884 E3.45998
G1 X97.448 Y109.194 E3.49219
G1 X97.650 Y108.785 F7800.000
G1 X98.238 Y108.585 F7800.000
G1 X96.925 Y107.675 E3.56629 F1500.000
G1 X96.554 Y107.380 E3.58828
G1 X95.726 Y106.649 E3.63954
G1 X95.135 Y106.062 E3.67815
G1 X94.703 Y105.573 E3.70844
G1 X94.433 Y105.221 E3.72902
G1 X94.011 Y104.564 E3.76524
G1 X93.765 Y104.097 E3.78974
G1 X93.548 Y103.602 E3.81479
G1 X93.395 Y103.171 E3.83604
G1 X93.292 Y102.771 E3.85517
G1 X93.232 Y102.389 E3.87312
G1 X93.212 Y102.000 E3.89117
G1 X93.239 Y101.591 E3.91020
G1 X93.319 Y101.132 E3.93184
G1 X93.439 Y100.712 E3.95208
G1 X93.628 Y100.253 E3.97514
G1 X93.999 Y99.638 E4.00846
G1 X94.224 Y99.351 E4.02533
G1 X94.612 Y98.944 E4.05142
G1 X95.001 Y98.609 E4.07525
G1 X95.327 Y98.373 E4.09392
G1 X95.941 Y98.027 E4.12661
G1 X96.486 Y97.810 E4.15386
G1 X96.956 Y97.681 E4.17645
G1 X97.384 Y97.605 E4.19662
G1 X98.086 Y97.554 E4.22927
G1 X98.627 Y97.579 E4.25441
G1 X99.011 Y97.640 E4.27244
G1 X99.033 Y97.505 E4.27882
G1 X99.532 Y97.724 E4.30410
G1 X99.991 Y97.797 E4.32570
G1 X99.972 Y97.917 E4.33132
G1 X100.335 Y98.076 E4.34972
G1 X100.785 Y98.371 E4.37466
G1 X101.200 Y98.785 E4.40186
G1 X101.482 Y99.214 E4.42569
G1 X101.693 Y99.728 E4.45147
G1 X101.813 Y100.319 E4.47946
G1 X101.841 Y100.886 E4.50575
G1 X101.783 Y101.579 E4.53806
G1 X101.660 Y102.108 E4.56323
G1 X101.425 Y102.646 E4.59047
G1 X101.187 Y102.995 E4.61009
G1 X100.773 Y103.387 E4.63651
G1 X100.301 Y103.654 E4.66170
G1 X99.821 Y103.808 E4.68506
G1 X99.331 Y103.882 E4.70807
G1 X98.011 Y103.873 E4.76930
G1 X98.024 Y103.789 E4.77322
G1 X97.609 Y103.726 E4.79270
G1 X97.528 Y103.917 E4.80235
G1 X97.634 Y103.998 E4.80856
G1 X97.977 Y104.173 E4.82643
G1 X98.918 Y104.482 E4.87235
G1 X98.247 Y108.526 E5.06250
G1 X97.912 Y107.817 F7800.000
G1 X97.191 Y107.316 E5.10322 F1500.000
G1 X96.841 Y107.038 E5.12400
G1 X96.031 Y106.323 E5.17411
G1 X95.460 Y105.756 E5.21145
G1 X95.047 Y105.289 E5.24033
G1 X94.799 Y104.964 E5.25933
G1 X94.397 Y104.339 E5.29380
G1 X94.167 Y103.903 E5.31667
G1 X93.963 Y103.438 E5.34024
G1 X93.822 Y103.040 E5.35981
G1 X93.730 Y102.681 E5.37700
G1 X93.677 Y102.342 E5.39291
G1 X93.659 Y102.003 E5.40866
G1 X93.683 Y101.645 E5.42534
G1 X93.755 Y101.232 E5.44478
G1 X93.861 Y100.859 E5.46276
G1 X94.028 Y100.454 E5.48308
G1 X94.367 Y99.892 E5.51356
G1 X94.562 Y99.644 E5.52817
G1 X94.920 Y99.268 E5.55224
G1 X95.278 Y98.960 E5.57417
G1 X95.568 Y98.750 E5.59079
G1 X96.134 Y98.431 E5.62093
G1 X96.628 Y98.233 E5.64562
G1 X97.054 Y98.117 E5.66610
G1 X97.444 Y98.048 E5.68445
G1 X98.086 Y98.001 E5.71433
G1 X98.582 Y98.023 E5.73735
G1 X99.479 Y98.167 E5.77950
G1 X99.476 Y98.186 E5.78041
G1 X100.122 Y98.470 E5.81314
G1 X100.502 Y98.720 E5.83425
G1 X100.853 Y99.068 E5.85719
G1 X101.086 Y99.423 E5.87687
G1 X101.264 Y99.859 E5.89871
G1 X101.369 Y100.375 E5.92316
G1 X101.393 Y100.878 E5.94651
G1 X101.341 Y101.510 E5.97594
G1 X101.234 Y101.967 E5.99770
G1 X101.033 Y102.429 E6.02110
G1 X100.845 Y102.704 E6.03655
G1 X100.506 Y103.025 E6.05822
G1 X100.121 Y103.243 E6.07875
G1 X99.719 Y103.372 E6.09831
G1 X99.299 Y103.435 E6.11804
G1 X98.534 Y103.430 E6.15352
G1 X98.536 Y103.417 E6.15415
G1 X97.792 Y103.302 E6.18909
G1 X97.412 Y103.160 E6.20790
G1 X97.197 Y103.035 E6.21941
G1 X96.942 Y102.830 E6.23462
G1 X96.688 Y102.531 E6.25281
G1 X96.531 Y102.255 E6.26753
G1 X96.408 Y101.907 E6.28469
G1 X96.343 Y101.517 E6.30300
G1 X96.121 Y101.513 E6.31331
G1 X96.056 Y101.824 E6.32806
G1 X96.031 Y102.183 E6.34477
G1 X96.080 Y102.571 E6.36289
G1 X96.209 Y102.973 E6.38251
G1 X96.444 Y103.429 E6.40630
G1 X96.691 Y103.763 E6.42554
G1 X96.986 Y104.065 E6.44515
G1 X97.395 Y104.378 E6.46906
G1 X97.805 Y104.586 E6.49039
G1 X98.415 Y104.787 E6.52015
G1 X97.922 Y107.757 E6.65985
G1 X97.735 Y108.175 F7800.000
G1 E4.65985 F2400.00000
G92 E0
G1 X97.988 Y118.209 F7800.000
G1 E2.00000 F2400.00000
G1 X97.149 Y118.215 E2.03895 F1500.000
G1 X96.151 Y118.192 E2.08524
G1 X95.329 Y118.133 E2.12350
G1 X94.284 Y118.001 E2.17236
G1 X92.978 Y117.752 E2.23401
G1 X92.267 Y117.576 E2.26803
G1 X91.529 Y117.360 E2.30368
G1 X90.815 Y117.111 E2.33876
G1 X89.965 Y116.754 E2.38152
G1 X89.522 Y116.540 E2.40437
G1 X88.990 Y116.244 E2.43258
G1 X88.422 Y115.866 E2.46428
G1 X88.155 Y115.662 E2.47984
G1 X87.848 Y115.391 E2.49885
G1 X87.599 Y115.135 E2.51542
G1 X87.403 Y114.901 E2.52955
G1 X87.003 Y114.321 E2.56225
G1 X86.703 Y113.814 E2.58958
G1 X86.432 Y113.311 E2.61610
G1 X86.235 Y112.894 E2.63750
G1 X86.045 Y112.411 E2.66158
G1 X85.890 Y111.900 E2.68635
G1 X85.764 Y111.311 E2.71427
G1 X85.669 Y110.568 E2.74905
G1 X85.643 Y110.134 E2.76922
G1 X85.640 Y109.609 E2.79355
G1 X85.673 Y108.981 E2.82275
G1 X85.755 Y108.224 E2.85805
G1 X85.905 Y107.318 E2.90066
G1 X86.142 Y106.244 E2.95169
G1 X86.486 Y104.992 E3.01195
G1 X86.956 Y103.564 E3.08168
G1 X87.565 Y101.984 E3.16023
G1 X88.314 Y100.300 E3.24572
G1 X89.188 Y98.589 E3.33490
G1 X90.154 Y96.940 E3.42356
G1 X91.154 Y95.433 E3.50742
G1 X92.134 Y94.122 E3.58337
G1 X93.056 Y93.029 E3.64973
G1 X93.896 Y92.152 E3.70607
G1 X94.643 Y91.476 E3.75280
G1 X95.295 Y90.976 E3.79088
G1 X95.855 Y90.625 E3.82154
G1 X96.332 Y90.394 E3.84616
G1 X96.742 Y90.254 E3.86624
G1 X97.106 Y90.181 E3.88349
G1 X97.452 Y90.159 E3.89956
G1 X97.746 Y90.178 E3.91325
G1 X98.162 Y90.254 E3.93287 F1500.000
G1 X98.572 Y90.394 E3.95296
G1 X99.049 Y90.625 E3.97757
G1 X99.609 Y90.977 E4.00823
G1 X100.261 Y91.476 E4.04632
G1 X101.008 Y92.152 E4.09306
G1 X101.848 Y93.029 E4.14939
G1 X102.770 Y94.122 E4.21575
G1 X103.750 Y95.434 E4.29171
G1 X104.750 Y96.940 E4.37557
G1 X105.715 Y98.589 E4.46421
G1 X106.592 Y100.303 E4.55354
G1 X107.339 Y101.983 E4.63883
G1 X107.948 Y103.564 E4.71744
G1 X108.418 Y104.992 E4.78717
G1 X108.762 Y106.244 E4.84742
G1 X108.999 Y107.318 E4.89845
G1 X109.149 Y108.224 E4.94106
G1 X109.231 Y108.981 E4.97636
G1 X109.264 Y109.609 E5.00556
G1 X109.261 Y110.121 E5.02929
G1 X109.191 Y110.970 E5.06882
G1 X109.080 Y111.619 E5.09936
G1 X108.940 Y112.162 E5.12537
G1 X108.769 Y112.653 E5.14949
G1 X108.563 Y113.125 E5.17342
G1 X108.164 Y113.878 E5.21292
G1 X107.687 Y114.649 E5.25499
G1 X106.634 Y116.030 E5.33553
G1 X104.087 Y117.112 E5.46393
G1 X103.375 Y117.359 E5.49892
G1 X102.637 Y117.576 E5.53457
G1 X101.916 Y117.754 E5.56902
G1 X101.248 Y117.893 E5.60068
G1 X100.067 Y118.079 E5.65616
G1 X99.139 Y118.170 E5.69942
G1 X98.048 Y118.208 E5.75004
G1 X106.290 Y116.661 F7800.000
G1 X104.248 Y117.528 E5.85299 F1500.000
G1 X103.511 Y117.785 E5.88919
G1 X102.754 Y118.007 E5.92580
G1 X102.015 Y118.189 E5.96108
G1 X101.328 Y118.332 E5.99364
G1 X100.123 Y118.522 E6.05022
G1 X99.172 Y118.615 E6.09459
G1 X98.412 Y118.652 E6.12988
G1 X97.145 Y118.661 E6.18864
G1 X96.130 Y118.638 E6.23575
G1 X95.284 Y118.577 E6.27508
G1 X94.214 Y118.442 E6.32515
G1 X92.883 Y118.188 E6.38801
G1 X92.150 Y118.007 E6.42302
G1 X91.393 Y117.785 E6.45963
G1 X90.655 Y117.528 E6.49588
G1 X89.782 Y117.161 E6.53982
G1 X89.316 Y116.937 E6.56380
G1 X88.758 Y116.626 E6.59346
G1 X88.163 Y116.229 E6.62663
G1 X87.871 Y116.008 E6.64360
G1 X87.539 Y115.714 E6.66416
G1 X87.267 Y115.434 E6.68228
G1 X87.047 Y115.172 E6.69815
G1 X86.627 Y114.562 E6.73253
G1 X86.314 Y114.034 E6.76099
G1 X86.034 Y113.512 E6.78848
G1 X85.825 Y113.071 E6.81111
G1 X85.623 Y112.558 E6.83671
G1 X85.457 Y112.012 E6.86319
G1 X85.324 Y111.386 E6.89284
G1 X85.224 Y110.610 E6.92918
G1 X85.196 Y110.148 E6.95061
G1 X85.194 Y109.599 E6.97611
G1 X85.228 Y108.945 E7.00648
G1 X85.313 Y108.164 E7.04294
G1 X85.467 Y107.234 E7.08667
