; Generated with MatterSlice 1.0
; filamentDiameter = 1.75
; extrusionWidth = 0.4
; firstLayerExtrusionWidth = 0.4
; layerThickness = 0.1
; firstLayerThickness = 0.25
; automatic settings before start_gcode
G21 ; set units to millimeters
M107 ; fan off
M190 S70 ; wait for bed temperature to be reached
M104 T0 S200 ; start heating extruder 1
T0 ; set the active extruder to 0
; settings from start_gcode
G28 ; home all axes
G1 Z5 F5000 ; lift nozzle
; automatic settings after start_gcode
M109 T0 S200 ; wait for extruder 1 to reach temperature
T0 ; set the active extruder to 0
G90 ; use absolute coordinates
G92 E0 ; reset the expected extruder position
M82 ; use absolute distance for extrusion
; Layer count: 179
; Layer Change GCode
; LAYER:0
G4 P0
M107
G0 F7800 X126.979 Y122.2 Z0.25
; TYPE:SKIRT
G1 F1800 E0
G1 F1080 X73.021 Y122.2 E2.24331
G1 X73.021 Y77.8 E4.08925
G1 X126.979 Y77.8 E6.33256
G1 X126.979 Y122.2 E8.1785
G1 F1800 E7.1785
G0 F7800 X79.421 Y115.8
; TYPE:WALL-OUTER
G1 F1800 E8.1785
G1 F1080 X79.421 Y115.8 E8.1785
G1 X79.421 Y84.2 E9.49228
G1 X120.579 Y84.2 E11.20343
G1 X120.579 Y115.8 E12.5172
G1 X79.421 Y115.8 E14.22835
G0 F7800 X79.821 Y115.4
; TYPE:WALL-INNER
G1 F1080 X79.821 Y115.4 E14.22835
G1 X79.821 Y84.6 E15.50887
G1 X120.179 Y84.6 E17.18676
G1 X120.179 Y115.4 E18.46727
G1 X79.821 Y115.4 E20.14516
G0 F7800 X80.221 Y115
G1 F1080 X80.221 Y115 E20.14516
G1 X80.221 Y85 E21.39242
G1 X119.779 Y85 E23.03705
G1 X119.779 Y115 E24.28431
G1 X80.221 Y115 E25.92894
G0 F7800 X80.718 Y114.659
; TYPE:BOTTOM-FILL
G1 F1080 X80.561 Y114.502 E25.93817
G0 F7800 X80.561 Y113.936
G1 F1080 X81.284 Y114.659 E25.98068
G0 F7800 X81.849 Y114.659
G1 F1080 X80.561 Y113.371 E26.05641
G0 F7800 X80.561 Y112.805
G1 F1080 X82.415 Y114.659 E26.16541
G0 F7800 X82.981 Y114.659
G1 F1080 X80.561 Y112.239 E26.3077
G0 F7800 X80.561 Y111.674
G1 F1080 X83.546 Y114.659 E26.48321
G0 F7800 X84.112 Y114.659
G1 F1080 X80.561 Y111.108 E26.69199
G0 F7800 X80.561 Y110.542
G1 F1080 X84.678 Y114.659 E26.93406
G0 F7800 X85.243 Y114.659
G1 F1080 X80.561 Y109.977 E27.20934
G0 F7800 X80.561 Y109.411
G1 F1080 X85.809 Y114.659 E27.5179
G0 F7800 X86.375 Y114.659
G1 F1080 X80.561 Y108.845 E27.85974
G0 F7800 X80.561 Y108.279
G1 F1080 X86.94 Y114.659 E28.23483
G0 F7800 X87.506 Y114.659
G1 F1080 X80.561 Y107.714 E28.64317
G0 F7800 X80.561 Y107.148
G1 F1080 X88.072 Y114.659 E29.08479
G0 F7800 X88.637 Y114.659
G1 F1080 X80.561 Y106.582 E29.55966
G0 F7800 X80.561 Y106.017
G1 F1080 X89.203 Y114.659 E30.06777
G0 F7800 X89.769 Y114.659
G1 F1080 X80.561 Y105.451 E30.60917
G0 F7800 X80.561 Y104.885
G1 F1080 X90.335 Y114.659 E31.18384
G0 F7800 X90.9 Y114.659
G1 F1080 X80.561 Y104.32 E31.79174
G0 F7800 X80.561 Y103.754
G1 F1080 X91.466 Y114.659 E32.43291
G0 F7800 X92.032 Y114.659
G1 F1080 X80.561 Y103.188 E33.10736
G0 F7800 X80.561 Y102.623
G1 F1080 X92.597 Y114.659 E33.81503
G0 F7800 X93.163 Y114.659
G1 F1080 X80.561 Y102.057 E34.55598
G0 F7800 X80.561 Y101.491
G1 F1080 X93.729 Y114.659 E35.33021
G0 F7800 X94.294 Y114.659
G1 F1080 X80.561 Y100.926 E36.13766
G0 F7800 X80.561 Y100.36
G1 F1080 X94.86 Y114.659 E36.97838
G0 F7800 X95.426 Y114.659
G1 F1080 X80.56 Y99.793 E37.85245
G0 F7800 X80.56 Y99.228
G1 F1080 X95.991 Y114.659 E38.75973
G0 F7800 X96.557 Y114.659
G1 F1080 X80.56 Y98.662 E39.70029
G0 F7800 X80.56 Y98.096
G1 F1080 X97.123 Y114.659 E40.67413
G0 F7800 X97.688 Y114.659
G1 F1080 X80.56 Y97.531 E41.68119
G0 F7800 X80.56 Y96.965
G1 F1080 X98.254 Y114.659 E42.72153
G0 F7800 X98.82 Y114.659
G1 F1080 X80.56 Y96.399 E43.79515
G0 F7800 X80.56 Y95.834
G1 F1080 X99.385 Y114.659 E44.90199
G0 F7800 X99.951 Y114.659
G1 F1080 X80.56 Y95.268 E46.04211
G0 F7800 X80.56 Y94.702
G1 F1080 X100.517 Y114.659 E47.2155
G0 F7800 X101.083 Y114.659
G1 F1080 X80.56 Y94.137 E48.42214
G0 F7800 X80.56 Y93.571
G1 F1080 X101.648 Y114.659 E49.66204
G0 F7800 X102.214 Y114.659
G1 F1080 X80.56 Y93.005 E50.93521
G0 F7800 X80.56 Y92.44
G1 F1080 X102.78 Y114.659 E52.24163
G0 F7800 X103.345 Y114.659
G1 F1080 X80.56 Y91.874 E53.5813
G0 F7800 X80.56 Y91.308
G1 F1080 X103.911 Y114.659 E54.95425
G0 F7800 X104.477 Y114.659
G1 F1080 X80.56 Y90.743 E56.36045
G0 F7800 X80.56 Y90.177
G1 F1080 X105.042 Y114.659 E57.7999
G0 F7800 X105.608 Y114.659
G1 F1080 X80.56 Y89.611 E59.27262
G0 F7800 X80.56 Y89.045
G1 F1080 X106.174 Y114.659 E60.77863
G0 F7800 X106.739 Y114.659
G1 F1080 X80.56 Y88.48 E62.31785
G0 F7800 X80.56 Y87.914
G1 F1080 X107.305 Y114.659 E63.89036
G0 F7800 X107.871 Y114.659
G1 F1080 X80.56 Y87.348 E65.49614
G0 F7800 X80.56 Y86.783
G1 F1080 X108.436 Y114.659 E67.13514
G0 F7800 X109.002 Y114.659
G1 F1080 X80.56 Y86.217 E68.80742
G0 F7800 X80.56 Y85.651
G1 F1080 X109.568 Y114.659 E70.51298
G0 F7800 X110.134 Y114.659
G1 F1080 X80.813 Y85.339 E72.23692
G0 F7800 X81.379 Y85.339
G1 F1080 X110.699 Y114.659 E73.96082
G0 F7800 X111.265 Y114.659
G1 F1080 X81.945 Y85.339 E75.68472
G0 F7800 X82.51 Y85.339
G1 F1080 X111.831 Y114.659 E77.40866
G0 F7800 X112.396 Y114.659
G1 F1080 X83.076 Y85.339 E79.13256
G0 F7800 X83.642 Y85.339
G1 F1080 X112.962 Y114.659 E80.85646
G0 F7800 X113.528 Y114.659
G1 F1080 X84.207 Y85.339 E82.5804
G0 F7800 X84.773 Y85.339
G1 F1080 X114.093 Y114.659 E84.3043
G0 F7800 X114.659 Y114.659
G1 F1080 X85.339 Y85.339 E86.0282
G0 F7800 X85.904 Y85.339
G1 F1080 X115.225 Y114.659 E87.75214
G0 F7800 X115.79 Y114.659
G1 F1080 X86.47 Y85.339 E89.47604
G0 F7800 X87.036 Y85.339
G1 F1080 X116.356 Y114.659 E91.19994
G0 F7800 X116.922 Y114.659
G1 F1080 X87.602 Y85.339 E92.92385
G0 F7800 X88.167 Y85.339
G1 F1080 X117.487 Y114.659 E94.64775
G0 F7800 X118.053 Y114.659
G1 F1080 X88.733 Y85.339 E96.37165
G0 F7800 X89.299 Y85.339
G1 F1080 X118.619 Y114.659 E98.09556
G0 F7800 X119.184 Y114.659
G1 F1080 X89.864 Y85.339 E99.81946
G0 F7800 X90.43 Y85.339
G1 F1080 X119.438 Y114.346 E101.52499
G0 F7800 X119.438 Y113.781
G1 F1080 X90.996 Y85.339 E103.19727
G0 F7800 X91.561 Y85.339
G1 F1080 X119.438 Y113.215 E104.8363
G0 F7800 X119.438 Y112.649
G1 F1080 X92.127 Y85.339 E106.44206
G0 F7800 X92.693 Y85.339
G1 F1080 X119.438 Y112.084 E108.01456
G0 F7800 X119.438 Y111.518
G1 F1080 X93.258 Y85.339 E109.55381
G0 F7800 X93.824 Y85.339
G1 F1080 X119.438 Y110.952 E111.05979
G0 F7800 X119.438 Y110.387
G1 F1080 X94.39 Y85.339 E112.53252
G0 F7800 X94.955 Y85.339
G1 F1080 X119.438 Y109.821 E113.97199
G0 F7800 X119.438 Y109.255
G1 F1080 X95.521 Y85.339 E115.37819
G0 F7800 X96.087 Y85.339
G1 F1080 X119.438 Y108.69 E116.75114
G0 F7800 X119.438 Y108.124
G1 F1080 X96.653 Y85.339 E118.09081
G0 F7800 X97.218 Y85.339
G1 F1080 X119.438 Y107.558 E119.39723
G0 F7800 X119.438 Y106.993
G1 F1080 X97.784 Y85.339 E120.67041
G0 F7800 X98.35 Y85.339
G1 F1080 X119.438 Y106.427 E121.9103
G0 F7800 X119.438 Y105.861
G1 F1080 X98.915 Y85.339 E123.11694
G0 F7800 X99.481 Y85.339
G1 F1080 X119.438 Y105.295 E124.29031
G0 F7800 X119.438 Y104.73
G1 F1080 X100.047 Y85.34 E125.4304
G0 F7800 X100.613 Y85.34
G1 F1080 X119.438 Y104.164 E126.5372
G0 F7800 X119.438 Y103.598
G1 F1080 X101.179 Y85.34 E127.61073
G0 F7800 X101.744 Y85.34
G1 F1080 X119.438 Y103.033 E128.65104
G0 F7800 X119.438 Y102.467
G1 F1080 X102.31 Y85.34 E129.65808
G0 F7800 X102.876 Y85.34
G1 F1080 X119.438 Y101.901 E130.63183
G0 F7800 X119.438 Y101.336
G1 F1080 X103.441 Y85.34 E131.57236
G0 F7800 X104.007 Y85.34
G1 F1080 X119.438 Y100.77 E132.47962
G0 F7800 X119.438 Y100.204
G1 F1080 X104.573 Y85.34 E133.35359
G0 F7800 X105.139 Y85.34
G1 F1080 X119.438 Y99.639 E134.19432
G0 F7800 X119.438 Y99.073
G1 F1080 X105.704 Y85.34 E135.00179
G0 F7800 X106.27 Y85.34
G1 F1080 X119.438 Y98.507 E135.77599
G0 F7800 X119.438 Y97.942
G1 F1080 X106.836 Y85.34 E136.51694
G0 F7800 X107.401 Y85.34
G1 F1080 X119.438 Y97.376 E137.22464
G0 F7800 X119.438 Y96.81
G1 F1080 X107.967 Y85.34 E137.89906
G0 F7800 X108.533 Y85.34
G1 F1080 X119.438 Y96.245 E138.54024
G0 F7800 X119.438 Y95.679
G1 F1080 X109.098 Y85.34 E139.14816
G0 F7800 X109.664 Y85.34
G1 F1080 X119.438 Y95.113 E139.7228
G0 F7800 X119.438 Y94.547
G1 F1080 X110.23 Y85.34 E140.26417
G0 F7800 X110.795 Y85.34
G1 F1080 X119.438 Y93.982 E140.77232
G0 F7800 X119.438 Y93.416
G1 F1080 X111.361 Y85.34 E141.24718
G0 F7800 X111.927 Y85.34
G1 F1080 X119.438 Y92.85 E141.68877
G0 F7800 X119.438 Y92.285
G1 F1080 X112.492 Y85.34 E142.09714
G0 F7800 X113.058 Y85.34
G1 F1080 X119.438 Y91.719 E142.47223
G0 F7800 X119.438 Y91.153
G1 F1080 X113.624 Y85.34 E142.81404
G0 F7800 X114.189 Y85.34
G1 F1080 X119.438 Y90.588 E143.12263
G0 F7800 X119.438 Y90.022
G1 F1080 X114.755 Y85.34 E143.39795
G0 F7800 X115.321 Y85.34
G1 F1080 X119.438 Y89.456 E143.63998
G0 F7800 X119.438 Y88.891
G1 F1080 X115.887 Y85.34 E143.84877
G0 F7800 X116.452 Y85.34
G1 F1080 X119.438 Y88.325 E144.0243
G0 F7800 X119.438 Y87.759
G1 F1080 X117.018 Y85.34 E144.16656
G0 F7800 X117.584 Y85.34
G1 F1080 X119.438 Y87.194 E144.27557
G0 F7800 X119.438 Y86.628
G1 F1080 X118.149 Y85.34 E144.35133
G0 F7800 X118.715 Y85.34
G1 F1080 X119.438 Y86.062 E144.39381
G0 F7800 X119.438 Y85.496
G1 F1080 X119.281 Y85.34 E144.40301
; Layer Change GCode
; LAYER:1
G4 P0
M106 S89
G0 F7800 X79.779 Y115.386 Z0.35
G0 X79.461 Y115.628
G0 X79.631 Y115.5
G0 X79.631 Y115.5
G0 X79.421 Y115.8
G0 X79.421 Y115.8
G0 X80.221 Y115
; TYPE:WALL-INNER
G1 F1800 X80.221 Y115 E144.40301
G1 X80.221 Y85 E144.90191
G1 X119.779 Y85 E145.55976
G1 X119.779 Y115 E146.05866
G1 X80.221 Y115 E146.71652
G0 F7800 X79.821 Y115.4
G1 F1800 X79.821 Y115.4 E146.71652
G1 X79.821 Y84.6 E147.22872
G1 X120.179 Y84.6 E147.89988
G1 X120.179 Y115.4 E148.41208
G1 X79.821 Y115.4 E149.08324
G0 F7800 X79.421 Y115.8
; TYPE:WALL-OUTER
G1 F1260 X79.421 Y115.8 E149.08324
G1 X79.421 Y84.2 E149.60875
G1 X120.579 Y84.2 E150.29321
G1 X120.579 Y115.8 E150.81872
G1 X79.421 Y115.8 E151.50318
G0 F7800 X79.631 Y115.5
G0 X80.561 Y114.6
G0 X80.561 Y114.6
; TYPE:FILL
G1 F3600 X109.821 Y85.34 E152.19133
G0 F7800 X110.387 Y85.34
G1 F3600 X81.067 Y114.659 E152.88088
G0 F7800 X81.633 Y114.659
G1 F3600 X110.952 Y85.34 E153.57042
G0 F7800 X111.518 Y85.34
G1 F3600 X82.199 Y114.659 E154.25996
G0 F7800 X82.764 Y114.659
G1 F3600 X112.084 Y85.34 E154.94951
G0 F7800 X112.649 Y85.34
G1 F3600 X83.33 Y114.659 E155.63905
G0 F7800 X83.896 Y114.659
G1 F3600 X113.215 Y85.34 E156.32858
G0 F7800 X113.781 Y85.34
G1 F3600 X84.461 Y114.659 E157.01813
G0 F7800 X85.027 Y114.659
G1 F3600 X114.346 Y85.34 E157.70767
G0 F7800 X114.912 Y85.34
G1 F3600 X85.593 Y114.659 E158.39721
G0 F7800 X86.158 Y114.659
G1 F3600 X115.478 Y85.34 E159.08676
G0 F7800 X116.044 Y85.34
G1 F3600 X86.724 Y114.659 E159.77631
G0 F7800 X87.29 Y114.659
G1 F3600 X116.609 Y85.34 E160.46585
G0 F7800 X117.175 Y85.34
G1 F3600 X87.855 Y114.659 E161.1554
G0 F7800 X88.421 Y114.659
G1 F3600 X117.741 Y85.34 E161.84495
G0 F7800 X118.306 Y85.34
G1 F3600 X88.987 Y114.659 E162.53448
G0 F7800 X89.552 Y114.659
G1 F3600 X118.872 Y85.34 E163.22403
G0 F7800 X119.438 Y85.34
G1 F3600 X90.118 Y114.659 E163.91358
G0 F7800 X90.684 Y114.659
G1 F3600 X119.438 Y85.905 E164.58983
G0 F7800 X119.438 Y86.471
G1 F3600 X91.25 Y114.659 E165.25277
G0 F7800 X91.815 Y114.659
G1 F3600 X119.438 Y87.037 E165.90241
G0 F7800 X119.438 Y87.602
G1 F3600 X92.381 Y114.659 E166.53875
G0 F7800 X92.947 Y114.659
G1 F3600 X119.438 Y88.168 E167.16178
G0 F7800 X119.438 Y88.734
G1 F3600 X93.512 Y114.659 E167.77151
G0 F7800 X94.078 Y114.659
G1 F3600 X119.438 Y89.299 E168.36793
G0 F7800 X119.438 Y89.865
G1 F3600 X94.644 Y114.659 E168.95105
G0 F7800 X95.209 Y114.659
G1 F3600 X119.438 Y90.431 E169.52087
G0 F7800 X119.438 Y90.996
G1 F3600 X95.775 Y114.659 E170.07739
G0 F7800 X96.341 Y114.659
G1 F3600 X119.438 Y91.562 E170.62059
G0 F7800 X119.438 Y92.128
G1 F3600 X96.906 Y114.659 E171.1505
G0 F7800 X97.472 Y114.659
G1 F3600 X119.438 Y92.693 E171.6671
G0 F7800 X119.438 Y93.259
G1 F3600 X98.038 Y114.659 E172.1704
G0 F7800 X98.603 Y114.659
G1 F3600 X119.438 Y93.825 E172.6604
G0 F7800 X119.438 Y94.39
G1 F3600 X99.169 Y114.659 E173.13709
G0 F7800 X99.735 Y114.659
G1 F3600 X119.438 Y94.956 E173.60048
G0 F7800 X119.438 Y95.522
G1 F3600 X100.3 Y114.659 E174.05056
G0 F7800 X100.866 Y114.659
G1 F3600 X119.438 Y96.088 E174.48733
G0 F7800 X119.438 Y96.653
G1 F3600 X101.432 Y114.659 E174.91081
G0 F7800 X101.998 Y114.659
G1 F3600 X119.438 Y97.219 E175.32097
G0 F7800 X119.438 Y97.785
G1 F3600 X102.563 Y114.659 E175.71783
G0 F7800 X103.129 Y114.659
G1 F3600 X119.438 Y98.35 E176.10139
G0 F7800 X119.438 Y98.916
G1 F3600 X103.695 Y114.659 E176.47164
G0 F7800 X104.26 Y114.659
G1 F3600 X119.438 Y99.482 E176.8286
G0 F7800 X119.438 Y100.047
G1 F3600 X104.826 Y114.659 E177.17225
G0 F7800 X105.392 Y114.659
G1 F3600 X119.438 Y100.613 E177.50259
G0 F7800 X119.438 Y101.179
G1 F3600 X105.957 Y114.659 E177.81963
G0 F7800 X106.523 Y114.659
G1 F3600 X119.438 Y101.744 E178.12337
G0 F7800 X119.438 Y102.31
G1 F3600 X107.089 Y114.659 E178.4138
G0 F7800 X107.654 Y114.659
G1 F3600 X119.438 Y102.876 E178.69093
G0 F7800 X119.438 Y103.441
G1 F3600 X108.22 Y114.659 E178.95476
G0 F7800 X108.786 Y114.659
G1 F3600 X119.438 Y104.007 E179.20528
G0 F7800 X119.438 Y104.573
G1 F3600 X109.351 Y114.659 E179.4425
G0 F7800 X109.917 Y114.659
G1 F3600 X119.438 Y105.139 E179.66641
G0 F7800 X119.438 Y105.704
G1 F3600 X110.483 Y114.659 E179.87701
G0 F7800 X111.048 Y114.659
G1 F3600 X119.438 Y106.27 E180.07432
G0 F7800 X119.438 Y106.836
G1 F3600 X111.614 Y114.659 E180.25832
G0 F7800 X112.18 Y114.659
G1 F3600 X119.438 Y107.401 E180.42902
G0 F7800 X119.438 Y107.967
G1 F3600 X112.746 Y114.659 E180.5864
G0 F7800 X113.311 Y114.659
G1 F3600 X119.438 Y108.533 E180.73049
G0 F7800 X119.438 Y109.098
G1 F3600 X113.877 Y114.659 E180.86127
G0 F7800 X114.443 Y114.659
G1 F3600 X119.438 Y109.664 E180.97875
G0 F7800 X119.438 Y110.23
G1 F3600 X115.008 Y114.659 E181.08292
G0 F7800 X115.574 Y114.659
G1 F3600 X119.438 Y110.795 E181.1738
G0 F7800 X119.438 Y111.361
G1 F3600 X116.14 Y114.659 E181.25136
G0 F7800 X116.705 Y114.659
G1 F3600 X119.438 Y111.927 E181.31563
G0 F7800 X119.438 Y112.492
G1 F3600 X117.271 Y114.659 E181.36659
G0 F7800 X117.837 Y114.659
G1 F3600 X119.438 Y113.058 E181.40424
G0 F7800 X119.438 Y113.624
G1 F3600 X118.402 Y114.659 E181.4286
G0 F7800 X118.968 Y114.659
G1 F3600 X119.438 Y114.189 E181.43965
G0 F7800 X109.255 Y85.34
G0 X109.255 Y85.34
G1 F3600 X80.561 Y114.034 E182.11449
G0 F7800 X80.561 Y113.468
G1 F3600 X108.69 Y85.34 E182.77603
G0 F7800 X108.124 Y85.34
G1 F3600 X80.561 Y112.903 E183.42427
G0 F7800 X80.561 Y112.337
G1 F3600 X107.558 Y85.34 E184.0592
G0 F7800 X106.993 Y85.34
G1 F3600 X80.561 Y111.771 E184.68082
G0 F7800 X80.561 Y111.205
G1 F3600 X106.427 Y85.34 E185.28914
G0 F7800 X105.861 Y85.34
G1 F3600 X80.561 Y110.64 E185.88416
G0 F7800 X80.561 Y110.074
G1 F3600 X105.295 Y85.34 E186.46586
G0 F7800 X104.73 Y85.34
G1 F3600 X80.561 Y109.508 E187.03427
G0 F7800 X80.561 Y108.943
G1 F3600 X104.164 Y85.34 E187.58938
G0 F7800 X103.598 Y85.34
G1 F3600 X80.561 Y108.377 E188.13117
G0 F7800 X80.561 Y107.811
G1 F3600 X103.033 Y85.34 E188.65967
G0 F7800 X102.467 Y85.34
G1 F3600 X80.561 Y107.246 E189.17486
G0 F7800 X80.561 Y106.68
G1 F3600 X101.901 Y85.34 E189.67675
G0 F7800 X101.336 Y85.34
G1 F3600 X80.561 Y106.114 E190.16533
G0 F7800 X80.561 Y105.549
G1 F3600 X100.77 Y85.34 E190.64062
G0 F7800 X100.204 Y85.34
G1 F3600 X80.561 Y104.983 E191.10259
G0 F7800 X80.561 Y104.417
G1 F3600 X99.639 Y85.339 E191.55127
G0 F7800 X99.074 Y85.339
G1 F3600 X80.561 Y103.852 E191.98667
G0 F7800 X80.561 Y103.286
G1 F3600 X98.508 Y85.339 E192.40876
G0 F7800 X97.942 Y85.339
G1 F3600 X80.561 Y102.72 E192.81753
G0 F7800 X80.561 Y102.155
G1 F3600 X97.377 Y85.339 E193.21302
G0 F7800 X96.811 Y85.339
G1 F3600 X80.561 Y101.589 E193.59519
G0 F7800 X80.561 Y101.023
G1 F3600 X96.245 Y85.339 E193.96406
G0 F7800 X95.68 Y85.339
G1 F3600 X80.561 Y100.457 E194.31962
G0 F7800 X80.56 Y99.892
G1 F3600 X95.114 Y85.339 E194.6619
G0 F7800 X94.548 Y85.339
G1 F3600 X80.56 Y99.327 E194.99087
G0 F7800 X80.56 Y98.761
G1 F3600 X93.982 Y85.339 E195.30654
G0 F7800 X93.417 Y85.339
G1 F3600 X80.56 Y98.195 E195.6089
G0 F7800 X80.56 Y97.63
G1 F3600 X92.851 Y85.339 E195.89797
G0 F7800 X92.285 Y85.339
G1 F3600 X80.56 Y97.064 E196.17372
G0 F7800 X80.56 Y96.498
G1 F3600 X91.72 Y85.339 E196.43618
G0 F7800 X91.154 Y85.339
G1 F3600 X80.56 Y95.933 E196.68533
G0 F7800 X80.56 Y95.367
G1 F3600 X90.588 Y85.339 E196.92118
G0 F7800 X90.023 Y85.339
G1 F3600 X80.56 Y94.801 E197.14372
G0 F7800 X80.56 Y94.236
G1 F3600 X89.457 Y85.339 E197.35296
G0 F7800 X88.891 Y85.339
G1 F3600 X80.56 Y93.67 E197.5489
G0 F7800 X80.56 Y93.104
G1 F3600 X88.326 Y85.339 E197.73153
G0 F7800 X87.76 Y85.339
G1 F3600 X80.56 Y92.539 E197.90086
G0 F7800 X80.56 Y91.973
G1 F3600 X87.194 Y85.339 E198.05688
G0 F7800 X86.629 Y85.339
G1 F3600 X80.56 Y91.407 E198.1996
G0 F7800 X80.56 Y90.842
G1 F3600 X86.063 Y85.339 E198.32903
G0 F7800 X85.497 Y85.339
G1 F3600 X80.56 Y90.276 E198.44514
G0 F7800 X80.56 Y89.71
G1 F3600 X84.932 Y85.339 E198.54795
G0 F7800 X84.366 Y85.339
G1 F3600 X80.56 Y89.144 E198.63745
G0 F7800 X80.56 Y88.579
G1 F3600 X83.8 Y85.339 E198.71365
G0 F7800 X83.234 Y85.339
G1 F3600 X80.56 Y88.013 E198.77654
G0 F7800 X80.56 Y87.447
G1 F3600 X82.669 Y85.339 E198.82612
G0 F7800 X82.103 Y85.339
G1 F3600 X80.56 Y86.882 E198.86241
G0 F7800 X80.56 Y86.316
G1 F3600 X81.537 Y85.339 E198.88539
G0 F7800 X80.972 Y85.339
G1 F3600 X80.56 Y85.75 E198.89507
; Layer Change GCode
; LAYER:2
G0 F7800 X79.634 Y115.398 Z0.45
G0 X79.621 Y115.798
G0 X79.631 Y115.5
G0 X79.631 Y115.5
G0 X79.421 Y115.8
G0 X79.421 Y115.8
G0 X80.221 Y115
; TYPE:WALL-INNER
G1 F1800 X80.221 Y115 E198.89507
G1 X80.221 Y85 E199.39397
G1 X119.779 Y85 E200.05182
G1 X119.779 Y115 E200.55072
G1 X80.221 Y115 E201.20858
G0 F7800 X79.821 Y115.4
G1 F1800 X79.821 Y115.4 E201.20858
G1 X79.821 Y84.6 E201.72078
G1 X120.179 Y84.6 E202.39194
G1 X120.179 Y115.4 E202.90415
G1 X79.821 Y115.4 E203.5753
G0 F7800 X79.421 Y115.8
; TYPE:WALL-OUTER
G1 F1260 X79.421 Y115.8 E203.5753
G1 X79.421 Y84.2 E204.10081
G1 X120.579 Y84.2 E204.78527
G1 X120.579 Y115.8 E205.31078
G1 X79.421 Y115.8 E205.99524
G0 F7800 X79.631 Y115.5
G0 X80.718 Y114.659
G0 X80.718 Y114.659
; TYPE:FILL
G1 F3600 X80.561 Y114.502 E205.99894
G0 F7800 X80.561 Y113.936
G1 F3600 X81.284 Y114.659 E206.01594
G0 F7800 X81.849 Y114.659
G1 F3600 X80.561 Y113.371 E206.04623
G0 F7800 X80.561 Y112.805
G1 F3600 X82.415 Y114.659 E206.08983
G0 F7800 X82.981 Y114.659
G1 F3600 X80.561 Y112.239 E206.14675
G0 F7800 X80.561 Y111.674
G1 F3600 X83.546 Y114.659 E206.21695
G0 F7800 X84.112 Y114.659
G1 F3600 X80.561 Y111.108 E206.30047
G0 F7800 X80.561 Y110.542
G1 F3600 X84.678 Y114.659 E206.39729
G0 F7800 X85.243 Y114.659
G1 F3600 X80.561 Y109.977 E206.5074
G0 F7800 X80.561 Y109.411
G1 F3600 X85.809 Y114.659 E206.63083
G0 F7800 X86.375 Y114.659
G1 F3600 X80.561 Y108.845 E206.76757
G0 F7800 X80.561 Y108.279
G1 F3600 X86.94 Y114.659 E206.9176
G0 F7800 X87.506 Y114.659
G1 F3600 X80.561 Y107.714 E207.08094
G0 F7800 X80.561 Y107.148
G1 F3600 X88.072 Y114.659 E207.25758
G0 F7800 X88.637 Y114.659
G1 F3600 X80.561 Y106.582 E207.44753
G0 F7800 X80.561 Y106.017
G1 F3600 X89.203 Y114.659 E207.65078
G0 F7800 X89.769 Y114.659
G1 F3600 X80.561 Y105.451 E207.86734
G0 F7800 X80.561 Y104.885
G1 F3600 X90.335 Y114.659 E208.09721
G0 F7800 X90.9 Y114.659
G1 F3600 X80.561 Y104.32 E208.34036
G0 F7800 X80.561 Y103.754
G1 F3600 X91.466 Y114.659 E208.59683
G0 F7800 X92.032 Y114.659
G1 F3600 X80.561 Y103.188 E208.86661
G0 F7800 X80.561 Y102.623
G1 F3600 X92.597 Y114.659 E209.14968
G0 F7800 X93.163 Y114.659
G1 F3600 X80.561 Y102.057 E209.44606
G0 F7800 X80.561 Y101.491
G1 F3600 X93.729 Y114.659 E209.75575
G0 F7800 X94.294 Y114.659
G1 F3600 X80.561 Y100.926 E210.07873
G0 F7800 X80.561 Y100.36
G1 F3600 X94.86 Y114.659 E210.41502
G0 F7800 X95.426 Y114.659
G1 F3600 X80.56 Y99.793 E210.76465
G0 F7800 X80.56 Y99.228
G1 F3600 X95.991 Y114.659 E211.12756
G0 F7800 X96.557 Y114.659
G1 F3600 X80.56 Y98.662 E211.50379
G0 F7800 X80.56 Y98.096
G1 F3600 X97.123 Y114.659 E211.89332
G0 F7800 X97.688 Y114.659
G1 F3600 X80.56 Y97.531 E212.29615
G0 F7800 X80.56 Y96.965
G1 F3600 X98.254 Y114.659 E212.71228
G0 F7800 X98.82 Y114.659
G1 F3600 X80.56 Y96.399 E213.14173
G0 F7800 X80.56 Y95.834
G1 F3600 X99.385 Y114.659 E213.58446
G0 F7800 X99.951 Y114.659
G1 F3600 X80.56 Y95.268 E214.04051
G0 F7800 X80.56 Y94.702
G1 F3600 X100.517 Y114.659 E214.50987
G0 F7800 X101.083 Y114.659
G1 F3600 X80.56 Y94.137 E214.99253
G0 F7800 X80.56 Y93.571
G1 F3600 X101.648 Y114.659 E215.48848
G0 F7800 X102.214 Y114.659
G1 F3600 X80.56 Y93.005 E215.99775
G0 F7800 X80.56 Y92.44
G1 F3600 X102.78 Y114.659 E216.52032
G0 F7800 X103.345 Y114.659
G1 F3600 X80.56 Y91.874 E217.05619
G0 F7800 X80.56 Y91.308
G1 F3600 X103.911 Y114.659 E217.60537
G0 F7800 X104.477 Y114.659
G1 F3600 X80.56 Y90.743 E218.16785
G0 F7800 X80.56 Y90.177
G1 F3600 X105.042 Y114.659 E218.74363
G0 F7800 X105.608 Y114.659
G1 F3600 X80.56 Y89.611 E219.33272
G0 F7800 X80.56 Y89.045
G1 F3600 X106.174 Y114.659 E219.93512
G0 F7800 X106.739 Y114.659
G1 F3600 X80.56 Y88.48 E220.55081
G0 F7800 X80.56 Y87.914
G1 F3600 X107.305 Y114.659 E221.17981
G0 F7800 X107.871 Y114.659
G1 F3600 X80.56 Y87.348 E221.82212
G0 F7800 X80.56 Y86.783
G1 F3600 X108.436 Y114.659 E222.47773
G0 F7800 X109.002 Y114.659
G1 F3600 X80.56 Y86.217 E223.14664
G0 F7800 X80.56 Y85.651
G1 F3600 X109.568 Y114.659 E223.82886
G0 F7800 X110.134 Y114.659
G1 F3600 X80.813 Y85.339 E224.51843
G0 F7800 X81.379 Y85.339
G1 F3600 X110.699 Y114.659 E225.208
G0 F7800 X111.265 Y114.659
G1 F3600 X81.945 Y85.339 E225.89756
G0 F7800 X82.51 Y85.339
G1 F3600 X111.831 Y114.659 E226.58713
G0 F7800 X112.396 Y114.659
G1 F3600 X83.076 Y85.339 E227.27669
G0 F7800 X83.642 Y85.339
G1 F3600 X112.962 Y114.659 E227.96625
G0 F7800 X113.528 Y114.659
G1 F3600 X84.207 Y85.339 E228.65583
G0 F7800 X84.773 Y85.339
G1 F3600 X114.093 Y114.659 E229.34539
G0 F7800 X114.659 Y114.659
G1 F3600 X85.339 Y85.339 E230.03495
G0 F7800 X85.904 Y85.339
G1 F3600 X115.225 Y114.659 E230.72452
G0 F7800 X115.79 Y114.659
G1 F3600 X86.47 Y85.339 E231.41408
G0 F7800 X87.036 Y85.339
G1 F3600 X116.356 Y114.659 E232.10365
G0 F7800 X116.922 Y114.659
G1 F3600 X87.602 Y85.339 E232.79321
G0 F7800 X88.167 Y85.339
G1 F3600 X117.487 Y114.659 E233.48277
G0 F7800 X118.053 Y114.659
G1 F3600 X88.733 Y85.339 E234.17233
G0 F7800 X89.299 Y85.339
G1 F3600 X118.619 Y114.659 E234.86189
G0 F7800 X119.184 Y114.659
G1 F3600 X89.864 Y85.339 E235.55145
G0 F7800 X90.43 Y85.339
G1 F3600 X119.438 Y114.346 E236.23366
G0 F7800 X119.438 Y113.781
G1 F3600 X90.996 Y85.339 E236.90258
G0 F7800 X91.561 Y85.339
G1 F3600 X119.438 Y113.215 E237.55819
G0 F7800 X119.438 Y112.649
G1 F3600 X92.127 Y85.339 E238.20049
G0 F7800 X92.693 Y85.339
G1 F3600 X119.438 Y112.084 E238.82949
G0 F7800 X119.438 Y111.518
G1 F3600 X93.258 Y85.339 E239.44519
G0 F7800 X93.824 Y85.339
G1 F3600 X119.438 Y110.952 E240.04758
G0 F7800 X119.438 Y110.387
G1 F3600 X94.39 Y85.339 E240.63667
G0 F7800 X94.955 Y85.339
G1 F3600 X119.438 Y109.821 E241.21247
G0 F7800 X119.438 Y109.255
G1 F3600 X95.521 Y85.339 E241.77494
G0 F7800 X96.087 Y85.339
G1 F3600 X119.438 Y108.69 E242.32412
G0 F7800 X119.438 Y108.124
G1 F3600 X96.653 Y85.339 E242.85999
G0 F7800 X97.218 Y85.339
G1 F3600 X119.438 Y107.558 E243.38256
G0 F7800 X119.438 Y106.993
G1 F3600 X97.784 Y85.339 E243.89183
G0 F7800 X98.35 Y85.339
G1 F3600 X119.438 Y106.427 E244.38779
G0 F7800 X119.438 Y105.861
G1 F3600 X98.915 Y85.339 E244.87045
G0 F7800 X99.481 Y85.339
G1 F3600 X119.438 Y105.295 E245.33979
G0 F7800 X119.438 Y104.73
G1 F3600 X100.047 Y85.34 E245.79583
G0 F7800 X100.613 Y85.34
G1 F3600 X119.438 Y104.164 E246.23855
G0 F7800 X119.438 Y103.598
G1 F3600 X101.179 Y85.34 E246.66796
G0 F7800 X101.744 Y85.34
G1 F3600 X119.438 Y103.033 E247.08409
G0 F7800 X119.438 Y102.467
G1 F3600 X102.31 Y85.34 E247.4869
G0 F7800 X102.876 Y85.34
G1 F3600 X119.438 Y101.901 E247.8764
G0 F7800 X119.438 Y101.336
G1 F3600 X103.441 Y85.34 E248.25261
G0 F7800 X104.007 Y85.34
G1 F3600 X119.438 Y100.77 E248.61551
G0 F7800 X119.438 Y100.204
G1 F3600 X104.573 Y85.34 E248.9651
G0 F7800 X105.139 Y85.34
G1 F3600 X119.438 Y99.639 E249.3014
G0 F7800 X119.438 Y99.073
G1 F3600 X105.704 Y85.34 E249.62439
G0 F7800 X106.27 Y85.34
G1 F3600 X119.438 Y98.507 E249.93407
G0 F7800 X119.438 Y97.942
G1 F3600 X106.836 Y85.34 E250.23045
G0 F7800 X107.401 Y85.34
G1 F3600 X119.438 Y97.376 E250.51353
G0 F7800 X119.438 Y96.81
G1 F3600 X107.967 Y85.34 E250.78329
G0 F7800 X108.533 Y85.34
G1 F3600 X119.438 Y96.245 E251.03976
G0 F7800 X119.438 Y95.679
G1 F3600 X109.098 Y85.34 E251.28293
G0 F7800 X109.664 Y85.34
G1 F3600 X119.438 Y95.113 E251.51279
G0 F7800 X119.438 Y94.547
G1 F3600 X110.23 Y85.34 E251.72934
G0 F7800 X110.795 Y85.34
G1 F3600 X119.438 Y93.982 E251.93259
G0 F7800 X119.438 Y93.416
G1 F3600 X111.361 Y85.34 E252.12254
G0 F7800 X111.927 Y85.34
G1 F3600 X119.438 Y92.85 E252.29918
G0 F7800 X119.438 Y92.285
G1 F3600 X112.492 Y85.34 E252.46252
G0 F7800 X113.058 Y85.34
G1 F3600 X119.438 Y91.719 E252.61256
G0 F7800 X119.438 Y91.153
G1 F3600 X113.624 Y85.34 E252.74928
G0 F7800 X114.189 Y85.34
G1 F3600 X119.438 Y90.588 E252.87272
G0 F7800 X119.438 Y90.022
G1 F3600 X114.755 Y85.34 E252.98285
G0 F7800 X115.321 Y85.34
G1 F3600 X119.438 Y89.456 E253.07966
G0 F7800 X119.438 Y88.891
G1 F3600 X115.887 Y85.34 E253.16317
G0 F7800 X116.452 Y85.34
G1 F3600 X119.438 Y88.325 E253.23339
G0 F7800 X119.438 Y87.759
G1 F3600 X117.018 Y85.34 E253.29029
G0 F7800 X117.584 Y85.34
G1 F3600 X119.438 Y87.194 E253.3339
G0 F7800 X119.438 Y86.628
G1 F3600 X118.149 Y85.34 E253.3642
G0 F7800 X118.715 Y85.34
G1 F3600 X119.438 Y86.062 E253.38119
G0 F7800 X119.438 Y85.496
G1 F3600 X119.281 Y85.34 E253.38487
; Layer Change GCode
; LAYER:3
G0 F7800 X79.779 Y115.386 Z0.55
G0 X79.461 Y115.628
G0 X79.631 Y115.5
G0 X79.631 Y115.5
G0 X79.421 Y115.8
G0 X79.421 Y115.8
G0 X80.221 Y115
; TYPE:WALL-INNER
G1 F1800 X80.221 Y115 E253.38487
G1 X80.221 Y85 E253.88377
G1 X119.779 Y85 E254.54163
G1 X119.779 Y115 E255.04053
G1 X80.221 Y115 E255.69838
G0 F7800 X79.821 Y115.4
G1 F1800 X79.821 Y115.4 E255.69838
G1 X79.821 Y84.6 E256.21059
G1 X120.179 Y84.6 E256.88174
G1 X120.179 Y115.4 E257.39395
G1 X79.821 Y115.4 E258.0651
G0 F7800 X79.421 Y115.8
; TYPE:WALL-OUTER
G1 F1260 X79.421 Y115.8 E258.0651
G1 X79.421 Y84.2 E258.59061
G1 X120.579 Y84.2 E259.27508
G1 X120.579 Y115.8 E259.80059
G1 X79.421 Y115.8 E260.48505
G0 F7800 X79.631 Y115.5
G0 X80.561 Y114.6
G0 X80.561 Y114.6
; TYPE:FILL
G1 F3600 X109.821 Y85.34 E261.1732
G0 F7800 X110.387 Y85.34
G1 F3600 X81.067 Y114.659 E261.86275
G0 F7800 X81.633 Y114.659
G1 F3600 X110.952 Y85.34 E262.55228
G0 F7800 X111.518 Y85.34
G1 F3600 X82.199 Y114.659 E263.24182
G0 F7800 X82.764 Y114.659
G1 F3600 X112.084 Y85.34 E263.93137
G0 F7800 X112.649 Y85.34
G1 F3600 X83.33 Y114.659 E264.62091
G0 F7800 X83.896 Y114.659
G1 F3600 X113.215 Y85.34 E265.31045
G0 F7800 X113.781 Y85.34
G1 F3600 X84.461 Y114.659 E266
G0 F7800 X85.027 Y114.659
G1 F3600 X114.346 Y85.34 E266.68953
G0 F7800 X114.912 Y85.34
G1 F3600 X85.593 Y114.659 E267.37907
G0 F7800 X86.158 Y114.659
G1 F3600 X115.478 Y85.34 E268.06862
G0 F7800 X116.044 Y85.34
G1 F3600 X86.724 Y114.659 E268.75817
G0 F7800 X87.29 Y114.659
G1 F3600 X116.609 Y85.34 E269.44771
G0 F7800 X117.175 Y85.34
G1 F3600 X87.855 Y114.659 E270.13726
G0 F7800 X88.421 Y114.659
G1 F3600 X117.741 Y85.34 E270.82681
G0 F7800 X118.306 Y85.34
G1 F3600 X88.987 Y114.659 E271.51635
G0 F7800 X89.552 Y114.659
G1 F3600 X118.872 Y85.34 E272.2059
G0 F7800 X119.438 Y85.34
G1 F3600 X90.118 Y114.659 E272.89545
G0 F7800 X90.684 Y114.659
G1 F3600 X119.438 Y85.905 E273.5717
G0 F7800 X119.438 Y86.471
G1 F3600 X91.25 Y114.659 E274.23464
G0 F7800 X91.815 Y114.659
G1 F3600 X119.438 Y87.037 E274.88427
G0 F7800 X119.438 Y87.602
G1 F3600 X92.381 Y114.659 E275.52061
G0 F7800 X92.947 Y114.659
G1 F3600 X119.438 Y88.168 E276.14364
G0 F7800 X119.438 Y88.734
G1 F3600 X93.512 Y114.659 E276.75337
G0 F7800 X94.078 Y114.659
G1 F3600 X119.438 Y89.299 E277.3498
G0 F7800 X119.438 Y89.865
G1 F3600 X94.644 Y114.659 E277.93291
G0 F7800 X95.209 Y114.659
G1 F3600 X119.438 Y90.431 E278.50273
G0 F7800 X119.438 Y90.996
G1 F3600 X95.775 Y114.659 E279.05925
G0 F7800 X96.341 Y114.659
G1 F3600 X119.438 Y91.562 E279.60245
G0 F7800 X119.438 Y92.128
G1 F3600 X96.906 Y114.659 E280.13236
G0 F7800 X97.472 Y114.659
G1 F3600 X119.438 Y92.693 E280.64897
G0 F7800 X119.438 Y93.259
G1 F3600 X98.038 Y114.659 E281.15226
G0 F7800 X98.603 Y114.659
G1 F3600 X119.438 Y93.825 E281.64226
G0 F7800 X119.438 Y94.39
G1 F3600 X99.169 Y114.659 E282.11895
G0 F7800 X99.735 Y114.659
G1 F3600 X119.438 Y94.956 E282.58234
G0 F7800 X119.438 Y95.522
G1 F3600 X100.3 Y114.659 E283.03242
G0 F7800 X100.866 Y114.659
G1 F3600 X119.438 Y96.088 E283.4692
G0 F7800 X119.438 Y96.653
G1 F3600 X101.432 Y114.659 E283.89267
G0 F7800 X101.998 Y114.659
G1 F3600 X119.438 Y97.219 E284.30283
G0 F7800 X119.438 Y97.785
G1 F3600 X102.563 Y114.659 E284.69969
G0 F7800 X103.129 Y114.659
G1 F3600 X119.438 Y98.35 E285.08326
G0 F7800 X119.438 Y98.916
G1 F3600 X103.695 Y114.659 E285.45351
G0 F7800 X104.26 Y114.659
G1 F3600 X119.438 Y99.482 E285.81046
G0 F7800 X119.438 Y100.047
G1 F3600 X104.826 Y114.659 E286.15411
G0 F7800 X105.392 Y114.659
G1 F3600 X119.438 Y100.613 E286.48445
G0 F7800 X119.438 Y101.179
G1 F3600 X105.957 Y114.659 E286.80149
G0 F7800 X106.523 Y114.659
G1 F3600 X119.438 Y101.744 E287.10523
G0 F7800 X119.438 Y102.31
G1 F3600 X107.089 Y114.659 E287.39566
G0 F7800 X107.654 Y114.659
G1 F3600 X119.438 Y102.876 E287.67279
G0 F7800 X119.438 Y103.441
G1 F3600 X108.22 Y114.659 E287.93662
G0 F7800 X108.786 Y114.659
G1 F3600 X119.438 Y104.007 E288.18714
G0 F7800 X119.438 Y104.573
G1 F3600 X109.351 Y114.659 E288.42436
G0 F7800 X109.917 Y114.659
G1 F3600 X119.438 Y105.139 E288.64827
G0 F7800 X119.438 Y105.704
G1 F3600 X110.483 Y114.659 E288.85888
G0 F7800 X111.048 Y114.659
G1 F3600 X119.438 Y106.27 E289.05618
G0 F7800 X119.438 Y106.836
G1 F3600 X111.614 Y114.659 E289.24018
G0 F7800 X112.18 Y114.659
G1 F3600 X119.438 Y107.401 E289.41088
G0 F7800 X119.438 Y107.967
G1 F3600 X112.746 Y114.659 E289.56826
G0 F7800 X113.311 Y114.659
G1 F3600 X119.438 Y108.533 E289.71235
G0 F7800 X119.438 Y109.098
G1 F3600 X113.877 Y114.659 E289.84314
G0 F7800 X114.443 Y114.659
G1 F3600 X119.438 Y109.664 E289.96061
G0 F7800 X119.438 Y110.23
G1 F3600 X115.008 Y114.659 E290.06479
G0 F7800 X115.574 Y114.659
G1 F3600 X119.438 Y110.795 E290.15566
G0 F7800 X119.438 Y111.361
G1 F3600 X116.14 Y114.659 E290.23323
G0 F7800 X116.705 Y114.659
G1 F3600 X119.438 Y111.927 E290.29749
G0 F7800 X119.438 Y112.492
G1 F3600 X117.271 Y114.659 E290.34845
G0 F7800 X117.837 Y114.659
G1 F3600 X119.438 Y113.058 E290.38611
G0 F7800 X119.438 Y113.624
G1 F3600 X118.402 Y114.659 E290.41046
G0 F7800 X118.968 Y114.659
G1 F3600 X119.438 Y114.189 E290.42151
G0 F7800 X109.255 Y85.34
G0 X109.255 Y85.34
G1 F3600 X80.561 Y114.034 E291.09635
G0 F7800 X80.561 Y113.468
G1 F3600 X108.69 Y85.34 E291.75789
G0 F7800 X108.124 Y85.34
G1 F3600 X80.561 Y112.903 E292.40613
G0 F7800 X80.561 Y112.337
G1 F3600 X107.558 Y85.34 E293.04106
G0 F7800 X106.993 Y85.34
G1 F3600 X80.561 Y111.771 E293.66269
G0 F7800 X80.561 Y111.205
G1 F3600 X106.427 Y85.34 E294.27101
G0 F7800 X105.861 Y85.34
G1 F3600 X80.561 Y110.64 E294.86602
G0 F7800 X80.561 Y110.074
G1 F3600 X105.295 Y85.34 E295.44773
G0 F7800 X104.73 Y85.34
G1 F3600 X80.561 Y109.508 E296.01613
G0 F7800 X80.561 Y108.943
G1 F3600 X104.164 Y85.34 E296.57124
G0 F7800 X103.598 Y85.34
G1 F3600 X80.561 Y108.377 E297.11304
G0 F7800 X80.561 Y107.811
G1 F3600 X103.033 Y85.34 E297.64153
G0 F7800 X102.467 Y85.34
G1 F3600 X80.561 Y107.246 E298.15673
G0 F7800 X80.561 Y106.68
G1 F3600 X101.901 Y85.34 E298.65861
G0 F7800 X101.336 Y85.34
G1 F3600 X80.561 Y106.114 E299.14719
G0 F7800 X80.561 Y105.549
G1 F3600 X100.77 Y85.34 E299.62248
G0 F7800 X100.204 Y85.34
G1 F3600 X80.561 Y104.983 E300.08445
G0 F7800 X80.561 Y104.417
G1 F3600 X99.639 Y85.339 E300.53314
G0 F7800 X99.074 Y85.339
G1 F3600 X80.561 Y103.852 E300.96854
G0 F7800 X80.561 Y103.286
G1 F3600 X98.508 Y85.339 E301.39062
G0 F7800 X97.942 Y85.339
G1 F3600 X80.561 Y102.72 E301.7994
G0 F7800 X80.561 Y102.155
G1 F3600 X97.377 Y85.339 E302.19488
G0 F7800 X96.811 Y85.339
G1 F3600 X80.561 Y101.589 E302.57706
G0 F7800 X80.561 Y101.023
G1 F3600 X96.245 Y85.339 E302.94592
G0 F7800 X95.68 Y85.339
G1 F3600 X80.561 Y100.457 E303.30148
G0 F7800 X80.56 Y99.892
G1 F3600 X95.114 Y85.339 E303.64376
G0 F7800 X94.548 Y85.339
G1 F3600 X80.56 Y99.327 E303.97274
G0 F7800 X80.56 Y98.761
G1 F3600 X93.982 Y85.339 E304.2884
G0 F7800 X93.417 Y85.339
G1 F3600 X80.56 Y98.195 E304.59077
G0 F7800 X80.56 Y97.63
G1 F3600 X92.851 Y85.339 E304.87983
G0 F7800 X92.285 Y85.339
G1 F3600 X80.56 Y97.064 E305.15559
G0 F7800 X80.56 Y96.498
G1 F3600 X91.72 Y85.339 E305.41804
G0 F7800 X91.154 Y85.339
G1 F3600 X80.56 Y95.933 E305.6672
G0 F7800 X80.56 Y95.367
G1 F3600 X90.588 Y85.339 E305.90304
G0 F7800 X90.023 Y85.339
G1 F3600 X80.56 Y94.801 E306.12558
G0 F7800 X80.56 Y94.236
G1 F3600 X89.457 Y85.339 E306.33483
G0 F7800 X88.891 Y85.339
G1 F3600 X80.56 Y93.67 E306.53076
G0 F7800 X80.56 Y93.104
G1 F3600 X88.326 Y85.339 E306.71339
G0 F7800 X87.76 Y85.339
G1 F3600 X80.56 Y92.539 E306.88272
G0 F7800 X80.56 Y91.973
G1 F3600 X87.194 Y85.339 E307.03875
G0 F7800 X86.629 Y85.339
G1 F3600 X80.56 Y91.407 E307.18147
G0 F7800 X80.56 Y90.842
G1 F3600 X86.063 Y85.339 E307.31089
G0 F7800 X85.497 Y85.339
G1 F3600 X80.56 Y90.276 E307.427
G0 F7800 X80.56 Y89.71
G1 F3600 X84.932 Y85.339 E307.52981
G0 F7800 X84.366 Y85.339
G1 F3600 X80.56 Y89.144 E307.61931
G0 F7800 X80.56 Y88.579
G1 F3600 X83.8 Y85.339 E307.69551
G0 F7800 X83.234 Y85.339
G1 F3600 X80.56 Y88.013 E307.7584
G0 F7800 X80.56 Y87.447
G1 F3600 X82.669 Y85.339 E307.80799
G0 F7800 X82.103 Y85.339
G1 F3600 X80.56 Y86.882 E307.84428
G0 F7800 X80.56 Y86.316
G1 F3600 X81.537 Y85.339 E307.86725
G0 F7800 X80.972 Y85.339
G1 F3600 X80.56 Y85.75 E307.87693
; Layer Change GCode
; LAYER:4
G0 F7800 X79.634 Y115.398 Z0.65
G0 X79.621 Y115.798
G0 X79.631 Y115.5
G0 X79.631 Y115.5
G0 X79.421 Y115.8
G0 X79.421 Y115.8
G0 X80.221 Y115
; TYPE:WALL-INNER
G1 F1800 X80.221 Y115 E307.87693
G1 X80.221 Y85 E308.37583
G1 X119.779 Y85 E309.03369
G1 X119.779 Y115 E309.53259
G1 X80.221 Y115 E310.19044
G0 F7800 X79.821 Y115.4
G1 F1800 X79.821 Y115.4 E310.19044
G1 X79.821 Y84.6 E310.70265
G1 X120.179 Y84.6 E311.3738
G1 X120.179 Y115.4 E311.88601
G1 X79.821 Y115.4 E312.55717
G0 F7800 X79.421 Y115.8
; TYPE:WALL-OUTER
G1 F1260 X79.421 Y115.8 E312.55717
G1 X79.421 Y84.2 E313.08268
G1 X120.579 Y84.2 E313.76714
G1 X120.579 Y115.8 E314.29265
G1 X79.421 Y115.8 E314.97711
G0 F7800 X79.631 Y115.5
G0 X80.718 Y114.659
G0 X80.718 Y114.659
; TYPE:FILL
G1 F3600 X80.561 Y114.502 E314.9808
G0 F7800 X80.561 Y113.936
G1 F3600 X81.284 Y114.659 E314.9978
G0 F7800 X81.849 Y114.659
G1 F3600 X80.561 Y113.371 E315.02809
G0 F7800 X80.561 Y112.805
G1 F3600 X82.415 Y114.659 E315.0717
G0 F7800 X82.981 Y114.659
G1 F3600 X80.561 Y112.239 E315.12861
G0 F7800 X80.561 Y111.674
G1 F3600 X83.546 Y114.659 E315.19881
G0 F7800 X84.112 Y114.659
G1 F3600 X80.561 Y111.108 E315.28233
G0 F7800 X80.561 Y110.542
G1 F3600 X84.678 Y114.659 E315.37915
G0 F7800 X85.243 Y114.659
G1 F3600 X80.561 Y109.977 E315.48927
G0 F7800 X80.561 Y109.411
G1 F3600 X85.809 Y114.659 E315.61269
G0 F7800 X86.375 Y114.659
G1 F3600 X80.561 Y108.845 E315.74943
G0 F7800 X80.561 Y108.279
G1 F3600 X86.94 Y114.659 E315.89947
G0 F7800 X87.506 Y114.659
G1 F3600 X80.561 Y107.714 E316.0628
G0 F7800 X80.561 Y107.148
G1 F3600 X88.072 Y114.659 E316.23945
G0 F7800 X88.637 Y114.659
G1 F3600 X80.561 Y106.582 E316.4294
G0 F7800 X80.561 Y106.017
G1 F3600 X89.203 Y114.659 E316.63264
G0 F7800 X89.769 Y114.659
G1 F3600 X80.561 Y105.451 E316.8492
G0 F7800 X80.561 Y104.885
G1 F3600 X90.335 Y114.659 E317.07907
G0 F7800 X90.9 Y114.659
G1 F3600 X80.561 Y104.32 E317.32223
G0 F7800 X80.561 Y103.754
G1 F3600 X91.466 Y114.659 E317.5787
G0 F7800 X92.032 Y114.659
G1 F3600 X80.561 Y103.188 E317.84848
G0 F7800 X80.561 Y102.623
G1 F3600 X92.597 Y114.659 E318.13154
G0 F7800 X93.163 Y114.659
G1 F3600 X80.561 Y102.057 E318.42792
G0 F7800 X80.561 Y101.491
G1 F3600 X93.729 Y114.659 E318.73762
G0 F7800 X94.294 Y114.659
G1 F3600 X80.561 Y100.926 E319.06059
G0 F7800 X80.561 Y100.36
G1 F3600 X94.86 Y114.659 E319.39688
G0 F7800 X95.426 Y114.659
G1 F3600 X80.56 Y99.793 E319.74651
G0 F7800 X80.56 Y99.228
G1 F3600 X95.991 Y114.659 E320.10942
G0 F7800 X96.557 Y114.659
G1 F3600 X80.56 Y98.662 E320.48565
G0 F7800 X80.56 Y98.096
G1 F3600 X97.123 Y114.659 E320.87519
G0 F7800 X97.688 Y114.659
G1 F3600 X80.56 Y97.531 E321.27801
G0 F7800 X80.56 Y96.965
G1 F3600 X98.254 Y114.659 E321.69415
G0 F7800 X98.82 Y114.659
G1 F3600 X80.56 Y96.399 E322.12359
G0 F7800 X80.56 Y95.834
G1 F3600 X99.385 Y114.659 E322.56633
G0 F7800 X99.951 Y114.659
G1 F3600 X80.56 Y95.268 E323.02237
G0 F7800 X80.56 Y94.702
G1 F3600 X100.517 Y114.659 E323.49173
G0 F7800 X101.083 Y114.659
G1 F3600 X80.56 Y94.137 E323.97439
G0 F7800 X80.56 Y93.571
G1 F3600 X101.648 Y114.659 E324.47035
G0 F7800 X102.214 Y114.659
G1 F3600 X80.56 Y93.005 E324.97962
G0 F7800 X80.56 Y92.44
G1 F3600 X102.78 Y114.659 E325.50218
G0 F7800 X103.345 Y114.659
G1 F3600 X80.56 Y91.874 E326.03805
G0 F7800 X80.56 Y91.308
G1 F3600 X103.911 Y114.659 E326.58723
G0 F7800 X104.477 Y114.659
G1 F3600 X80.56 Y90.743 E327.14971
G0 F7800 X80.56 Y90.177
G1 F3600 X105.042 Y114.659 E327.72549
G0 F7800 X105.608 Y114.659
G1 F3600 X80.56 Y89.611 E328.31458
G0 F7800 X80.56 Y89.045
G1 F3600 X106.174 Y114.659 E328.91698
G0 F7800 X106.739 Y114.659
G1 F3600 X80.56 Y88.48 E329.53267
G0 F7800 X80.56 Y87.914
G1 F3600 X107.305 Y114.659 E330.16168
G0 F7800 X107.871 Y114.659
G1 F3600 X80.56 Y87.348 E330.80399
G0 F7800 X80.56 Y86.783
G1 F3600 X108.436 Y114.659 E331.45959
G0 F7800 X109.002 Y114.659
G1 F3600 X80.56 Y86.217 E332.1285
G0 F7800 X80.56 Y85.651
G1 F3600 X109.568 Y114.659 E332.81072
G0 F7800 X110.134 Y114.659
G1 F3600 X80.813 Y85.339 E333.5003
G0 F7800 X81.379 Y85.339
G1 F3600 X110.699 Y114.659 E334.18986
G0 F7800 X111.265 Y114.659
G1 F3600 X81.945 Y85.339 E334.87942
G0 F7800 X82.51 Y85.339
G1 F3600 X111.831 Y114.659 E335.56899
G0 F7800 X112.396 Y114.659
G1 F3600 X83.076 Y85.339 E336.25856
G0 F7800 X83.642 Y85.339
G1 F3600 X112.962 Y114.659 E336.94812
G0 F7800 X113.528 Y114.659
G1 F3600 X84.207 Y85.339 E337.63769
G0 F7800 X84.773 Y85.339
G1 F3600 X114.093 Y114.659 E338.32725
G0 F7800 X114.659 Y114.659
G1 F3600 X85.339 Y85.339 E339.01681
G0 F7800 X85.904 Y85.339
G1 F3600 X115.225 Y114.659 E339.70639
G0 F7800 X115.79 Y114.659
G1 F3600 X86.47 Y85.339 E340.39595
G0 F7800 X87.036 Y85.339
G1 F3600 X116.356 Y114.659 E341.08551
G0 F7800 X116.922 Y114.659
G1 F3600 X87.602 Y85.339 E341.77507
G0 F7800 X88.167 Y85.339
G1 F3600 X117.487 Y114.659 E342.46463
G0 F7800 X118.053 Y114.659
G1 F3600 X88.733 Y85.339 E343.15419
G0 F7800 X89.299 Y85.339
G1 F3600 X118.619 Y114.659 E343.84376
G0 F7800 X119.184 Y114.659
G1 F3600 X89.864 Y85.339 E344.53332
G0 F7800 X90.43 Y85.339
G1 F3600 X119.438 Y114.346 E345.21553
G0 F7800 X119.438 Y113.781
G1 F3600 X90.996 Y85.339 E345.88444
G0 F7800 X91.561 Y85.339
G1 F3600 X119.438 Y113.215 E346.54005
G0 F7800 X119.438 Y112.649
G1 F3600 X92.127 Y85.339 E347.18235
G0 F7800 X92.693 Y85.339
G1 F3600 X119.438 Y112.084 E347.81136
G0 F7800 X119.438 Y111.518
G1 F3600 X93.258 Y85.339 E348.42706
G0 F7800 X93.824 Y85.339
G1 F3600 X119.438 Y110.952 E349.02945
G0 F7800 X119.438 Y110.387
G1 F3600 X94.39 Y85.339 E349.61854
G0 F7800 X94.955 Y85.339
G1 F3600 X119.438 Y109.821 E350.19433
G0 F7800 X119.438 Y109.255
G1 F3600 X95.521 Y85.339 E350.75681
G0 F7800 X96.087 Y85.339
G1 F3600 X119.438 Y108.69 E351.30599
G0 F7800 X119.438 Y108.124
G1 F3600 X96.653 Y85.339 E351.84186
G0 F7800 X97.218 Y85.339
G1 F3600 X119.438 Y107.558 E352.36443
G0 F7800 X119.438 Y106.993
G1 F3600 X97.784 Y85.339 E352.87369
G0 F7800 X98.35 Y85.339
G1 F3600 X119.438 Y106.427 E353.36965
G0 F7800 X119.438 Y105.861
G1 F3600 X98.915 Y85.339 E353.85231
G0 F7800 X99.481 Y85.339
G1 F3600 X119.438 Y105.295 E354.32166
G0 F7800 X119.438 Y104.73
G1 F3600 X100.047 Y85.34 E354.77769
G0 F7800 X100.613 Y85.34
G1 F3600 X119.438 Y104.164 E355.22041
G0 F7800 X119.438 Y103.598
G1 F3600 X101.179 Y85.34 E355.64983
G0 F7800 X101.744 Y85.34
G1 F3600 X119.438 Y103.033 E356.06595
G0 F7800 X119.438 Y102.467
G1 F3600 X102.31 Y85.34 E356.46876
G0 F7800 X102.876 Y85.34
G1 F3600 X119.438 Y101.901 E356.85826
G0 F7800 X119.438 Y101.336
G1 F3600 X103.441 Y85.34 E357.23448
G0 F7800 X104.007 Y85.34
G1 F3600 X119.438 Y100.77 E357.59738
G0 F7800 X119.438 Y100.204
G1 F3600 X104.573 Y85.34 E357.94697
G0 F7800 X105.139 Y85.34
G1 F3600 X119.438 Y99.639 E358.28326
G0 F7800 X119.438 Y99.073
G1 F3600 X105.704 Y85.34 E358.60625
G0 F7800 X106.27 Y85.34
G1 F3600 X119.438 Y98.507 E358.91593
G0 F7800 X119.438 Y97.942
G1 F3600 X106.836 Y85.34 E359.21231
G0 F7800 X107.401 Y85.34
G1 F3600 X119.438 Y97.376 E359.49539
G0 F7800 X119.438 Y96.81
G1 F3600 X107.967 Y85.34 E359.76516
G0 F7800 X108.533 Y85.34
G1 F3600 X119.438 Y96.245 E360.02163
G0 F7800 X119.438 Y95.679
G1 F3600 X109.098 Y85.34 E360.2648
G0 F7800 X109.664 Y85.34
G1 F3600 X119.438 Y95.113 E360.49465
G0 F7800 X119.438 Y94.547
G1 F3600 X110.23 Y85.34 E360.7112
G0 F7800 X110.795 Y85.34
G1 F3600 X119.438 Y93.982 E360.91446
G0 F7800 X119.438 Y93.416
G1 F3600 X111.361 Y85.34 E361.1044
G0 F7800 X111.927 Y85.34
G1 F3600 X119.438 Y92.85 E361.28104
G0 F7800 X119.438 Y92.285
G1 F3600 X112.492 Y85.34 E361.44439
G0 F7800 X113.058 Y85.34
G1 F3600 X119.438 Y91.719 E361.59442
G0 F7800 X119.438 Y91.153
G1 F3600 X113.624 Y85.34 E361.73115
G0 F7800 X114.189 Y85.34
G1 F3600 X119.438 Y90.588 E361.85459
G0 F7800 X119.438 Y90.022
G1 F3600 X114.755 Y85.34 E361.96471
G0 F7800 X115.321 Y85.34
G1 F3600 X119.438 Y89.456 E362.06152
G0 F7800 X119.438 Y88.891
G1 F3600 X115.887 Y85.34 E362.14504
G0 F7800 X116.452 Y85.34
G1 F3600 X119.438 Y88.325 E362.21525
G0 F7800 X119.438 Y87.759
G1 F3600 X117.018 Y85.34 E362.27216
G0 F7800 X117.584 Y85.34
G1 F3600 X119.438 Y87.194 E362.31576
G0 F7800 X119.438 Y86.628
G1 F3600 X118.149 Y85.34 E362.34606
G0 F7800 X118.715 Y85.34
G1 F3600 X119.438 Y86.062 E362.36305
G0 F7800 X119.438 Y85.496
G1 F3600 X119.281 Y85.34 E362.36674
; Layer Change GCode
; LAYER:5
G0 F7800 X79.779 Y115.386 Z0.75
G0 X79.461 Y115.628
G0 X79.631 Y115.5
G0 X79.631 Y115.5
G0 X79.421 Y115.8
G0 X79.421 Y115.8
G0 X80.221 Y115
; TYPE:WALL-INNER
G1 F1800 X80.221 Y115 E362.36674
G1 X80.221 Y85 E362.86564
G1 X119.779 Y85 E363.52349
G1 X119.779 Y115 E364.02239
G1 X80.221 Y115 E364.68024
G0 F7800 X79.821 Y115.4
G1 F1800 X79.821 Y115.4 E364.68024
G1 X79.821 Y84.6 E365.19245
G1 X120.179 Y84.6 E365.86361
G1 X120.179 Y115.4 E366.37581
G1 X79.821 Y115.4 E367.04697
G0 F7800 X79.421 Y115.8
; TYPE:WALL-OUTER
G1 F1260 X79.421 Y115.8 E367.04697
G1 X79.421 Y84.2 E367.57248
G1 X120.579 Y84.2 E368.25694
G1 X120.579 Y115.8 E368.78245
G1 X79.421 Y115.8 E369.46691
G0 F7800 X79.631 Y115.5
G0 X80.561 Y114.6
G0 X80.561 Y114.6
; TYPE:FILL
G1 F3600 X109.821 Y85.34 E370.15506
G0 F7800 X110.387 Y85.34
G1 F3600 X81.067 Y114.659 E370.84461
G0 F7800 X81.633 Y114.659
G1 F3600 X110.952 Y85.34 E371.53415
G0 F7800 X111.518 Y85.34
G1 F3600 X82.199 Y114.659 E372.22369
G0 F7800 X82.764 Y114.659
G1 F3600 X112.084 Y85.34 E372.91323
G0 F7800 X112.649 Y85.34
G1 F3600 X83.33 Y114.659 E373.60277
G0 F7800 X83.896 Y114.659
G1 F3600 X113.215 Y85.34 E374.29231
G0 F7800 X113.781 Y85.34
G1 F3600 X84.461 Y114.659 E374.98186
G0 F7800 X85.027 Y114.659
G1 F3600 X114.346 Y85.34 E375.6714
G0 F7800 X114.912 Y85.34
G1 F3600 X85.593 Y114.659 E376.36094
G0 F7800 X86.158 Y114.659
G1 F3600 X115.478 Y85.34 E377.05049
G0 F7800 X116.044 Y85.34
G1 F3600 X86.724 Y114.659 E377.74004
G0 F7800 X87.29 Y114.659
G1 F3600 X116.609 Y85.34 E378.42957
G0 F7800 X117.175 Y85.34
G1 F3600 X87.855 Y114.659 E379.11912
G0 F7800 X88.421 Y114.659
G1 F3600 X117.741 Y85.34 E379.80867
G0 F7800 X118.306 Y85.34
G1 F3600 X88.987 Y114.659 E380.49821
G0 F7800 X89.552 Y114.659
G1 F3600 X118.872 Y85.34 E381.18776
G0 F7800 X119.438 Y85.34
G1 F3600 X90.118 Y114.659 E381.87731
G0 F7800 X90.684 Y114.659
G1 F3600 X119.438 Y85.905 E382.55356
G0 F7800 X119.438 Y86.471
G1 F3600 X91.25 Y114.659 E383.2165
G0 F7800 X91.815 Y114.659
G1 F3600 X119.438 Y87.037 E383.86614
G0 F7800 X119.438 Y87.602
G1 F3600 X92.381 Y114.659 E384.50248
G0 F7800 X92.947 Y114.659
G1 F3600 X119.438 Y88.168 E385.1255
G0 F7800 X119.438 Y88.734
G1 F3600 X93.512 Y114.659 E385.73523
G0 F7800 X94.078 Y114.659
G1 F3600 X119.438 Y89.299 E386.33166
G0 F7800 X119.438 Y89.865
G1 F3600 X94.644 Y114.659 E386.91478
G0 F7800 X95.209 Y114.659
G1 F3600 X119.438 Y90.431 E387.48459
G0 F7800 X119.438 Y90.996
G1 F3600 X95.775 Y114.659 E388.04111
G0 F7800 X96.341 Y114.659
G1 F3600 X119.438 Y91.562 E388.58432
G0 F7800 X119.438 Y92.128
G1 F3600 X96.906 Y114.659 E389.11422
G0 F7800 X97.472 Y114.659
G1 F3600 X119.438 Y92.693 E389.63083
G0 F7800 X119.438 Y93.259
G1 F3600 X98.038 Y114.659 E390.13413
G0 F7800 X98.603 Y114.659
G1 F3600 X119.438 Y93.825 E390.62412
G0 F7800 X119.438 Y94.39
G1 F3600 X99.169 Y114.659 E391.10082
G0 F7800 X99.735 Y114.659
G1 F3600 X119.438 Y94.956 E391.5642
G0 F7800 X119.438 Y95.522
G1 F3600 X100.3 Y114.659 E392.01429
G0 F7800 X100.866 Y114.659
G1 F3600 X119.438 Y96.088 E392.45106
G0 F7800 X119.438 Y96.653
G1 F3600 X101.432 Y114.659 E392.87453
G0 F7800 X101.998 Y114.659
G1 F3600 X119.438 Y97.219 E393.2847
G0 F7800 X119.438 Y97.785
G1 F3600 X102.563 Y114.659 E393.68156
G0 F7800 X103.129 Y114.659
G1 F3600 X119.438 Y98.35 E394.06512
G0 F7800 X119.438 Y98.916
G1 F3600 X103.695 Y114.659 E394.43537
G0 F7800 X104.26 Y114.659
G1 F3600 X119.438 Y99.482 E394.79232
G0 F7800 X119.438 Y100.047
G1 F3600 X104.826 Y114.659 E395.13598
G0 F7800 X105.392 Y114.659
G1 F3600 X119.438 Y100.613 E395.46632
G0 F7800 X119.438 Y101.179
G1 F3600 X105.957 Y114.659 E395.78336
G0 F7800 X106.523 Y114.659
G1 F3600 X119.438 Y101.744 E396.0871
G0 F7800 X119.438 Y102.31
G1 F3600 X107.089 Y114.659 E396.37753
G0 F7800 X107.654 Y114.659
G1 F3600 X119.438 Y102.876 E396.65466
G0 F7800 X119.438 Y103.441
G1 F3600 X108.22 Y114.659 E396.91849
G0 F7800 X108.786 Y114.659
G1 F3600 X119.438 Y104.007 E397.16901
G0 F7800 X119.438 Y104.573
G1 F3600 X109.351 Y114.659 E397.40622
G0 F7800 X109.917 Y114.659
G1 F3600 X119.438 Y105.139 E397.63013
G0 F7800 X119.438 Y105.704
G1 F3600 X110.483 Y114.659 E397.84074
G0 F7800 X111.048 Y114.659
G1 F3600 X119.438 Y106.27 E398.03805
G0 F7800 X119.438 Y106.836
G1 F3600 X111.614 Y114.659 E398.22205
G0 F7800 X112.18 Y114.659
G1 F3600 X119.438 Y107.401 E398.39274
G0 F7800 X119.438 Y107.967
G1 F3600 X112.746 Y114.659 E398.55013
G0 F7800 X113.311 Y114.659
G1 F3600 X119.438 Y108.533 E398.69421
G0 F7800 X119.438 Y109.098
G1 F3600 X113.877 Y114.659 E398.825
G0 F7800 X114.443 Y114.659
G1 F3600 X119.438 Y109.664 E398.94247
G0 F7800 X119.438 Y110.23
G1 F3600 X115.008 Y114.659 E399.04665
G0 F7800 X115.574 Y114.659
G1 F3600 X119.438 Y110.795 E399.13752
G0 F7800 X119.438 Y111.361
G1 F3600 X116.14 Y114.659 E399.21509
G0 F7800 X116.705 Y114.659
G1 F3600 X119.438 Y111.927 E399.27935
G0 F7800 X119.438 Y112.492
G1 F3600 X117.271 Y114.659 E399.33032
G0 F7800 X117.837 Y114.659
G1 F3600 X119.438 Y113.058 E399.36797
G0 F7800 X119.438 Y113.624
G1 F3600 X118.402 Y114.659 E399.39232
G0 F7800 X118.968 Y114.659
G1 F3600 X119.438 Y114.189 E399.40338
G0 F7800 X109.255 Y85.34
G0 X109.255 Y85.34
G1 F3600 X80.561 Y114.034 E400.07822
G0 F7800 X80.561 Y113.468
G1 F3600 X108.69 Y85.34 E400.73976
G0 F7800 X108.124 Y85.34
G1 F3600 X80.561 Y112.903 E401.388
G0 F7800 X80.561 Y112.337
G1 F3600 X107.558 Y85.34 E402.02292
G0 F7800 X106.993 Y85.34
G1 F3600 X80.561 Y111.771 E402.64455
G0 F7800 X80.561 Y111.205
G1 F3600 X106.427 Y85.34 E403.25287
G0 F7800 X105.861 Y85.34
G1 F3600 X80.561 Y110.64 E403.84789
G0 F7800 X80.561 Y110.074
G1 F3600 X105.295 Y85.34 E404.42959
G0 F7800 X104.73 Y85.34
G1 F3600 X80.561 Y109.508 E404.998
G0 F7800 X80.561 Y108.943
G1 F3600 X104.164 Y85.34 E405.5531
G0 F7800 X103.598 Y85.34
G1 F3600 X80.561 Y108.377 E406.0949
G0 F7800 X80.561 Y107.811
G1 F3600 X103.033 Y85.34 E406.62339
G0 F7800 X102.467 Y85.34
G1 F3600 X80.561 Y107.246 E407.13859
G0 F7800 X80.561 Y106.68
G1 F3600 X101.901 Y85.34 E407.64047
G0 F7800 X101.336 Y85.34
G1 F3600 X80.561 Y106.114 E408.12906
G0 F7800 X80.561 Y105.549
G1 F3600 X100.77 Y85.34 E408.60434
G0 F7800 X100.204 Y85.34
G1 F3600 X80.561 Y104.983 E409.06632
G0 F7800 X80.561 Y104.417
G1 F3600 X99.639 Y85.339 E409.515
G0 F7800 X99.074 Y85.339
G1 F3600 X80.561 Y103.852 E409.9504
G0 F7800 X80.561 Y103.286
G1 F3600 X98.508 Y85.339 E410.37248
G0 F7800 X97.942 Y85.339
G1 F3600 X80.561 Y102.72 E410.78126
G0 F7800 X80.561 Y102.155
G1 F3600 X97.377 Y85.339 E411.17675
G0 F7800 X96.811 Y85.339
G1 F3600 X80.561 Y101.589 E411.55892
G0 F7800 X80.561 Y101.023
G1 F3600 X96.245 Y85.339 E411.92778
G0 F7800 X95.68 Y85.339
G1 F3600 X80.561 Y100.457 E412.28335
G0 F7800 X80.56 Y99.892
G1 F3600 X95.114 Y85.339 E412.62562
G0 F7800 X94.548 Y85.339
G1 F3600 X80.56 Y99.327 E412.9546
G0 F7800 X80.56 Y98.761
G1 F3600 X93.982 Y85.339 E413.27027
G0 F7800 X93.417 Y85.339
G1 F3600 X80.56 Y98.195 E413.57263
G0 F7800 X80.56 Y97.63
G1 F3600 X92.851 Y85.339 E413.8617
G0 F7800 X92.285 Y85.339
G1 F3600 X80.56 Y97.064 E414.13745
G0 F7800 X80.56 Y96.498
G1 F3600 X91.72 Y85.339 E414.3999
G0 F7800 X91.154 Y85.339
G1 F3600 X80.56 Y95.933 E414.64906
G0 F7800 X80.56 Y95.367
G1 F3600 X90.588 Y85.339 E414.8849
G0 F7800 X90.023 Y85.339
G1 F3600 X80.56 Y94.801 E415.10745
G0 F7800 X80.56 Y94.236
G1 F3600 X89.457 Y85.339 E415.31669
G0 F7800 X88.891 Y85.339
G1 F3600 X80.56 Y93.67 E415.51262
G0 F7800 X80.56 Y93.104
G1 F3600 X88.326 Y85.339 E415.69525
G0 F7800 X87.76 Y85.339
G1 F3600 X80.56 Y92.539 E415.86459
G0 F7800 X80.56 Y91.973
G1 F3600 X87.194 Y85.339 E416.02061
G0 F7800 X86.629 Y85.339
G1 F3600 X80.56 Y91.407 E416.16333
G0 F7800 X80.56 Y90.842
G1 F3600 X86.063 Y85.339 E416.29275
G0 F7800 X85.497 Y85.339
G1 F3600 X80.56 Y90.276 E416.40886
G0 F7800 X80.56 Y89.71
G1 F3600 X84.932 Y85.339 E416.51167
G0 F7800 X84.366 Y85.339
G1 F3600 X80.56 Y89.144 E416.60117
G0 F7800 X80.56 Y88.579
G1 F3600 X83.8 Y85.339 E416.67737
G0 F7800 X83.234 Y85.339
G1 F3600 X80.56 Y88.013 E416.74026
G0 F7800 X80.56 Y87.447
G1 F3600 X82.669 Y85.339 E416.78985
G0 F7800 X82.103 Y85.339
G1 F3600 X80.56 Y86.882 E416.82614
G0 F7800 X80.56 Y86.316
G1 F3600 X81.537 Y85.339 E416.84912
G0 F7800 X80.972 Y85.339
G1 F3600 X80.56 Y85.75 E416.8588
; Layer Change GCode
; LAYER:6
G0 F7800 X79.634 Y115.398 Z0.85
G0 X79.621 Y115.798
G0 X79.631 Y115.5
G0 X79.631 Y115.5
G0 X79.421 Y115.8
G0 X79.421 Y115.8
G0 X80.221 Y115
; TYPE:WALL-INNER
G1 F1800 X80.221 Y115 E416.8588
G1 X80.221 Y85 E417.3577
G1 X119.779 Y85 E418.01555
G1 X119.779 Y115 E418.51445
G1 X80.221 Y115 E419.1723
G0 F7800 X79.821 Y115.4
G1 F1800 X79.821 Y115.4 E419.1723
G1 X79.821 Y84.6 E419.68451
G1 X120.179 Y84.6 E420.35567
G1 X120.179 Y115.4 E420.86787
G1 X79.821 Y115.4 E421.53903
G0 F7800 X79.421 Y115.8
; TYPE:WALL-OUTER
G1 F1260 X79.421 Y115.8 E421.53903
G1 X79.421 Y84.2 E422.06454
G1 X120.579 Y84.2 E422.749
G1 X120.579 Y115.8 E423.27451
G1 X79.421 Y115.8 E423.95897
G0 F7800 X79.631 Y115.5
G0 X80.718 Y114.659
G0 X80.718 Y114.659
; TYPE:FILL
G1 F3600 X80.561 Y114.502 E423.96266
G0 F7800 X80.561 Y113.936
G1 F3600 X81.284 Y114.659 E423.97967
G0 F7800 X81.849 Y114.659
G1 F3600 X80.561 Y113.371 E424.00996
G0 F7800 X80.561 Y112.805
G1 F3600 X82.415 Y114.659 E424.05356
G0 F7800 X82.981 Y114.659
G1 F3600 X80.561 Y112.239 E424.11048
G0 F7800 X80.561 Y111.674
G1 F3600 X83.546 Y114.659 E424.18068
G0 F7800 X84.112 Y114.659
G1 F3600 X80.561 Y111.108 E424.26419
G0 F7800 X80.561 Y110.542
G1 F3600 X84.678 Y114.659 E424.36102
G0 F7800 X85.243 Y114.659
G1 F3600 X80.561 Y109.977 E424.47113
G0 F7800 X80.561 Y109.411
G1 F3600 X85.809 Y114.659 E424.59456
G0 F7800 X86.375 Y114.659
G1 F3600 X80.561 Y108.845 E424.73129
G0 F7800 X80.561 Y108.279
G1 F3600 X86.94 Y114.659 E424.88133
G0 F7800 X87.506 Y114.659
G1 F3600 X80.561 Y107.714 E425.04466
G0 F7800 X80.561 Y107.148
G1 F3600 X88.072 Y114.659 E425.22131
G0 F7800 X88.637 Y114.659
G1 F3600 X80.561 Y106.582 E425.41126
G0 F7800 X80.561 Y106.017
G1 F3600 X89.203 Y114.659 E425.61451
G0 F7800 X89.769 Y114.659
G1 F3600 X80.561 Y105.451 E425.83106
G0 F7800 X80.561 Y104.885
G1 F3600 X90.335 Y114.659 E426.06093
G0 F7800 X90.9 Y114.659
G1 F3600 X80.561 Y104.32 E426.30409
G0 F7800 X80.561 Y103.754
G1 F3600 X91.466 Y114.659 E426.56056
G0 F7800 X92.032 Y114.659
G1 F3600 X80.561 Y103.188 E426.83034
G0 F7800 X80.561 Y102.623
G1 F3600 X92.597 Y114.659 E427.11341
G0 F7800 X93.163 Y114.659
G1 F3600 X80.561 Y102.057 E427.40979
G0 F7800 X80.561 Y101.491
G1 F3600 X93.729 Y114.659 E427.71948
G0 F7800 X94.294 Y114.659
G1 F3600 X80.561 Y100.926 E428.04246
G0 F7800 X80.561 Y100.36
G1 F3600 X94.86 Y114.659 E428.37875
G0 F7800 X95.426 Y114.659
G1 F3600 X80.56 Y99.793 E428.72837
G0 F7800 X80.56 Y99.228
G1 F3600 X95.991 Y114.659 E429.09129
G0 F7800 X96.557 Y114.659
G1 F3600 X80.56 Y98.662 E429.46751
G0 F7800 X80.56 Y98.096
G1 F3600 X97.123 Y114.659 E429.85705
G0 F7800 X97.688 Y114.659
G1 F3600 X80.56 Y97.531 E430.25987
G0 F7800 X80.56 Y96.965
G1 F3600 X98.254 Y114.659 E430.67601
G0 F7800 X98.82 Y114.659
G1 F3600 X80.56 Y96.399 E431.10546
G0 F7800 X80.56 Y95.834
G1 F3600 X99.385 Y114.659 E431.54819
G0 F7800 X99.951 Y114.659
G1 F3600 X80.56 Y95.268 E432.00424
G0 F7800 X80.56 Y94.702
G1 F3600 X100.517 Y114.659 E432.4736
G0 F7800 X101.083 Y114.659
G1 F3600 X80.56 Y94.137 E432.95625
G0 F7800 X80.56 Y93.571
G1 F3600 X101.648 Y114.659 E433.45221
G0 F7800 X102.214 Y114.659
G1 F3600 X80.56 Y93.005 E433.96148
G0 F7800 X80.56 Y92.44
G1 F3600 X102.78 Y114.659 E434.48405
G0 F7800 X103.345 Y114.659
G1 F3600 X80.56 Y91.874 E435.01992
G0 F7800 X80.56 Y91.308
G1 F3600 X103.911 Y114.659 E435.5691
G0 F7800 X104.477 Y114.659
G1 F3600 X80.56 Y90.743 E436.13158
G0 F7800 X80.56 Y90.177
G1 F3600 X105.042 Y114.659 E436.70735
G0 F7800 X105.608 Y114.659
G1 F3600 X80.56 Y89.611 E437.29645
G0 F7800 X80.56 Y89.045
G1 F3600 X106.174 Y114.659 E437.89885
G0 F7800 X106.739 Y114.659
G1 F3600 X80.56 Y88.48 E438.51454
G0 F7800 X80.56 Y87.914
G1 F3600 X107.305 Y114.659 E439.14354
G0 F7800 X107.871 Y114.659
G1 F3600 X80.56 Y87.348 E439.78585
G0 F7800 X80.56 Y86.783
G1 F3600 X108.436 Y114.659 E440.44145
G0 F7800 X109.002 Y114.659
G1 F3600 X80.56 Y86.217 E441.11036
G0 F7800 X80.56 Y85.651
G1 F3600 X109.568 Y114.659 E441.79259
G0 F7800 X110.134 Y114.659
G1 F3600 X80.813 Y85.339 E442.48216
G0 F7800 X81.379 Y85.339
G1 F3600 X110.699 Y114.659 E443.17172
G0 F7800 X111.265 Y114.659
G1 F3600 X81.945 Y85.339 E443.86128
G0 F7800 X82.51 Y85.339
G1 F3600 X111.831 Y114.659 E444.55086
G0 F7800 X112.396 Y114.659
G1 F3600 X83.076 Y85.339 E445.24042
G0 F7800 X83.642 Y85.339
G1 F3600 X112.962 Y114.659 E445.92998
G0 F7800 X113.528 Y114.659
G1 F3600 X84.207 Y85.339 E446.61955
G0 F7800 X84.773 Y85.339
G1 F3600 X114.093 Y114.659 E447.30912
G0 F7800 X114.659 Y114.659
G1 F3600 X85.339 Y85.339 E447.99868
G0 F7800 X85.904 Y85.339
G1 F3600 X115.225 Y114.659 E448.68825
G0 F7800 X115.79 Y114.659
G1 F3600 X86.47 Y85.339 E449.37781
G0 F7800 X87.036 Y85.339
G1 F3600 X116.356 Y114.659 E450.06737
G0 F7800 X116.922 Y114.659
G1 F3600 X87.602 Y85.339 E450.75693
G0 F7800 X88.167 Y85.339
G1 F3600 X117.487 Y114.659 E451.4465
G0 F7800 X118.053 Y114.659
G1 F3600 X88.733 Y85.339 E452.13606
G0 F7800 X89.299 Y85.339
G1 F3600 X118.619 Y114.659 E452.82562
G0 F7800 X119.184 Y114.659
G1 F3600 X89.864 Y85.339 E453.51518
G0 F7800 X90.43 Y85.339
G1 F3600 X119.438 Y114.346 E454.19739
G0 F7800 X119.438 Y113.781
G1 F3600 X90.996 Y85.339 E454.8663
G0 F7800 X91.561 Y85.339
G1 F3600 X119.438 Y113.215 E455.52192
G0 F7800 X119.438 Y112.649
G1 F3600 X92.127 Y85.339 E456.16422
G0 F7800 X92.693 Y85.339
G1 F3600 X119.438 Y112.084 E456.79322
G0 F7800 X119.438 Y111.518
G1 F3600 X93.258 Y85.339 E457.40892
G0 F7800 X93.824 Y85.339
G1 F3600 X119.438 Y110.952 E458.01131
G0 F7800 X119.438 Y110.387
G1 F3600 X94.39 Y85.339 E458.6004
G0 F7800 X94.955 Y85.339
G1 F3600 X119.438 Y109.821 E459.17619
G0 F7800 X119.438 Y109.255
G1 F3600 X95.521 Y85.339 E459.73867
G0 F7800 X96.087 Y85.339
G1 F3600 X119.438 Y108.69 E460.28785
G0 F7800 X119.438 Y108.124
G1 F3600 X96.653 Y85.339 E460.82372
G0 F7800 X97.218 Y85.339
G1 F3600 X119.438 Y107.558 E461.34629
G0 F7800 X119.438 Y106.993
G1 F3600 X97.784 Y85.339 E461.85556
G0 F7800 X98.35 Y85.339
G1 F3600 X119.438 Y106.427 E462.35151
G0 F7800 X119.438 Y105.861
G1 F3600 X98.915 Y85.339 E462.83417
G0 F7800 X99.481 Y85.339
G1 F3600 X119.438 Y105.295 E463.30352
G0 F7800 X119.438 Y104.73
G1 F3600 X100.047 Y85.34 E463.75955
G0 F7800 X100.613 Y85.34
G1 F3600 X119.438 Y104.164 E464.20228
G0 F7800 X119.438 Y103.598
G1 F3600 X101.179 Y85.34 E464.63169
G0 F7800 X101.744 Y85.34
G1 F3600 X119.438 Y103.033 E465.04781
G0 F7800 X119.438 Y102.467
G1 F3600 X102.31 Y85.34 E465.45063
G0 F7800 X102.876 Y85.34
G1 F3600 X119.438 Y101.901 E465.84013
G0 F7800 X119.438 Y101.336
G1 F3600 X103.441 Y85.34 E466.21634
G0 F7800 X104.007 Y85.34
G1 F3600 X119.438 Y100.77 E466.57924
G0 F7800 X119.438 Y100.204
G1 F3600 X104.573 Y85.34 E466.92883
G0 F7800 X105.139 Y85.34
G1 F3600 X119.438 Y99.639 E467.26512
G0 F7800 X119.438 Y99.073
G1 F3600 X105.704 Y85.34 E467.58811
G0 F7800 X106.27 Y85.34
G1 F3600 X119.438 Y98.507 E467.89779
G0 F7800 X119.438 Y97.942
G1 F3600 X106.836 Y85.34 E468.19417
G0 F7800 X107.401 Y85.34
G1 F3600 X119.438 Y97.376 E468.47725
G0 F7800 X119.438 Y96.81
G1 F3600 X107.967 Y85.34 E468.74702
G0 F7800 X108.533 Y85.34
G1 F3600 X119.438 Y96.245 E469.00349
G0 F7800 X119.438 Y95.679
G1 F3600 X109.098 Y85.34 E469.24666
G0 F7800 X109.664 Y85.34
G1 F3600 X119.438 Y95.113 E469.47652
G0 F7800 X119.438 Y94.547
G1 F3600 X110.23 Y85.34 E469.69306
G0 F7800 X110.795 Y85.34
G1 F3600 X119.438 Y93.982 E469.89632
G0 F7800 X119.438 Y93.416
G1 F3600 X111.361 Y85.34 E470.08627
G0 F7800 X111.927 Y85.34
G1 F3600 X119.438 Y92.85 E470.2629
G0 F7800 X119.438 Y92.285
G1 F3600 X112.492 Y85.34 E470.42625
G0 F7800 X113.058 Y85.34
G1 F3600 X119.438 Y91.719 E470.57629
G0 F7800 X119.438 Y91.153
G1 F3600 X113.624 Y85.34 E470.71301
G0 F7800 X114.189 Y85.34
G1 F3600 X119.438 Y90.588 E470.83645
G0 F7800 X119.438 Y90.022
G1 F3600 X114.755 Y85.34 E470.94657
G0 F7800 X115.321 Y85.34
G1 F3600 X119.438 Y89.456 E471.04339
G0 F7800 X119.438 Y88.891
G1 F3600 X115.887 Y85.34 E471.1269
G0 F7800 X116.452 Y85.34
G1 F3600 X119.438 Y88.325 E471.19712
G0 F7800 X119.438 Y87.759
G1 F3600 X117.018 Y85.34 E471.25402
G0 F7800 X117.584 Y85.34
G1 F3600 X119.438 Y87.194 E471.29762
G0 F7800 X119.438 Y86.628
G1 F3600 X118.149 Y85.34 E471.32793
G0 F7800 X118.715 Y85.34
G1 F3600 X119.438 Y86.062 E471.34492
G0 F7800 X119.438 Y85.496
G1 F3600 X119.281 Y85.34 E471.3486
; Layer Change GCode
; LAYER:7
G0 F7800 X79.779 Y115.386 Z0.95
G0 X79.461 Y115.628
G0 X79.631 Y115.5
G0 X79.631 Y115.5
G0 X79.421 Y115.8
G0 X79.421 Y115.8
G0 X80.221 Y115
; TYPE:WALL-INNER
G1 F1800 X80.221 Y115 E471.3486
G1 X80.221 Y85 E471.8475
G1 X119.779 Y85 E472.50535
G1 X119.779 Y115 E473.00425
G1 X80.221 Y115 E473.66211
G0 F7800 X79.821 Y115.4
G1 F1800 X79.821 Y115.4 E473.66211
G1 X79.821 Y84.6 E474.17431
G1 X120.179 Y84.6 E474.84547
G1 X120.179 Y115.4 E475.35768
G1 X79.821 Y115.4 E476.02883
G0 F7800 X79.421 Y115.8
; TYPE:WALL-OUTER
G1 F1260 X79.421 Y115.8 E476.02883
G1 X79.421 Y84.2 E476.55434
G1 X120.579 Y84.2 E477.2388
G1 X120.579 Y115.8 E477.76431
G1 X79.421 Y115.8 E478.44877
G0 F7800 X79.631 Y115.5
G0 X80.561 Y114.6
G0 X80.561 Y114.6
; TYPE:FILL
G1 F3600 X109.821 Y85.34 E479.13692
G0 F7800 X110.387 Y85.34
G1 F3600 X81.067 Y114.659 E479.82647
G0 F7800 X81.633 Y114.659
G1 F3600 X110.952 Y85.34 E480.51601
G0 F7800 X111.518 Y85.34
G1 F3600 X82.199 Y114.659 E481.20555
G0 F7800 X82.764 Y114.659
G1 F3600 X112.084 Y85.34 E481.8951
G0 F7800 X112.649 Y85.34
G1 F3600 X83.33 Y114.659 E482.58464
G0 F7800 X83.896 Y114.659
G1 F3600 X113.215 Y85.34 E483.27417
G0 F7800 X113.781 Y85.34
G1 F3600 X84.461 Y114.659 E483.96372
G0 F7800 X85.027 Y114.659
G1 F3600 X114.346 Y85.34 E484.65326
G0 F7800 X114.912 Y85.34
G1 F3600 X85.593 Y114.659 E485.3428
G0 F7800 X86.158 Y114.659
G1 F3600 X115.478 Y85.34 E486.03235
G0 F7800 X116.044 Y85.34
G1 F3600 X86.724 Y114.659 E486.7219
G0 F7800 X87.29 Y114.659
G1 F3600 X116.609 Y85.34 E487.41144
G0 F7800 X117.175 Y85.34
G1 F3600 X87.855 Y114.659 E488.10099
G0 F7800 X88.421 Y114.659
G1 F3600 X117.741 Y85.34 E488.79054
G0 F7800 X118.306 Y85.34
G1 F3600 X88.987 Y114.659 E489.48007
G0 F7800 X89.552 Y114.659
G1 F3600 X118.872 Y85.34 E490.16962
G0 F7800 X119.438 Y85.34
G1 F3600 X90.118 Y114.659 E490.85917
G0 F7800 X90.684 Y114.659
G1 F3600 X119.438 Y85.905 E491.53542
G0 F7800 X119.438 Y86.471
G1 F3600 X91.25 Y114.659 E492.19836
G0 F7800 X91.815 Y114.659
G1 F3600 X119.438 Y87.037 E492.848
G0 F7800 X119.438 Y87.602
G1 F3600 X92.381 Y114.659 E493.48434
G0 F7800 X92.947 Y114.659
G1 F3600 X119.438 Y88.168 E494.10737
G0 F7800 X119.438 Y88.734
G1 F3600 X93.512 Y114.659 E494.7171
G0 F7800 X94.078 Y114.659
G1 F3600 X119.438 Y89.299 E495.31352
G0 F7800 X119.438 Y89.865
G1 F3600 X94.644 Y114.659 E495.89664
G0 F7800 X95.209 Y114.659
G1 F3600 X119.438 Y90.431 E496.46646
G0 F7800 X119.438 Y90.996
G1 F3600 X95.775 Y114.659 E497.02298
G0 F7800 X96.341 Y114.659
G1 F3600 X119.438 Y91.562 E497.56618
G0 F7800 X119.438 Y92.128
G1 F3600 X96.906 Y114.659 E498.09609
G0 F7800 X97.472 Y114.659
G1 F3600 X119.438 Y92.693 E498.61269
G0 F7800 X119.438 Y93.259
G1 F3600 X98.038 Y114.659 E499.11599
G0 F7800 X98.603 Y114.659
G1 F3600 X119.438 Y93.825 E499.60599
G0 F7800 X119.438 Y94.39
G1 F3600 X99.169 Y114.659 E500.08268
G0 F7800 X99.735 Y114.659
G1 F3600 X119.438 Y94.956 E500.54607
G0 F7800 X119.438 Y95.522
G1 F3600 X100.3 Y114.659 E500.99615
G0 F7800 X100.866 Y114.659
G1 F3600 X119.438 Y96.088 E501.43292
G0 F7800 X119.438 Y96.653
G1 F3600 X101.432 Y114.659 E501.8564
G0 F7800 X101.998 Y114.659
G1 F3600 X119.438 Y97.219 E502.26656
G0 F7800 X119.438 Y97.785
G1 F3600 X102.563 Y114.659 E502.66342
G0 F7800 X103.129 Y114.659
G1 F3600 X119.438 Y98.35 E503.04698
G0 F7800 X119.438 Y98.916
G1 F3600 X103.695 Y114.659 E503.41724
G0 F7800 X104.26 Y114.659
G1 F3600 X119.438 Y99.482 E503.77419
G0 F7800 X119.438 Y100.047
G1 F3600 X104.826 Y114.659 E504.11784
G0 F7800 X105.392 Y114.659
G1 F3600 X119.438 Y100.613 E504.44818
G0 F7800 X119.438 Y101.179
G1 F3600 X105.957 Y114.659 E504.76522
G0 F7800 X106.523 Y114.659
G1 F3600 X119.438 Y101.744 E505.06896
G0 F7800 X119.438 Y102.31
G1 F3600 X107.089 Y114.659 E505.35939
G0 F7800 X107.654 Y114.659
G1 F3600 X119.438 Y102.876 E505.63652
G0 F7800 X119.438 Y103.441
G1 F3600 X108.22 Y114.659 E505.90035
G0 F7800 X108.786 Y114.659
G1 F3600 X119.438 Y104.007 E506.15087
G0 F7800 X119.438 Y104.573
G1 F3600 X109.351 Y114.659 E506.38809
G0 F7800 X109.917 Y114.659
G1 F3600 X119.438 Y105.139 E506.612
G0 F7800 X119.438 Y105.704
G1 F3600 X110.483 Y114.659 E506.8226
G0 F7800 X111.048 Y114.659
G1 F3600 X119.438 Y106.27 E507.01991
G0 F7800 X119.438 Y106.836
G1 F3600 X111.614 Y114.659 E507.20391
G0 F7800 X112.18 Y114.659
G1 F3600 X119.438 Y107.401 E507.37461
G0 F7800 X119.438 Y107.967
G1 F3600 X112.746 Y114.659 E507.53199
G0 F7800 X113.311 Y114.659
G1 F3600 X119.438 Y108.533 E507.67608
G0 F7800 X119.438 Y109.098
G1 F3600 X113.877 Y114.659 E507.80686
G0 F7800 X114.443 Y114.659
G1 F3600 X119.438 Y109.664 E507.92434
G0 F7800 X119.438 Y110.23
G1 F3600 X115.008 Y114.659 E508.02851
G0 F7800 X115.574 Y114.659
G1 F3600 X119.438 Y110.795 E508.11939
G0 F7800 X119.438 Y111.361
G1 F3600 X116.14 Y114.659 E508.19695
G0 F7800 X116.705 Y114.659
G1 F3600 X119.438 Y111.927 E508.26122
G0 F7800 X119.438 Y112.492
G1 F3600 X117.271 Y114.659 E508.31218
G0 F7800 X117.837 Y114.659
G1 F3600 X119.438 Y113.058 E508.34983
G0 F7800 X119.438 Y113.624
G1 F3600 X118.402 Y114.659 E508.37419
G0 F7800 X118.968 Y114.659
G1 F3600 X119.438 Y114.189 E508.38524
G0 F7800 X109.255 Y85.34
G0 X109.255 Y85.34
G1 F3600 X80.561 Y114.034 E509.06008
G0 F7800 X80.561 Y113.468
G1 F3600 X108.69 Y85.34 E509.72162
G0 F7800 X108.124 Y85.34
G1 F3600 X80.561 Y112.903 E510.36986
G0 F7800 X80.561 Y112.337
G1 F3600 X107.558 Y85.34 E511.00479
G0 F7800 X106.993 Y85.34
G1 F3600 X80.561 Y111.771 E511.62642
G0 F7800 X80.561 Y111.205
G1 F3600 X106.427 Y85.34 E512.23473
G0 F7800 X105.861 Y85.34
G1 F3600 X80.561 Y110.64 E512.82975
G0 F7800 X80.561 Y110.074
G1 F3600 X105.295 Y85.34 E513.41146
G0 F7800 X104.73 Y85.34
G1 F3600 X80.561 Y109.508 E513.97986
G0 F7800 X80.561 Y108.943
G1 F3600 X104.164 Y85.34 E514.53497
G0 F7800 X103.598 Y85.34
G1 F3600 X80.561 Y108.377 E515.07676
G0 F7800 X80.561 Y107.811
G1 F3600 X103.033 Y85.34 E515.60526
G0 F7800 X102.467 Y85.34
G1 F3600 X80.561 Y107.246 E516.12045
G0 F7800 X80.561 Y106.68
G1 F3600 X101.901 Y85.34 E516.62234
G0 F7800 X101.336 Y85.34
G1 F3600 X80.561 Y106.114 E517.11092
G0 F7800 X80.561 Y105.549
G1 F3600 X100.77 Y85.34 E517.58621
G0 F7800 X100.204 Y85.34
G1 F3600 X80.561 Y104.983 E518.04818
G0 F7800 X80.561 Y104.417
G1 F3600 X99.639 Y85.339 E518.49686
G0 F7800 X99.074 Y85.339
G1 F3600 X80.561 Y103.852 E518.93226
G0 F7800 X80.561 Y103.286
G1 F3600 X98.508 Y85.339 E519.35435
G0 F7800 X97.942 Y85.339
G1 F3600 X80.561 Y102.72 E519.76312
G0 F7800 X80.561 Y102.155
G1 F3600 X97.377 Y85.339 E520.15861
G0 F7800 X96.811 Y85.339
G1 F3600 X80.561 Y101.589 E520.54078
G0 F7800 X80.561 Y101.023
G1 F3600 X96.245 Y85.339 E520.90965
G0 F7800 X95.68 Y85.339
G1 F3600 X80.561 Y100.457 E521.26521
G0 F7800 X80.56 Y99.892
G1 F3600 X95.114 Y85.339 E521.60749
G0 F7800 X94.548 Y85.339
G1 F3600 X80.56 Y99.327 E521.93646
G0 F7800 X80.56 Y98.761
G1 F3600 X93.982 Y85.339 E522.25213
G0 F7800 X93.417 Y85.339
G1 F3600 X80.56 Y98.195 E522.55449
G0 F7800 X80.56 Y97.63
G1 F3600 X92.851 Y85.339 E522.84356
G0 F7800 X92.285 Y85.339
G1 F3600 X80.56 Y97.064 E523.11931
G0 F7800 X80.56 Y96.498
G1 F3600 X91.72 Y85.339 E523.38177
G0 F7800 X91.154 Y85.339
G1 F3600 X80.56 Y95.933 E523.63092
G0 F7800 X80.56 Y95.367
G1 F3600 X90.588 Y85.339 E523.86677
G0 F7800 X90.023 Y85.339
G1 F3600 X80.56 Y94.801 E524.08931
G0 F7800 X80.56 Y94.236
G1 F3600 X89.457 Y85.339 E524.29855
G0 F7800 X88.891 Y85.339
G1 F3600 X80.56 Y93.67 E524.49449
G0 F7800 X80.56 Y93.104
G1 F3600 X88.326 Y85.339 E524.67712
G0 F7800 X87.76 Y85.339
G1 F3600 X80.56 Y92.539 E524.84645
G0 F7800 X80.56 Y91.973
G1 F3600 X87.194 Y85.339 E525.00247
G0 F7800 X86.629 Y85.339
G1 F3600 X80.56 Y91.407 E525.14519
G0 F7800 X80.56 Y90.842
G1 F3600 X86.063 Y85.339 E525.27462
G0 F7800 X85.497 Y85.339
G1 F3600 X80.56 Y90.276 E525.39073
G0 F7800 X80.56 Y89.71
G1 F3600 X84.932 Y85.339 E525.49354
G0 F7800 X84.366 Y85.339
G1 F3600 X80.56 Y89.144 E525.58304
G0 F7800 X80.56 Y88.579
G1 F3600 X83.8 Y85.339 E525.65924
G0 F7800 X83.234 Y85.339
G1 F3600 X80.56 Y88.013 E525.72213
G0 F7800 X80.56 Y87.447
G1 F3600 X82.669 Y85.339 E525.77171
G0 F7800 X82.103 Y85.339
G1 F3600 X80.56 Y86.882 E525.808
G0 F7800 X80.56 Y86.316
G1 F3600 X81.537 Y85.339 E525.83098
G0 F7800 X80.972 Y85.339
G1 F3600 X80.56 Y85.75 E525.84066
; Layer Change GCode
; LAYER:8
G0 F7800 X79.634 Y115.398 Z1.05
G0 X79.621 Y115.798
G0 X79.631 Y115.5
G0 X79.631 Y115.5
G0 X79.421 Y115.8
G0 X79.421 Y115.8
G0 X80.221 Y115
; TYPE:WALL-INNER
G1 F1800 X80.221 Y115 E525.84066
G1 X80.221 Y85 E526.33956
G1 X119.779 Y85 E526.99741
G1 X119.779 Y115 E527.49632
G1 X80.221 Y115 E528.15417
G0 F7800 X79.821 Y115.4
G1 F1800 X79.821 Y115.4 E528.15417
G1 X79.821 Y84.6 E528.66637
G1 X120.179 Y84.6 E529.33753
G1 X120.179 Y115.4 E529.84974
G1 X79.821 Y115.4 E530.52089
G0 F7800 X79.421 Y115.8
; TYPE:WALL-OUTER
G1 F1260 X79.421 Y115.8 E530.52089
G1 X79.421 Y84.2 E531.0464
G1 X120.579 Y84.2 E531.73086
G1 X120.579 Y115.8 E532.25637
G1 X79.421 Y115.8 E532.94083
G0 F7800 X79.631 Y115.5
G0 X80.718 Y114.659
G0 X80.718 Y114.659
; TYPE:FILL
G1 F3600 X80.561 Y114.502 E532.94453
G0 F7800 X80.561 Y113.936
G1 F3600 X81.284 Y114.659 E532.96153
G0 F7800 X81.849 Y114.659
G1 F3600 X80.561 Y113.371 E532.99182
G0 F7800 X80.561 Y112.805
G1 F3600 X82.415 Y114.659 E533.03542
G0 F7800 X82.981 Y114.659
G1 F3600 X80.561 Y112.239 E533.09234
G0 F7800 X80.561 Y111.674
G1 F3600 X83.546 Y114.659 E533.16254
G0 F7800 X84.112 Y114.659
G1 F3600 X80.561 Y111.108 E533.24606
G0 F7800 X80.561 Y110.542
G1 F3600 X84.678 Y114.659 E533.34288
G0 F7800 X85.243 Y114.659
G1 F3600 X80.561 Y109.977 E533.45299
G0 F7800 X80.561 Y109.411
G1 F3600 X85.809 Y114.659 E533.57642
G0 F7800 X86.375 Y114.659
G1 F3600 X80.561 Y108.845 E533.71316
G0 F7800 X80.561 Y108.279
G1 F3600 X86.94 Y114.659 E533.86319
G0 F7800 X87.506 Y114.659
G1 F3600 X80.561 Y107.714 E534.02653
G0 F7800 X80.561 Y107.148
G1 F3600 X88.072 Y114.659 E534.20318
G0 F7800 X88.637 Y114.659
G1 F3600 X80.561 Y106.582 E534.39312
G0 F7800 X80.561 Y106.017
G1 F3600 X89.203 Y114.659 E534.59637
G0 F7800 X89.769 Y114.659
G1 F3600 X80.561 Y105.451 E534.81293
G0 F7800 X80.561 Y104.885
G1 F3600 X90.335 Y114.659 E535.0428
G0 F7800 X90.9 Y114.659
G1 F3600 X80.561 Y104.32 E535.28595
G0 F7800 X80.561 Y103.754
G1 F3600 X91.466 Y114.659 E535.54242
G0 F7800 X92.032 Y114.659
G1 F3600 X80.561 Y103.188 E535.8122
G0 F7800 X80.561 Y102.623
G1 F3600 X92.597 Y114.659 E536.09527
G0 F7800 X93.163 Y114.659
G1 F3600 X80.561 Y102.057 E536.39165
G0 F7800 X80.561 Y101.491
G1 F3600 X93.729 Y114.659 E536.70134
G0 F7800 X94.294 Y114.659
G1 F3600 X80.561 Y100.926 E537.02432
G0 F7800 X80.561 Y100.36
G1 F3600 X94.86 Y114.659 E537.36061
G0 F7800 X95.426 Y114.659
G1 F3600 X80.56 Y99.793 E537.71024
G0 F7800 X80.56 Y99.228
G1 F3600 X95.991 Y114.659 E538.07315
G0 F7800 X96.557 Y114.659
G1 F3600 X80.56 Y98.662 E538.44938
G0 F7800 X80.56 Y98.096
G1 F3600 X97.123 Y114.659 E538.83891
G0 F7800 X97.688 Y114.659
G1 F3600 X80.56 Y97.531 E539.24174
G0 F7800 X80.56 Y96.965
G1 F3600 X98.254 Y114.659 E539.65787
G0 F7800 X98.82 Y114.659
G1 F3600 X80.56 Y96.399 E540.08732
G0 F7800 X80.56 Y95.834
G1 F3600 X99.385 Y114.659 E540.53005
G0 F7800 X99.951 Y114.659
G1 F3600 X80.56 Y95.268 E540.9861
G0 F7800 X80.56 Y94.702
G1 F3600 X100.517 Y114.659 E541.45546
G0 F7800 X101.083 Y114.659
G1 F3600 X80.56 Y94.137 E541.93812
G0 F7800 X80.56 Y93.571
G1 F3600 X101.648 Y114.659 E542.43407
G0 F7800 X102.214 Y114.659
G1 F3600 X80.56 Y93.005 E542.94334
G0 F7800 X80.56 Y92.44
G1 F3600 X102.78 Y114.659 E543.46591
G0 F7800 X103.345 Y114.659
G1 F3600 X80.56 Y91.874 E544.00178
G0 F7800 X80.56 Y91.308
G1 F3600 X103.911 Y114.659 E544.55096
G0 F7800 X104.477 Y114.659
G1 F3600 X80.56 Y90.743 E545.11344
G0 F7800 X80.56 Y90.177
G1 F3600 X105.042 Y114.659 E545.68922
G0 F7800 X105.608 Y114.659
G1 F3600 X80.56 Y89.611 E546.27831
G0 F7800 X80.56 Y89.045
G1 F3600 X106.174 Y114.659 E546.88071
G0 F7800 X106.739 Y114.659
G1 F3600 X80.56 Y88.48 E547.4964
G0 F7800 X80.56 Y87.914
G1 F3600 X107.305 Y114.659 E548.1254
G0 F7800 X107.871 Y114.659
G1 F3600 X80.56 Y87.348 E548.76771
G0 F7800 X80.56 Y86.783
G1 F3600 X108.436 Y114.659 E549.42332
G0 F7800 X109.002 Y114.659
G1 F3600 X80.56 Y86.217 E550.09223
G0 F7800 X80.56 Y85.651
G1 F3600 X109.568 Y114.659 E550.77445
G0 F7800 X110.134 Y114.659
G1 F3600 X80.813 Y85.339 E551.46402
G0 F7800 X81.379 Y85.339
G1 F3600 X110.699 Y114.659 E552.15359
G0 F7800 X111.265 Y114.659
G1 F3600 X81.945 Y85.339 E552.84315
G0 F7800 X82.51 Y85.339
G1 F3600 X111.831 Y114.659 E553.53272
G0 F7800 X112.396 Y114.659
G1 F3600 X83.076 Y85.339 E554.22228
G0 F7800 X83.642 Y85.339
G1 F3600 X112.962 Y114.659 E554.91184
G0 F7800 X113.528 Y114.659
G1 F3600 X84.207 Y85.339 E555.60142
G0 F7800 X84.773 Y85.339
G1 F3600 X114.093 Y114.659 E556.29098
G0 F7800 X114.659 Y114.659
G1 F3600 X85.339 Y85.339 E556.98054
G0 F7800 X85.904 Y85.339
G1 F3600 X115.225 Y114.659 E557.67011
G0 F7800 X115.79 Y114.659
G1 F3600 X86.47 Y85.339 E558.35967
G0 F7800 X87.036 Y85.339
G1 F3600 X116.356 Y114.659 E559.04924
G0 F7800 X116.922 Y114.659
G1 F3600 X87.602 Y85.339 E559.7388
G0 F7800 X88.167 Y85.339
G1 F3600 X117.487 Y114.659 E560.42836
G0 F7800 X118.053 Y114.659
G1 F3600 X88.733 Y85.339 E561.11792
G0 F7800 X89.299 Y85.339
G1 F3600 X118.619 Y114.659 E561.80748
G0 F7800 X119.184 Y114.659
G1 F3600 X89.864 Y85.339 E562.49704
G0 F7800 X90.43 Y85.339
G1 F3600 X119.438 Y114.346 E563.17926
G0 F7800 X119.438 Y113.781
G1 F3600 X90.996 Y85.339 E563.84817
G0 F7800 X91.561 Y85.339
G1 F3600 X119.438 Y113.215 E564.50378
G0 F7800 X119.438 Y112.649
G1 F3600 X92.127 Y85.339 E565.14608
G0 F7800 X92.693 Y85.339
G1 F3600 X119.438 Y112.084 E565.77508
G0 F7800 X119.438 Y111.518
G1 F3600 X93.258 Y85.339 E566.39078
G0 F7800 X93.824 Y85.339
G1 F3600 X119.438 Y110.952 E566.99317
G0 F7800 X119.438 Y110.387
G1 F3600 X94.39 Y85.339 E567.58227
G0 F7800 X94.955 Y85.339
G1 F3600 X119.438 Y109.821 E568.15806
G0 F7800 X119.438 Y109.255
G1 F3600 X95.521 Y85.339 E568.72054
G0 F7800 X96.087 Y85.339
G1 F3600 X119.438 Y108.69 E569.26972
G0 F7800 X119.438 Y108.124
G1 F3600 X96.653 Y85.339 E569.80558
G0 F7800 X97.218 Y85.339
G1 F3600 X119.438 Y107.558 E570.32815
G0 F7800 X119.438 Y106.993
G1 F3600 X97.784 Y85.339 E570.83742
G0 F7800 X98.35 Y85.339
G1 F3600 X119.438 Y106.427 E571.33338
G0 F7800 X119.438 Y105.861
G1 F3600 X98.915 Y85.339 E571.81604
G0 F7800 X99.481 Y85.339
G1 F3600 X119.438 Y105.295 E572.28538
G0 F7800 X119.438 Y104.73
G1 F3600 X100.047 Y85.34 E572.74142
G0 F7800 X100.613 Y85.34
G1 F3600 X119.438 Y104.164 E573.18414
G0 F7800 X119.438 Y103.598
G1 F3600 X101.179 Y85.34 E573.61355
G0 F7800 X101.744 Y85.34
G1 F3600 X119.438 Y103.033 E574.02968
G0 F7800 X119.438 Y102.467
G1 F3600 X102.31 Y85.34 E574.43249
G0 F7800 X102.876 Y85.34
G1 F3600 X119.438 Y101.901 E574.82199
G0 F7800 X119.438 Y101.336
G1 F3600 X103.441 Y85.34 E575.1982
G0 F7800 X104.007 Y85.34
G1 F3600 X119.438 Y100.77 E575.56111
G0 F7800 X119.438 Y100.204
G1 F3600 X104.573 Y85.34 E575.9107
G0 F7800 X105.139 Y85.34
G1 F3600 X119.438 Y99.639 E576.24699
G0 F7800 X119.438 Y99.073
G1 F3600 X105.704 Y85.34 E576.56998
G0 F7800 X106.27 Y85.34
G1 F3600 X119.438 Y98.507 E576.87966
G0 F7800 X119.438 Y97.942
G1 F3600 X106.836 Y85.34 E577.17604
G0 F7800 X107.401 Y85.34
G1 F3600 X119.438 Y97.376 E577.45912
G0 F7800 X119.438 Y96.81
G1 F3600 X107.967 Y85.34 E577.72888
G0 F7800 X108.533 Y85.34
G1 F3600 X119.438 Y96.245 E577.98535
G0 F7800 X119.438 Y95.679
G1 F3600 X109.098 Y85.34 E578.22852
G0 F7800 X109.664 Y85.34
G1 F3600 X119.438 Y95.113 E578.45838
G0 F7800 X119.438 Y94.547
G1 F3600 X110.23 Y85.34 E578.67493
G0 F7800 X110.795 Y85.34
G1 F3600 X119.438 Y93.982 E578.87818
G0 F7800 X119.438 Y93.416
G1 F3600 X111.361 Y85.34 E579.06813
G0 F7800 X111.927 Y85.34
G1 F3600 X119.438 Y92.85 E579.24477
G0 F7800 X119.438 Y92.285
G1 F3600 X112.492 Y85.34 E579.40811
G0 F7800 X113.058 Y85.34
G1 F3600 X119.438 Y91.719 E579.55815
G0 F7800 X119.438 Y91.153
G1 F3600 X113.624 Y85.34 E579.69488
G0 F7800 X114.189 Y85.34
G1 F3600 X119.438 Y90.588 E579.81831
G0 F7800 X119.438 Y90.022
G1 F3600 X114.755 Y85.34 E579.92844
G0 F7800 X115.321 Y85.34
G1 F3600 X119.438 Y89.456 E580.02525
G0 F7800 X119.438 Y88.891
G1 F3600 X115.887 Y85.34 E580.10877
G0 F7800 X116.452 Y85.34
G1 F3600 X119.438 Y88.325 E580.17898
G0 F7800 X119.438 Y87.759
G1 F3600 X117.018 Y85.34 E580.23588
G0 F7800 X117.584 Y85.34
G1 F3600 X119.438 Y87.194 E580.27949
G0 F7800 X119.438 Y86.628
G1 F3600 X118.149 Y85.34 E580.30979
G0 F7800 X118.715 Y85.34
G1 F3600 X119.438 Y86.062 E580.32678
G0 F7800 X119.438 Y85.496
G1 F3600 X119.281 Y85.34 E580.33046
; Layer Change GCode
; LAYER:9
G0 F7800 X79.779 Y115.386 Z1.15
G0 X79.461 Y115.628
G0 X79.631 Y115.5
G0 X79.631 Y115.5
G0 X79.421 Y115.8
G0 X79.421 Y115.8
G0 X80.221 Y115
; TYPE:WALL-INNER
G1 F1800 X80.221 Y115 E580.33046
G1 X80.221 Y85 E580.82936
G1 X119.779 Y85 E581.48722
G1 X119.779 Y115 E581.98612
G1 X80.221 Y115 E582.64397
G0 F7800 X79.821 Y115.4
G1 F1800 X79.821 Y115.4 E582.64397
G1 X79.821 Y84.6 E583.15618
G1 X120.179 Y84.6 E583.82733
G1 X120.179 Y115.4 E584.33954
G1 X79.821 Y115.4 E585.0107
G0 F7800 X79.421 Y115.8
; TYPE:WALL-OUTER
G1 F1260 X79.421 Y115.8 E585.0107
G1 X79.421 Y84.2 E585.53621
G1 X120.579 Y84.2 E586.22067
G1 X120.579 Y115.8 E586.74618
G1 X79.421 Y115.8 E587.43064
G0 F7800 X79.631 Y115.5
G0 X80.561 Y114.6
G0 X80.561 Y114.6
; TYPE:FILL
G1 F3600 X109.821 Y85.34 E588.11879
G0 F7800 X110.387 Y85.34
G1 F3600 X81.067 Y114.659 E588.80834
G0 F7800 X81.633 Y114.659
G1 F3600 X110.952 Y85.34 E589.49787
G0 F7800 X111.518 Y85.34
G1 F3600 X82.199 Y114.659 E590.18741
G0 F7800 X82.764 Y114.659
G1 F3600 X112.084 Y85.34 E590.87696
G0 F7800 X112.649 Y85.34
G1 F3600 X83.33 Y114.659 E591.5665
G0 F7800 X83.896 Y114.659
G1 F3600 X113.215 Y85.34 E592.25604
G0 F7800 X113.781 Y85.34
G1 F3600 X84.461 Y114.659 E592.94559
G0 F7800 X85.027 Y114.659
G1 F3600 X114.346 Y85.34 E593.63513
G0 F7800 X114.912 Y85.34
G1 F3600 X85.593 Y114.659 E594.32466
G0 F7800 X86.158 Y114.659
G1 F3600 X115.478 Y85.34 E595.01421
G0 F7800 X116.044 Y85.34
G1 F3600 X86.724 Y114.659 E595.70376
G0 F7800 X87.29 Y114.659
G1 F3600 X116.609 Y85.34 E596.3933
G0 F7800 X117.175 Y85.34
G1 F3600 X87.855 Y114.659 E597.08285
G0 F7800 X88.421 Y114.659
G1 F3600 X117.741 Y85.34 E597.7724
G0 F7800 X118.306 Y85.34
G1 F3600 X88.987 Y114.659 E598.46194
G0 F7800 X89.552 Y114.659
G1 F3600 X118.872 Y85.34 E599.15149
G0 F7800 X119.438 Y85.34
G1 F3600 X90.118 Y114.659 E599.84104
G0 F7800 X90.684 Y114.659
G1 F3600 X119.438 Y85.905 E600.51729
G0 F7800 X119.438 Y86.471
G1 F3600 X91.25 Y114.659 E601.18023
G0 F7800 X91.815 Y114.659
G1 F3600 X119.438 Y87.037 E601.82986
G0 F7800 X119.438 Y87.602
G1 F3600 X92.381 Y114.659 E602.4662
G0 F7800 X92.947 Y114.659
G1 F3600 X119.438 Y88.168 E603.08923
G0 F7800 X119.438 Y88.734
G1 F3600 X93.512 Y114.659 E603.69896
G0 F7800 X94.078 Y114.659
G1 F3600 X119.438 Y89.299 E604.29539
G0 F7800 X119.438 Y89.865
G1 F3600 X94.644 Y114.659 E604.8785
G0 F7800 X95.209 Y114.659
G1 F3600 X119.438 Y90.431 E605.44832
G0 F7800 X119.438 Y90.996
G1 F3600 X95.775 Y114.659 E606.00484
G0 F7800 X96.341 Y114.659
G1 F3600 X119.438 Y91.562 E606.54805
G0 F7800 X119.438 Y92.128
G1 F3600 X96.906 Y114.659 E607.07795
G0 F7800 X97.472 Y114.659
G1 F3600 X119.438 Y92.693 E607.59456
G0 F7800 X119.438 Y93.259
G1 F3600 X98.038 Y114.659 E608.09785
G0 F7800 X98.603 Y114.659
G1 F3600 X119.438 Y93.825 E608.58785
G0 F7800 X119.438 Y94.39
G1 F3600 X99.169 Y114.659 E609.06454
G0 F7800 X99.735 Y114.659
G1 F3600 X119.438 Y94.956 E609.52793
G0 F7800 X119.438 Y95.522
G1 F3600 X100.3 Y114.659 E609.97801
G0 F7800 X100.866 Y114.659
G1 F3600 X119.438 Y96.088 E610.41479
G0 F7800 X119.438 Y96.653
G1 F3600 X101.432 Y114.659 E610.83826
G0 F7800 X101.998 Y114.659
G1 F3600 X119.438 Y97.219 E611.24842
G0 F7800 X119.438 Y97.785
G1 F3600 X102.563 Y114.659 E611.64529
G0 F7800 X103.129 Y114.659
G1 F3600 X119.438 Y98.35 E612.02885
G0 F7800 X119.438 Y98.916
G1 F3600 X103.695 Y114.659 E612.3991
G0 F7800 X104.26 Y114.659
G1 F3600 X119.438 Y99.482 E612.75605
G0 F7800 X119.438 Y100.047
G1 F3600 X104.826 Y114.659 E613.0997
G0 F7800 X105.392 Y114.659
G1 F3600 X119.438 Y100.613 E613.43004
G0 F7800 X119.438 Y101.179
G1 F3600 X105.957 Y114.659 E613.74708
G0 F7800 X106.523 Y114.659
G1 F3600 X119.438 Y101.744 E614.05082
G0 F7800 X119.438 Y102.31
G1 F3600 X107.089 Y114.659 E614.34125
G0 F7800 X107.654 Y114.659
G1 F3600 X119.438 Y102.876 E614.61838
G0 F7800 X119.438 Y103.441
G1 F3600 X108.22 Y114.659 E614.88221
G0 F7800 X108.786 Y114.659
G1 F3600 X119.438 Y104.007 E615.13273
G0 F7800 X119.438 Y104.573
G1 F3600 X109.351 Y114.659 E615.36995
G0 F7800 X109.917 Y114.659
G1 F3600 X119.438 Y105.139 E615.59386
G0 F7800 X119.438 Y105.704
G1 F3600 X110.483 Y114.659 E615.80447
G0 F7800 X111.048 Y114.659
G1 F3600 X119.438 Y106.27 E616.00178
G0 F7800 X119.438 Y106.836
G1 F3600 X111.614 Y114.659 E616.18577
G0 F7800 X112.18 Y114.659
G1 F3600 X119.438 Y107.401 E616.35647
G0 F7800 X119.438 Y107.967
G1 F3600 X112.746 Y114.659 E616.51385
G0 F7800 X113.311 Y114.659
G1 F3600 X119.438 Y108.533 E616.65794
G0 F7800 X119.438 Y109.098
G1 F3600 X113.877 Y114.659 E616.78873
G0 F7800 X114.443 Y114.659
G1 F3600 X119.438 Y109.664 E616.9062
G0 F7800 X119.438 Y110.23
G1 F3600 X115.008 Y114.659 E617.01038
G0 F7800 X115.574 Y114.659
G1 F3600 X119.438 Y110.795 E617.10125
G0 F7800 X119.438 Y111.361
G1 F3600 X116.14 Y114.659 E617.17882
G0 F7800 X116.705 Y114.659
G1 F3600 X119.438 Y111.927 E617.24308
G0 F7800 X119.438 Y112.492
G1 F3600 X117.271 Y114.659 E617.29404
G0 F7800 X117.837 Y114.659
G1 F3600 X119.438 Y113.058 E617.3317
G0 F7800 X119.438 Y113.624
G1 F3600 X118.402 Y114.659 E617.35605
G0 F7800 X118.968 Y114.659
G1 F3600 X119.438 Y114.189 E617.3671
G0 F7800 X109.255 Y85.34
G0 X109.255 Y85.34
G1 F3600 X80.561 Y114.034 E618.04194
G0 F7800 X80.561 Y113.468
G1 F3600 X108.69 Y85.34 E618.70348
G0 F7800 X108.124 Y85.34
G1 F3600 X80.561 Y112.903 E619.35172
G0 F7800 X80.561 Y112.337
G1 F3600 X107.558 Y85.34 E619.98665
G0 F7800 X106.993 Y85.34
G1 F3600 X80.561 Y111.771 E620.60828
G0 F7800 X80.561 Y111.205
G1 F3600 X106.427 Y85.34 E621.2166
G0 F7800 X105.861 Y85.34
G1 F3600 X80.561 Y110.64 E621.81161
G0 F7800 X80.561 Y110.074
G1 F3600 X105.295 Y85.34 E622.39332
G0 F7800 X104.73 Y85.34
G1 F3600 X80.561 Y109.508 E622.96172
G0 F7800 X80.561 Y108.943
G1 F3600 X104.164 Y85.34 E623.51683
G0 F7800 X103.598 Y85.34
G1 F3600 X80.561 Y108.377 E624.05863
G0 F7800 X80.561 Y107.811
G1 F3600 X103.033 Y85.34 E624.58712
G0 F7800 X102.467 Y85.34
G1 F3600 X80.561 Y107.246 E625.10232
G0 F7800 X80.561 Y106.68
G1 F3600 X101.901 Y85.34 E625.6042
G0 F7800 X101.336 Y85.34
G1 F3600 X80.561 Y106.114 E626.09279
G0 F7800 X80.561 Y105.549
G1 F3600 X100.77 Y85.34 E626.56807
G0 F7800 X100.204 Y85.34
G1 F3600 X80.561 Y104.983 E627.03004
G0 F7800 X80.561 Y104.417
G1 F3600 X99.639 Y85.339 E627.47873
G0 F7800 X99.074 Y85.339
G1 F3600 X80.561 Y103.852 E627.91413
G0 F7800 X80.561 Y103.286
G1 F3600 X98.508 Y85.339 E628.33621
G0 F7800 X97.942 Y85.339
G1 F3600 X80.561 Y102.72 E628.74499
G0 F7800 X80.561 Y102.155
G1 F3600 X97.377 Y85.339 E629.14047
G0 F7800 X96.811 Y85.339
G1 F3600 X80.561 Y101.589 E629.52265
G0 F7800 X80.561 Y101.023
G1 F3600 X96.245 Y85.339 E629.89151
G0 F7800 X95.68 Y85.339
G1 F3600 X80.561 Y100.457 E630.24708
G0 F7800 X80.56 Y99.892
G1 F3600 X95.114 Y85.339 E630.58935
G0 F7800 X94.548 Y85.339
G1 F3600 X80.56 Y99.327 E630.91833
G0 F7800 X80.56 Y98.761
G1 F3600 X93.982 Y85.339 E631.23399
G0 F7800 X93.417 Y85.339
G1 F3600 X80.56 Y98.195 E631.53636
G0 F7800 X80.56 Y97.63
G1 F3600 X92.851 Y85.339 E631.82542
G0 F7800 X92.285 Y85.339
G1 F3600 X80.56 Y97.064 E632.10118
G0 F7800 X80.56 Y96.498
G1 F3600 X91.72 Y85.339 E632.36363
G0 F7800 X91.154 Y85.339
G1 F3600 X80.56 Y95.933 E632.61279
G0 F7800 X80.56 Y95.367
G1 F3600 X90.588 Y85.339 E632.84863
G0 F7800 X90.023 Y85.339
G1 F3600 X80.56 Y94.801 E633.07117
G0 F7800 X80.56 Y94.236
G1 F3600 X89.457 Y85.339 E633.28042
G0 F7800 X88.891 Y85.339
G1 F3600 X80.56 Y93.67 E633.47635
G0 F7800 X80.56 Y93.104
G1 F3600 X88.326 Y85.339 E633.65898
G0 F7800 X87.76 Y85.339
G1 F3600 X80.56 Y92.539 E633.82831
G0 F7800 X80.56 Y91.973
G1 F3600 X87.194 Y85.339 E633.98434
G0 F7800 X86.629 Y85.339
G1 F3600 X80.56 Y91.407 E634.12706
G0 F7800 X80.56 Y90.842
G1 F3600 X86.063 Y85.339 E634.25648
G0 F7800 X85.497 Y85.339
G1 F3600 X80.56 Y90.276 E634.37259
G0 F7800 X80.56 Y89.71
G1 F3600 X84.932 Y85.339 E634.4754
G0 F7800 X84.366 Y85.339
G1 F3600 X80.56 Y89.144 E634.5649
G0 F7800 X80.56 Y88.579
G1 F3600 X83.8 Y85.339 E634.6411
G0 F7800 X83.234 Y85.339
G1 F3600 X80.56 Y88.013 E634.70399
G0 F7800 X80.56 Y87.447
G1 F3600 X82.669 Y85.339 E634.75358
G0 F7800 X82.103 Y85.339
G1 F3600 X80.56 Y86.882 E634.78987
G0 F7800 X80.56 Y86.316
G1 F3600 X81.537 Y85.339 E634.81284
G0 F7800 X80.972 Y85.339
G1 F3600 X80.56 Y85.75 E634.82252
; Layer Change GCode
; LAYER:10
G0 F7800 X79.634 Y115.398 Z1.25
G0 X79.621 Y115.798
G0 X79.631 Y115.5
G0 X79.631 Y115.5
G0 X79.421 Y115.8
G0 X79.421 Y115.8
G0 X80.221 Y115
; TYPE:WALL-INNER
G1 F1800 X80.221 Y115 E634.82252
G1 X80.221 Y85 E635.32142
G1 X119.779 Y85 E635.97928
G1 X119.779 Y115 E636.47818
G1 X80.221 Y115 E637.13603
G0 F7800 X79.821 Y115.4
G1 F1800 X79.821 Y115.4 E637.13603
G1 X79.821 Y84.6 E637.64824
G1 X120.179 Y84.6 E638.31939
G1 X120.179 Y115.4 E638.8316
G1 X79.821 Y115.4 E639.50276
G0 F7800 X79.421 Y115.8
; TYPE:WALL-OUTER
G1 F1260 X79.421 Y115.8 E639.50276
G1 X79.421 Y84.2 E640.02827
G1 X120.579 Y84.2 E640.71273
G1 X120.579 Y115.8 E641.23824
G1 X79.421 Y115.8 E641.9227
G0 F7800 X79.631 Y115.5
G0 X80.718 Y114.659
G0 X80.718 Y114.659
; TYPE:FILL
G1 F3600 X80.561 Y114.502 E641.92639
G0 F7800 X81.086 Y114.659
G1 F3600 X88.943 Y85.339 E642.43119
G0 F7800 X89.581 Y85.339
G1 F3600 X118.902 Y114.659 E643.12076
G0 F7800 X118.356 Y114.658
G1 F3600 X119.438 Y110.621 E643.19026
G0 F7800 X119.438 Y110.864
G1 F3600 X105.275 Y114.659 E643.43411
G0 F7800 X105.933 Y114.659
G1 F3600 X113.789 Y85.339 E643.9389
G0 F7800 X115.038 Y85.34
G1 F3600 X119.438 Y89.739 E644.04237
G0 F7800 X119.438 Y89.123
G1 F3600 X80.56 Y99.541 E644.71172
G0 F7800 X80.56 Y97.531
G1 F3600 X97.688 Y114.659 E645.11455
G0 F7800 X96.616 Y114.659
G1 F3600 X104.472 Y85.339 E645.61934
G0 F7800 X106.553 Y85.34
G1 F3600 X119.438 Y98.224 E645.92236
G0 F7800 X119.438 Y98.441
G1 F3600 X80.559 Y108.858 E646.59173
G0 F7800 X80.561 Y110.259
G1 F3600 X84.961 Y114.659 E646.69521
G0 F7800 X84.192 Y114.659
G1 F3600 X92.048 Y85.339 E647.2
G0 F7800 X93.824 Y85.339
G1 F3600 X119.438 Y110.952 E647.80239
G0 F7800 X119.438 Y113.97
G1 F3600 X116.866 Y114.659 E647.84667
G0 F7800 X115.251 Y114.659
G0 X115.251 Y114.659
G1 F3600 X119.438 Y99.031 E648.11573
G0 F7800 X119.439 Y101.547
G1 F3600 X80.56 Y111.964 E648.7851
G0 F7800 X82.094 Y114.659
G1 F3600 X119.438 Y104.652 E649.42804
G0 F7800 X119.438 Y106.71
G1 F3600 X98.067 Y85.339 E649.93066
G0 F7800 X98.26 Y85.339
G1 F3600 X90.404 Y114.659 E650.43545
G0 F7800 X89.203 Y114.659
G1 F3600 X80.561 Y106.017 E650.6387
G0 F7800 X80.559 Y105.753
G1 F3600 X119.438 Y95.335 E651.30807
G0 F7800 X119.438 Y93.982
G1 F3600 X110.795 Y85.34 E651.51133
G0 F7800 X110.683 Y85.339
G1 F3600 X102.827 Y114.659 E652.01612
G0 F7800 X101.931 Y114.659
G1 F3600 X80.56 Y93.288 E652.51873
G0 F7800 X80.56 Y93.329
G1 F3600 X110.378 Y85.339 E653.0321
G0 F7800 X107.577 Y85.34
G1 F3600 X99.722 Y114.658 E653.53686
G0 F7800 X93.684 Y114.659
G1 F3600 X119.438 Y107.758 E653.98026
G0 F7800 X119.438 Y102.467
G1 F3600 X102.31 Y85.34 E654.38307
G0 F7800 X101.366 Y85.339
G1 F3600 X93.51 Y114.659 E654.88786
G0 F7800 X93.446 Y114.659
G1 F3600 X80.561 Y101.774 E655.1909
G0 F7800 X80.56 Y102.647
G1 F3600 X119.438 Y92.229 E655.86025
G0 F7800 X119.438 Y87.441
G0 X119.438 Y87.441
G1 F3600 X112.145 Y114.659 E656.32886
G0 F7800 X110.416 Y114.659
G1 F3600 X81.096 Y85.339 E657.01842
G0 F7800 X82.731 Y85.339
G1 F3600 X80.56 Y93.441 E657.15791
G0 F7800 X80.56 Y96.435
G1 F3600 X119.438 Y86.017 E657.82726
G0 F7800 X119.438 Y85.496
G1 F3600 X119.281 Y85.34 E657.83094
G0 F7800 X116.895 Y85.339
G1 F3600 X109.039 Y114.659 E658.33574
G0 F7800 X106.174 Y114.659
G1 F3600 X80.56 Y89.045 E658.93814
G0 F7800 X80.56 Y90.223
G1 F3600 X98.788 Y85.339 E659.25196
G0 F7800 X95.154 Y85.339
G1 F3600 X87.298 Y114.659 E659.75676
G0 F7800 X80.56 Y105.031
G0 X80.56 Y105.031
G1 F3600 X85.837 Y85.339 E660.09579
G0 F7800 X85.339 Y85.339
G1 F3600 X114.659 Y114.659 E660.78535
G0 F7800 X87.197 Y85.339
G1 F3600 X80.56 Y87.117 E660.89962
; Layer Change GCode
; LAYER:11
G0 F7800 X79.633 Y115.398 Z1.35
G0 X79.62 Y115.798
G0 X79.631 Y115.5
G0 X79.631 Y115.5
G0 X79.421 Y115.8
G0 X79.421 Y115.8
G0 X80.221 Y115
; TYPE:WALL-INNER
G1 F1800 X80.221 Y115 E660.89962
G1 X80.221 Y85 E661.39852
G1 X119.779 Y85 E662.05637
G1 X119.779 Y115 E662.55527
G1 X80.221 Y115 E663.21313
G0 F7800 X79.821 Y115.4
G1 F1800 X79.821 Y115.4 E663.21313
G1 X79.821 Y84.6 E663.72533
G1 X120.179 Y84.6 E664.39649
G1 X120.179 Y115.4 E664.90869
G1 X79.821 Y115.4 E665.57985
G0 F7800 X79.421 Y115.8
; TYPE:WALL-OUTER
G1 F1260 X79.421 Y115.8 E665.57985
G1 X79.421 Y84.2 E666.10536
G1 X120.579 Y84.2 E666.78982
G1 X120.579 Y115.8 E667.31533
G1 X79.421 Y115.8 E667.99979
G0 F7800 X79.631 Y115.5
G0 X80.718 Y114.659
G0 X80.718 Y114.659
; TYPE:FILL
G1 F3600 X80.561 Y114.502 E668.00348
G0 F7800 X81.086 Y114.659
G1 F3600 X88.943 Y85.339 E668.50828
G0 F7800 X89.581 Y85.339
G1 F3600 X118.902 Y114.659 E669.19785
G0 F7800 X118.356 Y114.658
G1 F3600 X119.438 Y110.621 E669.26736
G0 F7800 X119.438 Y110.864
G1 F3600 X105.275 Y114.659 E669.5112
G0 F7800 X105.933 Y114.659
G1 F3600 X113.789 Y85.339 E670.01599
G0 F7800 X115.038 Y85.34
G1 F3600 X119.438 Y89.739 E670.11946
G0 F7800 X119.438 Y89.123
G1 F3600 X80.56 Y99.541 E670.78882
G0 F7800 X80.56 Y97.531
G1 F3600 X97.688 Y114.659 E671.19164
G0 F7800 X96.616 Y114.659
G1 F3600 X104.472 Y85.339 E671.69643
G0 F7800 X106.553 Y85.34
G1 F3600 X119.438 Y98.224 E671.99946
G0 F7800 X119.438 Y98.441
G1 F3600 X80.559 Y108.858 E672.66882
G0 F7800 X80.561 Y110.259
G1 F3600 X84.961 Y114.659 E672.7723
G0 F7800 X84.192 Y114.659
G1 F3600 X92.048 Y85.339 E673.2771
G0 F7800 X93.824 Y85.339
G1 F3600 X119.438 Y110.952 E673.87949
G0 F7800 X119.438 Y113.97
G1 F3600 X116.866 Y114.659 E673.92377
G0 F7800 X115.251 Y114.659
G0 X115.251 Y114.659
G1 F3600 X119.438 Y99.031 E674.19283
G0 F7800 X119.439 Y101.547
G1 F3600 X80.56 Y111.964 E674.86219
G0 F7800 X82.094 Y114.659
G1 F3600 X119.438 Y104.652 E675.50514
G0 F7800 X119.438 Y106.71
G1 F3600 X98.067 Y85.339 E676.00775
G0 F7800 X98.26 Y85.339
G1 F3600 X90.404 Y114.659 E676.51254
G0 F7800 X89.203 Y114.659
G1 F3600 X80.561 Y106.017 E676.71579
G0 F7800 X80.559 Y105.753
G1 F3600 X119.438 Y95.335 E677.38516
G0 F7800 X119.438 Y93.982
G1 F3600 X110.795 Y85.34 E677.58842
G0 F7800 X110.683 Y85.339
G1 F3600 X102.827 Y114.659 E678.09321
G0 F7800 X101.931 Y114.659
G1 F3600 X80.56 Y93.288 E678.59583
G0 F7800 X80.56 Y93.329
G1 F3600 X110.378 Y85.339 E679.1092
G0 F7800 X107.577 Y85.34
G1 F3600 X99.722 Y114.658 E679.61395
G0 F7800 X93.684 Y114.659
G1 F3600 X119.438 Y107.758 E680.05735
G0 F7800 X119.438 Y102.467
G1 F3600 X102.31 Y85.34 E680.46016
G0 F7800 X101.366 Y85.339
G1 F3600 X93.51 Y114.659 E680.96496
G0 F7800 X93.446 Y114.659
G1 F3600 X80.561 Y101.774 E681.26799
G0 F7800 X80.56 Y102.647
G1 F3600 X119.438 Y92.229 E681.93735
G0 F7800 X119.438 Y87.441
G0 X119.438 Y87.441
G1 F3600 X112.145 Y114.659 E682.40595
G0 F7800 X110.416 Y114.659
G1 F3600 X81.096 Y85.339 E683.09551
G0 F7800 X82.731 Y85.339
G1 F3600 X80.56 Y93.441 E683.235
G0 F7800 X80.56 Y96.435
G1 F3600 X119.438 Y86.017 E683.90436
G0 F7800 X119.438 Y85.496
G1 F3600 X119.281 Y85.34 E683.90804
G0 F7800 X116.895 Y85.339
G1 F3600 X109.039 Y114.659 E684.41283
G0 F7800 X106.174 Y114.659
G1 F3600 X80.56 Y89.045 E685.01523
G0 F7800 X80.56 Y90.223
G1 F3600 X98.788 Y85.339 E685.32906
G0 F7800 X95.154 Y85.339
G1 F3600 X87.298 Y114.659 E685.83385
G0 F7800 X80.56 Y105.031
G0 X80.56 Y105.031
G1 F3600 X85.837 Y85.339 E686.17288
G0 F7800 X85.339 Y85.339
G1 F3600 X114.659 Y114.659 E686.86245
G0 F7800 X87.197 Y85.339
G1 F3600 X80.56 Y87.117 E686.97671
; Layer Change GCode
; LAYER:12
G0 F7800 X79.633 Y115.398 Z1.45
G0 X79.62 Y115.798
G0 X79.631 Y115.5
G0 X79.631 Y115.5
G0 X79.421 Y115.8
G0 X79.421 Y115.8
G0 X80.221 Y115
; TYPE:WALL-INNER
G1 F1800 X80.221 Y115 E686.97671
G1 X80.221 Y85 E687.47561
G1 X119.779 Y85 E688.13347
G1 X119.779 Y115 E688.63237
G1 X80.221 Y115 E689.29022
G0 F7800 X79.821 Y115.4
G1 F1800 X79.821 Y115.4 E689.29022
G1 X79.821 Y84.6 E689.80243
G1 X120.179 Y84.6 E690.47358
G1 X120.179 Y115.4 E690.98579
G1 X79.821 Y115.4 E691.65695
G0 F7800 X79.421 Y115.8
; TYPE:WALL-OUTER
G1 F1260 X79.421 Y115.8 E691.65695
G1 X79.421 Y84.2 E692.18246
G1 X120.579 Y84.2 E692.86692
G1 X120.579 Y115.8 E693.39243
G1 X79.421 Y115.8 E694.07689
G0 F7800 X79.631 Y115.5
G0 X80.718 Y114.659
G0 X80.718 Y114.659
; TYPE:FILL
G1 F3600 X80.561 Y114.502 E694.08058
G0 F7800 X81.086 Y114.659
G1 F3600 X88.943 Y85.339 E694.58538
G0 F7800 X89.581 Y85.339
G1 F3600 X118.902 Y114.659 E695.27495
G0 F7800 X118.356 Y114.658
G1 F3600 X119.438 Y110.621 E695.34445
G0 F7800 X119.438 Y110.864
G1 F3600 X105.275 Y114.659 E695.58829
G0 F7800 X105.933 Y114.659
G1 F3600 X113.789 Y85.339 E696.09309
G0 F7800 X115.038 Y85.34
G1 F3600 X119.438 Y89.739 E696.19656
G0 F7800 X119.438 Y89.123
G1 F3600 X80.56 Y99.541 E696.86591
G0 F7800 X80.56 Y97.531
G1 F3600 X97.688 Y114.659 E697.26874
G0 F7800 X96.616 Y114.659
G1 F3600 X104.472 Y85.339 E697.77353
G0 F7800 X106.553 Y85.34
G1 F3600 X119.438 Y98.224 E698.07655
G0 F7800 X119.438 Y98.441
G1 F3600 X80.559 Y108.858 E698.74592
G0 F7800 X80.561 Y110.259
G1 F3600 X84.961 Y114.659 E698.8494
G0 F7800 X84.192 Y114.659
G1 F3600 X92.048 Y85.339 E699.35419
G0 F7800 X93.824 Y85.339
G1 F3600 X119.438 Y110.952 E699.95658
G0 F7800 X119.438 Y113.97
G1 F3600 X116.866 Y114.659 E700.00086
G0 F7800 X115.251 Y114.659
G0 X115.251 Y114.659
G1 F3600 X119.438 Y99.031 E700.26992
G0 F7800 X119.439 Y101.547
G1 F3600 X80.56 Y111.964 E700.93929
G0 F7800 X82.094 Y114.659
G1 F3600 X119.438 Y104.652 E701.58223
G0 F7800 X119.438 Y106.71
G1 F3600 X98.067 Y85.339 E702.08485
G0 F7800 X98.26 Y85.339
G1 F3600 X90.404 Y114.659 E702.58964
G0 F7800 X89.203 Y114.659
G1 F3600 X80.561 Y106.017 E702.79289
G0 F7800 X80.559 Y105.753
G1 F3600 X119.438 Y95.335 E703.46226
G0 F7800 X119.438 Y93.982
G1 F3600 X110.795 Y85.34 E703.66551
G0 F7800 X110.683 Y85.339
G1 F3600 X102.827 Y114.659 E704.17031
G0 F7800 X101.931 Y114.659
G1 F3600 X80.56 Y93.288 E704.67292
G0 F7800 X80.56 Y93.329
G1 F3600 X110.378 Y85.339 E705.18629
G0 F7800 X107.577 Y85.34
G1 F3600 X99.722 Y114.658 E705.69105
G0 F7800 X93.684 Y114.659
G1 F3600 X119.438 Y107.758 E706.13445
G0 F7800 X119.438 Y102.467
G1 F3600 X102.31 Y85.34 E706.53726
G0 F7800 X101.366 Y85.339
G1 F3600 X93.51 Y114.659 E707.04205
G0 F7800 X93.446 Y114.659
G1 F3600 X80.561 Y101.774 E707.34509
G0 F7800 X80.56 Y102.647
G1 F3600 X119.438 Y92.229 E708.01444
G0 F7800 X119.438 Y87.441
G0 X119.438 Y87.441
G1 F3600 X112.145 Y114.659 E708.48305
G0 F7800 X110.416 Y114.659
G1 F3600 X81.096 Y85.339 E709.17261
G0 F7800 X82.731 Y85.339
G1 F3600 X80.56 Y93.441 E709.3121
G0 F7800 X80.56 Y96.435
G1 F3600 X119.438 Y86.017 E709.98145
G0 F7800 X119.438 Y85.496
G1 F3600 X119.281 Y85.34 E709.98513
G0 F7800 X116.895 Y85.339
G1 F3600 X109.039 Y114.659 E710.48993
G0 F7800 X106.174 Y114.659
G1 F3600 X80.56 Y89.045 E711.09233
G0 F7800 X80.56 Y90.223
G1 F3600 X98.788 Y85.339 E711.40615
G0 F7800 X95.154 Y85.339
G1 F3600 X87.298 Y114.659 E711.91095
G0 F7800 X80.56 Y105.031
G0 X80.56 Y105.031
G1 F3600 X85.837 Y85.339 E712.24998
G0 F7800 X85.339 Y85.339
G1 F3600 X114.659 Y114.659 E712.93954
G0 F7800 X87.197 Y85.339
G1 F3600 X80.56 Y87.117 E713.05381
; Layer Change GCode
; LAYER:13
G0 F7800 X79.633 Y115.398 Z1.55
G0 X79.62 Y115.798
G0 X79.631 Y115.5
G0 X79.631 Y115.5
G0 X79.421 Y115.8
G0 X79.421 Y115.8
G0 X80.221 Y115
; TYPE:WALL-INNER
G1 F1800 X80.221 Y115 E713.05381
G1 X80.221 Y85 E713.55271
G1 X119.779 Y85 E714.21056
G1 X119.779 Y115 E714.70946
G1 X80.221 Y115 E715.36732
G0 F7800 X79.821 Y115.4
G1 F1800 X79.821 Y115.4 E715.36732
G1 X79.821 Y84.6 E715.87952
G1 X120.179 Y84.6 E716.55068
G1 X120.179 Y115.4 E717.06288
G1 X79.821 Y115.4 E717.73404
G0 F7800 X79.421 Y115.8
; TYPE:WALL-OUTER
G1 F1260 X79.421 Y115.8 E717.73404
G1 X79.421 Y84.2 E718.25955
G1 X120.579 Y84.2 E718.94401
G1 X120.579 Y115.8 E719.46952
G1 X79.421 Y115.8 E720.15398
G0 F7800 X79.631 Y115.5
G0 X80.718 Y114.659
G0 X80.718 Y114.659
; TYPE:FILL
G1 F3600 X80.561 Y114.502 E720.15767
G0 F7800 X81.086 Y114.659
G1 F3600 X88.943 Y85.339 E720.66247
G0 F7800 X89.581 Y85.339
G1 F3600 X118.902 Y114.659 E721.35204
G0 F7800 X118.356 Y114.658
G1 F3600 X119.438 Y110.621 E721.42155
G0 F7800 X119.438 Y110.864
G1 F3600 X105.275 Y114.659 E721.66539
G0 F7800 X105.933 Y114.659
G1 F3600 X113.789 Y85.339 E722.17018
G0 F7800 X115.038 Y85.34
G1 F3600 X119.438 Y89.739 E722.27365
G0 F7800 X119.438 Y89.123
G1 F3600 X80.56 Y99.541 E722.94301
G0 F7800 X80.56 Y97.531
G1 F3600 X97.688 Y114.659 E723.34583
G0 F7800 X96.616 Y114.659
G1 F3600 X104.472 Y85.339 E723.85062
G0 F7800 X106.553 Y85.34
G1 F3600 X119.438 Y98.224 E724.15365
G0 F7800 X119.438 Y98.441
G1 F3600 X80.559 Y108.858 E724.82301
G0 F7800 X80.561 Y110.259
G1 F3600 X84.961 Y114.659 E724.92649
G0 F7800 X84.192 Y114.659
G1 F3600 X92.048 Y85.339 E725.43129
G0 F7800 X93.824 Y85.339
G1 F3600 X119.438 Y110.952 E726.03368
G0 F7800 X119.438 Y113.97
G1 F3600 X116.866 Y114.659 E726.07796
G0 F7800 X115.251 Y114.659
G0 X115.251 Y114.659
G1 F3600 X119.438 Y99.031 E726.34702
G0 F7800 X119.439 Y101.547
G1 F3600 X80.56 Y111.964 E727.01638
G0 F7800 X82.094 Y114.659
G1 F3600 X119.438 Y104.652 E727.65933
G0 F7800 X119.438 Y106.71
G1 F3600 X98.067 Y85.339 E728.16194
G0 F7800 X98.26 Y85.339
G1 F3600 X90.404 Y114.659 E728.66673
G0 F7800 X89.203 Y114.659
G1 F3600 X80.561 Y106.017 E728.86998
G0 F7800 X80.559 Y105.753
G1 F3600 X119.438 Y95.335 E729.53935
G0 F7800 X119.438 Y93.982
G1 F3600 X110.795 Y85.34 E729.74261
G0 F7800 X110.683 Y85.339
G1 F3600 X102.827 Y114.659 E730.2474
G0 F7800 X101.931 Y114.659
G1 F3600 X80.56 Y93.288 E730.75002
G0 F7800 X80.56 Y93.329
G1 F3600 X110.378 Y85.339 E731.26338
G0 F7800 X107.577 Y85.34
G1 F3600 X99.722 Y114.658 E731.76814
G0 F7800 X93.684 Y114.659
G1 F3600 X119.438 Y107.758 E732.21154
G0 F7800 X119.438 Y102.467
G1 F3600 X102.31 Y85.34 E732.61435
G0 F7800 X101.366 Y85.339
G1 F3600 X93.51 Y114.659 E733.11915
G0 F7800 X93.446 Y114.659
G1 F3600 X80.561 Y101.774 E733.42218
G0 F7800 X80.56 Y102.647
G1 F3600 X119.438 Y92.229 E734.09154
G0 F7800 X119.438 Y87.441
G0 X119.438 Y87.441
G1 F3600 X112.145 Y114.659 E734.56014
G0 F7800 X110.416 Y114.659
G1 F3600 X81.096 Y85.339 E735.2497
G0 F7800 X82.731 Y85.339
G1 F3600 X80.56 Y93.441 E735.38919
G0 F7800 X80.56 Y96.435
G1 F3600 X119.438 Y86.017 E736.05855
G0 F7800 X119.438 Y85.496
G1 F3600 X119.281 Y85.34 E736.06223
G0 F7800 X116.895 Y85.339
G1 F3600 X109.039 Y114.659 E736.56702
G0 F7800 X106.174 Y114.659
G1 F3600 X80.56 Y89.045 E737.16942
G0 F7800 X80.56 Y90.223
G1 F3600 X98.788 Y85.339 E737.48325
G0 F7800 X95.154 Y85.339
G1 F3600 X87.298 Y114.659 E737.98804
G0 F7800 X80.56 Y105.031
G0 X80.56 Y105.031
G1 F3600 X85.837 Y85.339 E738.32707
G0 F7800 X85.339 Y85.339
G1 F3600 X114.659 Y114.659 E739.01664
G0 F7800 X87.197 Y85.339
G1 F3600 X80.56 Y87.117 E739.1309
; Layer Change GCode
; LAYER:14
G0 F7800 X79.633 Y115.398 Z1.65
G0 X79.62 Y115.798
G0 X79.631 Y115.5
G0 X79.631 Y115.5
G0 X79.421 Y115.8
G0 X79.421 Y115.8
G0 X80.221 Y115
; TYPE:WALL-INNER
G1 F1800 X80.221 Y115 E739.1309
G1 X80.221 Y85 E739.6298
G1 X119.779 Y85 E740.28766
G1 X119.779 Y115 E740.78656
G1 X80.221 Y115 E741.44441
G0 F7800 X79.821 Y115.4
G1 F1800 X79.821 Y115.4 E741.44441
G1 X79.821 Y84.6 E741.95662
G1 X120.179 Y84.6 E742.62777
G1 X120.179 Y115.4 E743.13998
G1 X79.821 Y115.4 E743.81113
G0 F7800 X79.421 Y115.8
; TYPE:WALL-OUTER
G1 F1260 X79.421 Y115.8 E743.81113
G1 X79.421 Y84.2 E744.33664
G1 X120.579 Y84.2 E745.02111
G1 X120.579 Y115.8 E745.54662
G1 X79.421 Y115.8 E746.23108
G0 F7800 X79.631 Y115.5
G0 X80.718 Y114.659
G0 X80.718 Y114.659
; TYPE:FILL
G1 F3600 X80.561 Y114.502 E746.23477
G0 F7800 X80.758 Y114.134
G1 F3600 X80.56 Y113.936 E746.23942
G0 F7800 X80.56 Y113.37
G1 F3600 X81.324 Y114.134 E746.25739
G0 F7800 X81.259 Y114.014
G1 F3600 X81.086 Y114.659 E746.2685
G0 F7800 X81.89 Y114.134
G1 F3600 X80.56 Y112.804 E746.29978
G0 F7800 X80.56 Y112.239
G1 F3600 X82.455 Y114.134 E746.34435
G0 F7800 X83.021 Y114.134
G1 F3600 X80.56 Y111.673 E746.40222
G0 F7800 X80.56 Y111.107
G1 F3600 X83.587 Y114.134 E746.47341
G0 F7800 X84.152 Y114.134
G1 F3600 X80.56 Y110.542 E746.55789
G0 F7800 X80.56 Y109.976
G1 F3600 X84.718 Y114.134 E746.65568
G0 F7800 X84.5 Y114.014
G1 F3600 X82.094 Y114.659 E746.69711
G0 F7800 X84.192 Y114.659
G1 F3600 X84.365 Y114.014 E746.70821
G0 F7800 X84.316 Y114.014
G1 F3600 X84.961 Y114.659 E746.72338
G0 F7800 X85.284 Y114.134
G1 F3600 X80.56 Y109.41 E746.83448
G0 F7800 X80.56 Y108.844
G1 F3600 X85.849 Y114.134 E746.95888
G0 F7800 X86.415 Y114.134
G1 F3600 X80.56 Y108.279 E747.09659
G0 F7800 X80.56 Y107.713
G1 F3600 X86.981 Y114.134 E747.2476
G0 F7800 X87.471 Y114.014
G1 F3600 X87.298 Y114.659 E747.2587
G0 F7800 X87.546 Y114.134
G1 F3600 X80.56 Y107.147 E747.42301
G0 F7800 X80.56 Y106.582
G1 F3600 X88.112 Y114.134 E747.60063
G0 F7800 X88.558 Y114.014
G1 F3600 X89.203 Y114.659 E747.6158
G0 F7800 X89.243 Y114.134
G1 F3600 X80.56 Y105.45 E747.82002
G0 F7800 X80.56 Y104.885
G1 F3600 X89.81 Y114.134 E748.03755
G0 F7800 X90.376 Y114.134
G1 F3600 X80.56 Y104.319 E748.2684
G0 F7800 X80.56 Y103.753
G1 F3600 X90.941 Y114.134 E748.51254
G0 F7800 X90.577 Y114.014
G1 F3600 X90.404 Y114.659 E748.52365
G0 F7800 X91.507 Y114.134
