; generated by Slic3r 1.2.9 on 2016-12-08 at 22:17:43

; external perimeters extrusion width = 0.40mm
; perimeters extrusion width = 0.42mm
; infill extrusion width = 0.42mm
; solid infill extrusion width = 0.42mm
; top infill extrusion width = 0.42mm

M107
M190 S110 ; set bed temperature
M104 S205 ; set temperature
G28 ; home all axes
G1 Z5 F5000 ; lift nozzle

M109 S205 ; wait for temperature to be reached
G21 ; set units to millimeters
G90 ; use absolute coordinates
M82 ; use absolute distances for extrusion
G92 E0
G1 Z0.400 F7800.000
G1 E-2.00000 F2400.00000
G92 E0
G1 X71.392 Y84.697 F7800.000
G1 E2.00000 F2400.00000
G1 X74.197 Y82.765 E2.40452 F1800.000
G1 X75.264 Y82.461 E2.53620
G1 X76.123 Y82.307 E2.63988
G1 X96.523 Y79.307 E5.08875
G1 X97.500 Y79.236 E5.20508
G1 X118.000 Y79.236 E7.63976
G1 X119.550 Y79.417 E7.82511
G1 X120.372 Y79.631 E7.92596 F1800.000
G1 X121.682 Y80.167 E8.09410
G1 X123.506 Y81.583 E8.36832
G1 X124.743 Y83.532 E8.64255
G1 X125.253 Y86.100 E8.95345
G1 X125.253 Y123.900 E13.44278
G1 X124.856 Y126.175 E13.71700
G1 X123.712 Y128.180 E13.99123
G1 X121.956 Y129.680 E14.26545
G1 X120.339 Y130.369 E14.47427
G1 X119.799 Y130.519 E14.54074
G1 X118.000 Y130.764 E14.75644
G1 X97.500 Y130.764 E17.19112
G1 X96.523 Y130.693 E17.30745
G1 X76.123 Y127.693 E19.75632
G1 X75.565 Y127.586 E19.82381
G1 X74.926 Y127.436 E19.90173
G1 X72.803 Y126.530 E20.17595
G1 X71.112 Y124.957 E20.45018
G1 X70.054 Y122.905 E20.72440
G1 X69.747 Y120.900 E20.96532
G1 X69.747 Y89.100 E24.74205
G1 X70.144 Y86.825 E25.01628
G1 X71.358 Y84.746 E25.30226
G1 E23.30226 F2400.00000
G92 E0
G1 X105.964 Y121.871 F7800.000
G1 E2.00000 F2400.00000
G1 X118.139 Y121.871 E3.44598 F1800.000
G1 X118.139 Y123.538 E3.64394
G1 X117.760 Y123.576 E3.68917
G1 X117.730 Y123.650 E3.69864
G1 X97.900 Y123.650 E6.05379
G1 X97.900 Y120.953 E6.37413
G1 X97.294 Y120.650 E6.45454
G1 X77.455 Y120.650 E8.81078
G1 X77.117 Y120.601 E8.85132
G1 X77.020 Y120.547 E8.86449
G1 X76.861 Y120.533 E8.88344
G1 X76.861 Y89.464 E12.57338
G1 X77.061 Y89.380 E12.59911
G1 X77.291 Y89.380 E12.62648
G1 X77.312 Y89.350 E12.63075
G1 X97.516 Y89.350 E15.03030
G1 X97.900 Y88.966 E15.09485
G1 X97.900 Y86.350 E15.40550
G1 X117.894 Y86.350 E17.78009
G1 X118.139 Y86.490 E17.81362
G1 X118.139 Y88.108 E18.00575
G1 X117.947 Y88.111 E18.02859
G1 X117.910 Y88.129 E18.03343
G1 X106.059 Y88.129 E19.44098
G1 X105.650 Y88.459 E19.50337
G1 X105.650 Y121.303 E23.40412
G1 X105.935 Y121.819 E23.47408
G1 X106.048 Y122.761 F7800.000
G1 X117.782 Y122.761 E26.42883 F1800.000
G1 X98.336 Y122.427 F7800.000
G1 X99.123 Y123.214 E26.56332 F1800.000
G1 X100.150 Y123.214 E26.68726
G1 X98.336 Y121.400 E26.99702
G1 X97.436 Y120.050 F7800.000
G1 X97.436 Y112.436 F7800.000
G1 X77.501 Y120.010 F7800.000
G1 X77.461 Y120.045 F7800.000
G1 X77.297 Y119.867 F7800.000
G1 X77.643 Y120.214 E27.05619 F1800.000
G1 X78.671 Y120.214 E27.18022
G1 X77.297 Y118.841 E27.41479
G1 X77.297 Y117.814 E27.53872
G1 X79.697 Y120.214 E27.94856
G1 X80.724 Y120.214 E28.07250
G1 X77.297 Y116.787 E28.65761
G1 X77.297 Y115.761 E28.78155
G1 X81.751 Y120.214 E29.54193
G1 X82.777 Y120.214 E29.66587
G1 X77.297 Y114.734 E30.60152
G1 X77.297 Y113.707 E30.72546
G1 X83.804 Y120.214 E31.83639
G1 X84.830 Y120.214 E31.96032
G1 X77.297 Y112.681 E33.24652
G1 X77.297 Y111.654 E33.37046
G1 X85.857 Y120.214 E34.83193
G1 X86.884 Y120.214 E34.95587
G1 X77.297 Y110.628 E36.59261
G1 X77.297 Y109.601 E36.71655
G1 X87.910 Y120.214 E38.52856
G1 X88.937 Y120.214 E38.65250
G1 X77.297 Y108.574 E40.63978
G1 X77.297 Y107.548 E40.76372
G1 X89.964 Y120.214 E42.92627
G1 X90.990 Y120.214 E43.05021
G1 X77.297 Y106.521 E45.38804
G1 X77.297 Y105.495 E45.51198
G1 X92.017 Y120.214 E48.02508
G1 X93.043 Y120.214 E48.14901
G1 X77.297 Y104.468 E50.83738
G1 X77.297 Y103.441 E50.96132
G1 X94.070 Y120.214 E53.82496
G1 X95.097 Y120.214 E53.94890
G1 X77.297 Y102.415 E56.98782
G1 X77.297 Y101.388 E57.11175
G1 X96.123 Y120.214 E60.32594
G1 X97.150 Y120.214 E60.44987
G1 X77.297 Y100.361 E63.83933
G1 X77.297 Y99.335 E63.96327
G1 X101.177 Y123.214 E68.04018
G1 X102.203 Y123.214 E68.16412
G1 X77.297 Y98.308 E72.41630
G1 X77.297 Y97.282 E72.54024
G1 X103.230 Y123.214 E76.96769
G1 X104.256 Y123.214 E77.09163
G1 X77.297 Y96.255 E81.69436
G1 X77.297 Y95.228 E81.81829
G1 X105.283 Y123.214 E86.59629
G1 X105.612 Y122.517 E86.68938
G1 X77.297 Y94.202 E91.52362
G1 X77.297 Y93.175 E91.64755
G1 X105.214 Y121.093 E96.41385
G1 X105.214 Y120.066 E96.53779
G1 X77.297 Y92.148 E101.30409
G1 X77.297 Y91.122 E101.42803
G1 X105.214 Y119.040 E106.19433
G1 X105.214 Y118.013 E106.31827
G1 X77.297 Y90.095 E111.08457
G1 X78.014 Y89.786 E111.17885
G1 X105.214 Y116.986 E115.82276
G1 X105.214 Y115.960 E115.94669
G1 X79.040 Y89.786 E120.41533
G1 X80.067 Y89.786 E120.53926
G1 X105.214 Y114.933 E124.83263
G1 X105.214 Y113.906 E124.95657
G1 X81.094 Y89.786 E129.07466
G1 X82.120 Y89.786 E129.19860
G1 X105.214 Y112.880 E133.14142
G1 X105.214 Y111.853 E133.26535
G1 X83.147 Y89.786 E137.03290
G1 X84.173 Y89.786 E137.15684
G1 X105.214 Y110.827 E140.74912
G1 X105.214 Y109.800 E140.87305
G1 X85.200 Y89.786 E144.29006
G1 X86.227 Y89.786 E144.41400
G1 X105.214 Y108.773 E147.65573
G1 X105.214 Y107.747 E147.77967
G1 X87.253 Y89.786 E150.84613
G1 X88.280 Y89.786 E150.97007
G1 X105.214 Y106.720 E153.86126
G1 X105.214 Y105.693 E153.98520
G1 X89.307 Y89.786 E156.70112
G1 X90.333 Y89.786 E156.82505
G1 X105.214 Y104.667 E159.36570
G1 X105.214 Y103.640 E159.48964
G1 X91.360 Y89.786 E161.85502
G1 X92.386 Y89.786 E161.97895
G1 X105.214 Y102.614 E164.16906
G1 X105.214 Y101.587 E164.29300
G1 X93.413 Y89.786 E166.30783
G1 X94.440 Y89.786 E166.43177
G1 X105.214 Y100.560 E168.27133
G1 X105.214 Y99.534 E168.39526
G1 X95.466 Y89.786 E170.05956
G1 X96.493 Y89.786 E170.18349
G1 X105.214 Y98.507 E171.67251
G1 X105.214 Y97.481 E171.79645
G1 X97.519 Y89.786 E173.11020
G1 X98.077 Y89.316 E173.19815
G1 X105.214 Y96.454 E174.41676
G1 X105.214 Y95.427 E174.54070
G1 X98.336 Y88.548 E175.71513
G1 X98.336 Y87.522 E175.83906
G1 X105.214 Y94.401 E177.01349
G1 X105.214 Y93.374 E177.13742
G1 X98.626 Y86.786 E178.26227
G1 X99.653 Y86.786 E178.38620
G1 X105.214 Y92.347 E179.33577
G1 X105.214 Y91.321 E179.45971
G1 X100.679 Y86.786 E180.23401
G1 X101.706 Y86.786 E180.35795
G1 X105.214 Y90.294 E180.95697
G1 X105.214 Y89.268 E181.08091
G1 X102.732 Y86.786 E181.50467
G1 X103.759 Y86.786 E181.62860
G1 X105.264 Y88.290 E181.88551
G1 X105.832 Y87.831 E181.97364
G1 X104.786 Y86.786 E182.15220
G1 X105.812 Y86.786 E182.27613
G1 X106.155 Y87.129 E182.33469
G1 X106.591 Y87.239 F7800.000
G1 X117.782 Y87.239 E185.15274 F1800.000
M104 S200 ; set temperature
M140 S100 ; wait for bed temperature to be reached
G1 Z0.800 F7800.000
G1 E183.15274 F2400.00000
G92 E0
G1 X106.082 Y121.671 F7800.000
G1 E2.00000 F2400.00000
G1 X118.739 Y121.671 E2.66127 F1800.000
G1 X119.761 Y121.691 E2.71467 F3600.000
G1 X119.761 Y123.776 E2.82357
G1 X119.345 Y123.800 E2.84534
G1 X119.251 Y123.850 E2.85092
G1 X118.739 Y123.850 E2.87764
G1 X97.700 Y123.850 E3.97683 F1800.000
G1 X97.700 Y121.076 E4.12174
G1 X97.247 Y120.850 E4.14818
G1 X76.261 Y120.850 E5.24459
G1 X75.949 Y120.850 E5.26092 F3600.000
G1 X75.853 Y120.800 E5.26659
G1 X75.332 Y120.773 E5.29382
G1 X75.239 Y120.747 E5.29886
G1 X75.239 Y89.150 E6.94966
G1 X76.261 Y89.150 E7.00307
G1 X97.433 Y89.150 E8.10918 F1800.000
G1 X97.700 Y88.883 E8.12892
G1 X97.700 Y86.150 E8.27169
G1 X118.739 Y86.161 E9.37088
G1 X119.761 Y86.162 E9.42427 F3600.000
G1 X119.761 Y88.309 E9.53643
G1 X118.739 Y88.329 E9.58983
G1 X106.129 Y88.329 E10.24864 F1800.000
G1 X105.850 Y88.554 E10.26740
G1 X105.850 Y121.252 E11.97566
G1 X106.053 Y121.619 E11.99758
G1 X105.890 Y121.661 F7800.000
G1 X103.890 Y123.661 E12.15572 F1200.000
G1 X103.415 Y123.661 E12.18232
G1 X105.721 Y121.355 E12.36468
G1 X105.661 Y120.939 E12.38819
G1 X102.939 Y123.661 E12.60346
G1 X102.464 Y123.661 E12.63005
G1 X105.661 Y120.464 E12.88294
G1 X105.661 Y119.988 E12.90953
G1 X101.988 Y123.661 E13.20002
G1 X101.512 Y123.661 E13.22662
G1 X105.661 Y119.512 E13.55472
G1 X105.661 Y119.037 E13.58131
G1 X101.037 Y123.661 E13.94702
G1 X100.561 Y123.661 E13.97362
G1 X105.661 Y118.561 E14.37694
G1 X105.661 Y118.086 E14.40353
G1 X100.086 Y123.661 E14.84446
G1 X99.610 Y123.661 E14.87105
G1 X105.661 Y117.610 E15.34959
G1 X105.661 Y117.135 E15.37619
G1 X99.135 Y123.661 E15.89233
G1 X98.659 Y123.661 E15.91893
G1 X105.661 Y116.659 E16.47268
G1 X105.661 Y116.184 E16.49928
G1 X98.184 Y123.661 E17.09064
G1 X97.889 Y123.480 E17.10998
G1 X105.661 Y115.708 E17.72465
G1 X105.661 Y115.232 E17.75124
G1 X97.889 Y123.005 E18.36591
G1 X97.889 Y122.529 E18.39250
G1 X105.661 Y114.757 E19.00717
G1 X105.661 Y114.281 E19.03376
G1 X97.889 Y122.054 E19.64843
G1 X97.889 Y121.578 E19.67503
G1 X105.661 Y113.806 E20.28969
G1 X105.661 Y113.330 E20.31629
G1 X97.889 Y121.102 E20.93096
G1 X97.649 Y120.867 F7800.000
G1 X105.661 Y112.855 E21.56460 F1200.000
G1 X105.661 Y112.379 E21.59119
G1 X97.332 Y120.708 E22.24990
G1 X96.904 Y120.661 E22.27401
G1 X105.661 Y111.904 E22.96660
G1 X105.661 Y111.428 E22.99319
G1 X96.428 Y120.661 E23.72340
G1 X95.952 Y120.661 E23.74999
G1 X105.661 Y110.952 E24.51780
G1 X105.661 Y110.477 E24.54440
G1 X95.477 Y120.661 E25.34982
G1 X95.001 Y120.661 E25.37641
G1 X105.661 Y110.001 E26.21945
G1 X105.661 Y109.526 E26.24604
G1 X94.526 Y120.661 E27.12668
G1 X94.050 Y120.661 E27.15327
G1 X105.661 Y109.050 E28.07152
G1 X105.661 Y108.575 E28.09812
G1 X93.575 Y120.661 E29.05398
G1 X93.099 Y120.661 E29.08057
G1 X105.661 Y108.099 E30.07404
G1 X105.661 Y107.624 E30.10063
G1 X92.624 Y120.661 E31.13171
G1 X92.148 Y120.661 E31.15831
G1 X105.661 Y107.148 E32.22699
G1 X105.661 Y106.672 E32.25359
G1 X91.672 Y120.661 E33.35988
G1 X91.197 Y120.661 E33.38648
G1 X105.661 Y106.197 E34.53038
G1 X105.661 Y105.721 E34.55698
G1 X90.721 Y120.661 E35.73849
G1 X90.246 Y120.661 E35.76508
G1 X105.661 Y105.246 E36.98421
G1 X105.661 Y104.770 E37.01080
G1 X89.770 Y120.661 E38.26754
G1 X89.295 Y120.661 E38.29413
G1 X105.661 Y104.295 E39.58847
G1 X105.661 Y103.819 E39.61507
G1 X88.819 Y120.661 E40.94702
G1 X88.344 Y120.661 E40.97361
G1 X105.661 Y103.344 E42.34317
G1 X105.661 Y102.868 E42.36977
G1 X87.868 Y120.661 E43.77694
G1 X87.392 Y120.661 E43.80353
G1 X105.661 Y102.392 E45.24831
G1 X105.661 Y101.917 E45.27491
G1 X86.917 Y120.661 E46.75729
G1 X86.441 Y120.661 E46.78389
G1 X105.661 Y101.441 E48.30389
G1 X105.661 Y100.966 E48.33048
G1 X85.966 Y120.661 E49.88809
G1 X85.490 Y120.661 E49.91468
G1 X105.661 Y100.490 E51.50990
G1 X105.661 Y100.015 E51.53649
G1 X85.015 Y120.661 E53.16932
G1 X84.539 Y120.661 E53.19591
G1 X105.661 Y99.539 E54.86635
G1 X105.661 Y99.064 E54.89294
G1 X84.064 Y120.661 E56.60099
G1 X83.588 Y120.661 E56.62758
G1 X105.661 Y98.588 E58.37323
G1 X105.661 Y98.112 E58.39983
G1 X83.112 Y120.661 E60.18309
G1 X82.637 Y120.661 E60.20968
G1 X105.661 Y97.637 E62.03056
G1 X105.661 Y97.161 E62.05715
G1 X82.161 Y120.661 E63.91563
G1 X81.686 Y120.661 E63.94223
G1 X105.661 Y96.686 E65.83832
G1 X105.661 Y96.210 E65.86491
G1 X81.210 Y120.661 E67.79861
G1 X80.735 Y120.661 E67.82521
G1 X105.661 Y95.735 E69.79651
G1 X105.661 Y95.259 E69.82311
G1 X80.259 Y120.661 E71.83203
G1 X79.784 Y120.661 E71.85862
G1 X105.661 Y94.784 E73.90515
G1 X105.661 Y94.308 E73.93174
G1 X79.537 Y120.432 E75.99773
G1 X79.537 Y119.956 E76.02433
G1 X105.661 Y93.832 E78.09031
G1 X105.661 Y93.357 E78.11691
G1 X79.537 Y119.481 E80.18290
G1 X79.537 Y119.005 E80.20949
G1 X105.661 Y92.881 E82.27548
G1 X105.661 Y92.406 E82.30207
G1 X79.537 Y118.529 E84.36806
G1 X79.537 Y118.054 E84.39466
G1 X105.661 Y91.930 E86.46064
G1 X105.661 Y91.455 E86.48724
G1 X79.537 Y117.578 E88.55323
G1 X79.537 Y117.103 E88.57982
G1 X105.661 Y90.979 E90.64581
G1 X105.661 Y90.504 E90.67240
G1 X79.537 Y116.627 E92.73839
G1 X79.537 Y116.152 E92.76499
G1 X105.661 Y90.028 E94.83097
G1 X105.661 Y89.552 E94.85757
G1 X79.537 Y115.676 E96.92356
G1 X79.537 Y115.201 E96.95015
G1 X105.661 Y89.077 E99.01614
G1 X105.661 Y88.601 E99.04273
G1 X79.537 Y114.725 E101.10872
G1 X79.537 Y114.249 E101.13532
G1 X107.443 Y86.344 E103.34222
G1 X106.968 Y86.344 E103.36880
G1 X79.537 Y113.774 E105.53811
G1 X79.537 Y113.298 E105.56470
G1 X106.492 Y86.344 E107.69642
G1 X106.017 Y86.343 E107.72300
G1 X79.537 Y112.823 E109.81713
G1 X79.537 Y112.347 E109.84372
G1 X105.542 Y86.343 E111.90026
G1 X105.066 Y86.343 E111.92684
G1 X79.537 Y111.872 E113.94580
G1 X79.537 Y111.396 E113.97239
G1 X104.591 Y86.343 E115.95375
G1 X104.116 Y86.342 E115.98033
G1 X79.537 Y110.921 E117.92410
G1 X79.537 Y110.445 E117.95070
G1 X103.640 Y86.342 E119.85688
G1 X103.165 Y86.342 E119.88346
G1 X79.537 Y109.969 E121.75205
G1 X79.537 Y109.494 E121.77865
G1 X102.690 Y86.342 E123.60965
G1 X102.215 Y86.341 E123.63623
G1 X79.537 Y109.018 E125.42964
G1 X79.537 Y108.543 E125.45624
G1 X101.739 Y86.341 E127.21206
G1 X101.264 Y86.341 E127.23864
G1 X79.537 Y108.067 E128.95687
G1 X79.537 Y107.592 E128.98347
G1 X100.789 Y86.341 E130.66411
G1 X100.313 Y86.340 E130.69069
G1 X97.889 Y88.765 E130.88243
G1 X97.889 Y88.289 E130.90902
G1 X99.838 Y86.340 E131.06317
G1 X99.363 Y86.340 E131.08975
G1 X97.889 Y87.814 E131.20630
G1 X97.889 Y87.338 E131.23290
G1 X98.887 Y86.340 E131.31186
G1 X98.412 Y86.339 E131.33844
G1 X97.889 Y86.862 E131.37982
G1 X98.500 Y89.214 F7800.000
G1 X98.500 Y89.214 F7800.000
G1 X97.315 Y89.339 F7800.000
G1 X79.537 Y107.116 E132.78573 F1200.000
G1 X79.537 Y106.641 E132.81232
G1 X96.839 Y89.339 E134.18063
G1 X96.364 Y89.339 E134.20722
G1 X79.537 Y106.165 E135.53792
G1 X79.537 Y105.689 E135.56451
G1 X95.888 Y89.339 E136.85759
G1 X95.412 Y89.339 E136.88419
G1 X79.537 Y105.214 E138.13966
G1 X79.537 Y104.738 E138.16626
G1 X94.937 Y89.339 E139.38413
G1 X94.461 Y89.339 E139.41072
G1 X79.537 Y104.263 E140.59098
G1 X79.537 Y103.787 E140.61757
G1 X93.986 Y89.339 E141.76022
G1 X93.510 Y89.339 E141.78681
G1 X79.537 Y103.312 E142.89185
G1 X79.537 Y102.836 E142.91845
G1 X93.035 Y89.339 E143.98588
G1 X92.559 Y89.339 E144.01247
G1 X79.537 Y102.361 E145.04229
G1 X79.537 Y101.885 E145.06888
G1 X92.084 Y89.339 E146.06109
G1 X91.608 Y89.339 E146.08769
G1 X79.537 Y101.409 E147.04229
G1 X79.537 Y100.934 E147.06888
G1 X91.133 Y89.339 E147.98588
G1 X90.657 Y89.339 E148.01247
G1 X79.537 Y100.458 E148.89185
G1 X79.537 Y99.983 E148.91845
G1 X90.181 Y89.339 E149.76022
G1 X89.706 Y89.339 E149.78682
G1 X79.537 Y99.507 E150.59098
G1 X79.537 Y99.032 E150.61758
G1 X89.230 Y89.339 E151.38413
G1 X88.755 Y89.339 E151.41072
G1 X79.537 Y98.556 E152.13967
G1 X79.537 Y98.081 E152.16626
G1 X88.279 Y89.339 E152.85760
G1 X87.804 Y89.339 E152.88420
G1 X79.537 Y97.605 E153.53792
G1 X79.537 Y97.129 E153.56452
G1 X87.328 Y89.339 E154.18064
G1 X86.853 Y89.339 E154.20723
G1 X79.537 Y96.654 E154.78574
G1 X79.537 Y96.178 E154.81233
G1 X86.377 Y89.339 E155.35323
G1 X85.901 Y89.339 E155.37983
G1 X79.537 Y95.703 E155.88312
G1 X79.537 Y95.227 E155.90971
G1 X85.426 Y89.339 E156.37539
G1 X84.950 Y89.339 E156.40199
G1 X79.537 Y94.752 E156.83006
G1 X79.537 Y94.276 E156.85665
G1 X84.475 Y89.339 E157.24712
G1 X83.999 Y89.339 E157.27371
G1 X79.537 Y93.801 E157.62656
G1 X79.537 Y93.325 E157.65316
G1 X83.524 Y89.339 E157.96840
G1 X83.048 Y89.339 E157.99500
G1 X79.537 Y92.849 E158.27263
G1 X79.537 Y92.374 E158.29923
G1 X82.573 Y89.339 E158.53925
G1 X82.097 Y89.339 E158.56585
G1 X79.537 Y91.898 E158.76826
G1 X79.537 Y91.423 E158.79486
G1 X81.621 Y89.339 E158.95966
G1 X81.146 Y89.339 E158.98626
G1 X79.537 Y90.947 E159.11346
G1 X79.537 Y90.472 E159.14005
G1 X80.670 Y89.339 E159.22964
G1 X80.195 Y89.339 E159.25623
G1 X79.537 Y89.996 E159.30821
G1 X79.537 Y89.521 E159.33481
G1 X79.719 Y89.339 E159.34918
G1 X97.764 Y89.950 F7800.000
G1 X101.213 Y91.927 F7800.000
G1 X103.828 Y88.172 F7800.000
G1 X105.050 Y88.172 F7800.000
G1 X106.123 Y88.140 F7800.000
G1 X107.918 Y86.344 E159.49118 F1200.000
G1 X108.393 Y86.345 E159.51776
G1 X106.598 Y88.140 E159.65974
G1 X107.074 Y88.140 E159.68634
G1 X108.869 Y86.345 E159.82830
G1 X109.344 Y86.345 E159.85488
G1 X107.549 Y88.140 E159.99683
G1 X108.025 Y88.140 E160.02342
G1 X109.819 Y86.345 E160.16534
