; generated by Slic3r 1.2.9 on 2016-12-09 at 22:34:36

; external perimeters extrusion width = 0.40mm
; perimeters extrusion width = 0.67mm
; infill extrusion width = 0.67mm
; solid infill extrusion width = 0.67mm
; top infill extrusion width = 0.67mm

M107
M190 S120 ; set bed temperature
M104 S215 ; set temperature
G28 ; home all axes
G1 Z5 F5000 ; lift nozzle

M109 S215 ; wait for temperature to be reached
G21 ; set units to millimeters
G90 ; use absolute coordinates
M82 ; use absolute distances for extrusion
G92 E0
G1 Z0.400 F7800.000
G1 E-2.00000 F2400.00000
G92 E0
G1 X85.307 Y91.534 F7800.000
G1 E2.00000 F2400.00000
G1 X86.032 Y90.905 E2.08730 F1800.000
G1 X96.371 Y83.171 E3.26138
G1 X97.088 Y82.700 E3.33931
G1 X98.813 Y81.966 E3.50978
G1 X101.112 Y81.758 E3.71973
G1 X103.347 Y82.341 E3.92969
G1 X105.306 Y83.701 E4.14658 F1800.000
G1 X118.827 Y97.222 E5.88524
G1 X120.154 Y99.111 E6.09519
G1 X120.763 Y101.338 E6.30514
G1 X120.563 Y103.713 E6.52192
G1 X120.104 Y104.935 E6.64051
G1 X119.393 Y106.111 E6.76554
G1 X111.582 Y116.485 E7.94629
G1 X110.966 Y117.193 E8.03166
G1 X101.797 Y126.358 E9.21050
G1 X100.558 Y127.299 E9.35194
G1 X98.895 Y128.025 E9.51696
G1 X98.640 Y128.093 E9.54091
G1 X96.337 Y128.259 E9.75087
G1 X94.114 Y127.634 E9.96082
G1 X92.267 Y126.327 E10.16659
G1 X76.202 Y110.261 E12.23255
G1 X74.874 Y108.372 E12.44251
G1 X74.365 Y106.826 E12.59044
G1 X74.557 Y103.453 E12.89767
G1 X74.589 Y103.354 E12.90714
G1 X75.850 Y101.083 E13.14330
G1 X76.553 Y100.288 E13.23983
G1 X85.264 Y91.576 E14.36010
G1 E12.36010 F2400.00000
G92 E0
G1 X90.769 Y99.582 F7800.000
G1 E2.00000 F2400.00000
G1 X92.442 Y99.025 E2.16029 F1800.000
G1 X100.495 Y90.971 E3.19593
G1 X111.529 Y102.005 E4.61474
G1 X103.181 Y110.352 E5.68818
G1 X103.181 Y111.994 E5.83748
G1 X103.633 Y112.446 E5.89558
G1 X102.591 Y113.488 E6.02956
G1 X89.012 Y99.909 E7.77571
G1 X90.054 Y98.867 E7.90968
G1 X90.727 Y99.540 E7.99621
G1 X90.962 Y98.765 F7800.000
G1 X92.056 Y98.401 E8.10104 F1800.000
G1 X100.495 Y89.961 E9.18629
G1 X112.539 Y102.005 E10.73498
G1 X103.895 Y110.648 E11.84646
G1 X103.895 Y111.698 E11.94196
G1 X104.643 Y112.446 E12.03810
G1 X102.591 Y114.498 E12.30195
G1 X88.220 Y100.127 E14.14995
G1 X87.882 Y100.029 E14.18198
G1 X90.054 Y97.857 E14.46133
G1 X90.920 Y98.723 E14.57267
G1 X91.155 Y97.948 F7800.000
G1 X91.670 Y97.777 E14.62203 F1800.000
G1 X100.191 Y89.256 E15.71775
G1 X100.228 Y89.245 E15.72127
G1 X100.519 Y88.975 E15.75736
G1 X113.549 Y102.005 E17.43284
G1 X104.609 Y110.944 E18.58236
G1 X104.609 Y111.402 E18.62406
G1 X105.653 Y112.446 E18.75825
G1 X97.050 Y121.048 E19.86449
G1 X96.522 Y120.520 E19.93244
G1 X101.816 Y115.226 E20.61326
G1 X101.864 Y114.780 E20.65401
G1 X87.846 Y100.762 E22.45662
G1 X87.341 Y100.617 E22.50437
G1 X81.980 Y105.978 E23.19372
G1 X81.474 Y105.470 E23.25895
G1 X81.774 Y105.128 E23.30030
G1 X90.054 Y96.847 E24.36512
G1 X91.113 Y97.906 E24.50126
G1 X91.339 Y98.304 F7800.000
G1 X89.719 Y99.757 F7800.000
G1 X102.743 Y112.781 E26.22427 F1800.000
G1 X102.746 Y111.745 E26.32120
G1 X90.942 Y99.941 E27.88278
G1 X91.722 Y99.682 E27.95963
G1 X102.746 Y110.706 E29.41810
G1 X103.043 Y109.963 E29.49288
G1 X92.501 Y99.422 E30.88754
G1 X93.056 Y98.938 E30.95644
G1 X103.562 Y109.444 E32.34641
G1 X104.082 Y108.924 E32.41515
G1 X93.576 Y98.418 E33.80512
G1 X94.095 Y97.899 E33.87386
G1 X104.601 Y108.405 E35.26383
G1 X105.121 Y107.885 E35.33257
G1 X94.615 Y97.379 E36.72254
G1 X95.134 Y96.860 E36.79128
G1 X105.640 Y107.366 E38.18125
G1 X106.160 Y106.846 E38.24999
G1 X95.654 Y96.340 E39.63996
G1 X96.173 Y95.821 E39.70870
G1 X106.679 Y106.327 E41.09867
G1 X107.199 Y105.807 E41.16741
G1 X96.693 Y95.301 E42.55738
G1 X97.213 Y94.781 E42.62612
G1 X107.719 Y105.287 E44.01609
G1 X108.238 Y104.768 E44.08482
G1 X97.732 Y94.262 E45.47480
G1 X98.252 Y93.742 E45.54353
G1 X108.758 Y104.248 E46.93351
G1 X109.277 Y103.729 E47.00224
G1 X98.771 Y93.223 E48.39222
G1 X99.291 Y92.703 E48.46095
G1 X109.797 Y103.209 E49.85093
G1 X110.316 Y102.690 E49.91966
G1 X99.810 Y92.184 E51.30964
G1 X100.330 Y91.664 E51.37837
G1 X110.836 Y102.170 E52.76835
M104 S205 ; set temperature
M140 S105 ; wait for bed temperature to be reached
G1 Z0.600 F7800.000
G1 X90.907 Y99.002 F7800.000
G1 X92.168 Y98.582 E52.82153 F3600.000
G1 X101.105 Y89.645 E53.32707
G1 X112.855 Y101.395 E53.99179
G1 X103.688 Y110.562 E54.51034
G1 X103.688 Y111.784 E54.55921
G1 X104.350 Y112.446 E54.59665
G1 X102.591 Y114.205 E54.69617
G1 X88.295 Y99.909 E55.50489
G1 X90.054 Y98.150 E55.60441
G1 X90.864 Y98.960 E55.65023
G1 X91.076 Y98.283 F7800.000
G1 X91.828 Y98.032 E55.68194 F3600.000
G1 X101.105 Y88.756 E56.20668
G1 X113.744 Y101.395 E56.92167
G1 X104.317 Y110.822 E57.45494
G1 X104.317 Y111.524 E57.48299
G1 X105.239 Y112.446 E57.53516
G1 X102.069 Y115.615 E57.71446
G1 X102.169 Y114.672 E57.75241
G1 X87.999 Y100.502 E58.55399
G1 X87.078 Y100.237 E58.59232
G1 X90.054 Y97.261 E58.76065
G1 X91.034 Y98.241 E58.81607
G1 X91.209 Y97.719 F7800.000
G1 X91.562 Y97.602 E58.82453 F1800.000
G1 X100.778 Y88.386 E59.12081
G1 X100.979 Y88.185 E59.13214 F3600.000
G1 X101.172 Y88.127 E59.14023
G1 X114.441 Y101.395 E59.89080
G1 X114.114 Y101.722 E59.90926
G1 X104.809 Y111.027 E60.20839 F1800.000
G1 X104.809 Y111.320 E60.21505
G1 X105.936 Y112.446 E60.25126
G1 X96.767 Y121.614 E60.54601
G1 X96.441 Y121.940 E60.56445 F3600.000
G1 X95.630 Y121.129 E60.61034
G1 X95.956 Y120.803 E60.62878
G1 X101.625 Y115.134 E60.81102 F1800.000
G1 X101.655 Y114.854 E60.81743
G1 X87.741 Y100.940 E61.26474
G1 X87.399 Y100.842 E61.27282
G1 X81.697 Y106.544 E61.45613
G1 X81.371 Y106.870 E61.47457 F3600.000
G1 X80.617 Y106.115 E61.51725
G1 X80.634 Y105.984 E61.52253
G1 X80.886 Y105.733 E61.53678
G1 X90.054 Y96.564 E61.83153 F1800.000
G1 X91.167 Y97.677 E61.86730
G1 X91.380 Y98.050 F7800.000
G1 X91.511 Y99.253 F7800.000
G1 X89.820 Y100.945 E61.96450 F1200.000
G1 X89.368 Y100.493 E61.99044
G1 X90.653 Y99.209 E62.06428
G1 X90.202 Y98.757 E62.09022
G1 X88.917 Y100.042 E62.16405
G1 X101.319 Y90.348 F7800.000
G1 X90.271 Y101.396 E62.79899 F1200.000
G1 X90.722 Y101.848 E62.82493
G1 X101.771 Y90.799 E63.45987
G1 X102.222 Y91.251 E63.48581
G1 X91.174 Y102.299 E64.12075
G1 X91.625 Y102.750 E64.14669
G1 X102.673 Y91.702 E64.78163
G1 X103.125 Y92.153 E64.80757
G1 X92.076 Y103.202 E65.44251
G1 X92.528 Y103.653 E65.46845
G1 X103.576 Y92.605 E66.10339
G1 X104.027 Y93.056 E66.12933
G1 X92.979 Y104.104 E66.76427
G1 X93.431 Y104.556 E66.79021
G1 X104.479 Y93.508 E67.42515
G1 X104.930 Y93.959 E67.45109
G1 X93.882 Y105.007 E68.08603
G1 X94.333 Y105.459 E68.11197
G1 X105.381 Y94.410 E68.74691
G1 X105.833 Y94.862 E68.77285
G1 X94.785 Y105.910 E69.40779
G1 X95.236 Y106.361 E69.43373
G1 X106.284 Y95.313 E70.06867
G1 X106.736 Y95.764 E70.09461
G1 X95.687 Y106.813 E70.72955
G1 X96.139 Y107.264 E70.75549
G1 X107.187 Y96.216 E71.39043
G1 X107.638 Y96.667 E71.41637
G1 X96.590 Y107.715 E72.05131
G1 X97.041 Y108.167 E72.07725
G1 X108.090 Y97.118 E72.71219
G1 X108.541 Y97.570 E72.73813
G1 X97.493 Y108.618 E73.37307
G1 X97.944 Y109.069 E73.39901
G1 X108.992 Y98.021 E74.03395
G1 X109.444 Y98.473 E74.05989
G1 X98.396 Y109.521 E74.69483
G1 X98.847 Y109.972 E74.72077
G1 X109.895 Y98.924 E75.35571
G1 X110.347 Y99.375 E75.38165
G1 X99.298 Y110.424 E76.01659
G1 X99.750 Y110.875 E76.04253
G1 X110.798 Y99.827 E76.67747
G1 X111.249 Y100.278 E76.70341
G1 X100.201 Y111.326 E77.33835
G1 X100.652 Y111.778 E77.36429
G1 X111.701 Y100.729 E77.99923
G1 X112.152 Y101.181 E78.02517
G1 X101.104 Y112.229 E78.66011
G1 X102.458 Y113.583 F7800.000
G1 X103.743 Y112.298 E78.73394 F1200.000
G1 X103.308 Y111.831 E78.75990
G1 X102.006 Y113.132 E78.83468
G1 X101.555 Y112.680 E78.86062
G1 X103.308 Y110.928 E78.96134
G1 X101.806 Y115.765 F7800.000
G1 X96.210 Y121.360 E79.61605 F1200.000
G1 E77.61605 F2400.00000
G92 E0
G1 X102.033 Y114.100 F7800.000
G1 X101.318 Y101.395 F7800.000
G1 X91.677 Y100.686 F7800.000
G1 X88.480 Y99.909 F7800.000
G1 X88.160 Y100.228 F7800.000
G1 X81.140 Y106.290 F7800.000
G1 E2.00000 F2400.00000
G1 X86.968 Y100.461 E2.68195 F1200.000
G1 Z0.800 F7800.000
G1 X90.907 Y99.002 F7800.000
G1 X92.168 Y98.582 E2.73513 F3600.000
G1 X101.415 Y89.334 E3.25824
G1 X113.159 Y101.078 E3.92260
G1 X103.688 Y110.563 E4.45874
G1 X103.688 Y111.784 E4.50759
G1 X104.350 Y112.445 E4.54500
G1 X102.589 Y114.203 E4.64452
G1 X88.295 Y99.909 E5.45313
G1 X90.054 Y98.150 E5.55265
G1 X90.864 Y98.960 E5.59846
G1 X91.076 Y98.283 F7800.000
G1 X91.828 Y98.032 E5.63018 F3600.000
G1 X101.415 Y88.446 E6.17249
G1 X114.048 Y101.078 E6.88709
G1 X104.317 Y110.823 E7.43795
G1 X104.317 Y111.524 E7.46598
G1 X105.239 Y112.445 E7.51813
G1 X102.070 Y115.610 E7.69726
G1 X102.169 Y114.672 E7.73498
G1 X87.999 Y100.502 E8.53656
G1 X87.078 Y100.237 E8.57489
G1 X90.054 Y97.261 E8.74322
G1 X91.034 Y98.241 E8.79864
G1 X91.209 Y97.719 F7800.000
G1 X91.562 Y97.602 E8.80709 F1800.000
G1 X101.387 Y87.777 E9.12296
G1 X101.415 Y87.749 E9.12453 F3600.000
G1 X114.744 Y101.078 E9.87854
G1 X114.717 Y101.106 E9.88011
G1 X104.809 Y111.027 E10.19883 F1800.000
G1 X104.809 Y111.320 E10.20549
G1 X105.936 Y112.446 E10.24169
G1 X96.152 Y122.216 E10.55601
G1 X95.337 Y121.422 E10.60151 F3600.000
G1 X95.347 Y121.412 E10.60209
G1 X101.625 Y115.134 E10.80390 F1800.000
G1 X101.655 Y114.854 E10.81031
G1 X87.741 Y100.940 E11.25762
G1 X87.399 Y100.842 E11.26570
G1 X81.088 Y107.153 E11.46859
G1 X81.078 Y107.163 E11.46918 F3600.000
G1 X80.267 Y106.352 E11.51507
G1 X80.277 Y106.341 E11.51566
G1 X90.054 Y96.564 E11.82998 F1800.000
G1 X91.167 Y97.677 E11.86575
G1 X91.380 Y98.050 F7800.000
G1 X86.968 Y100.461 F7800.000
G1 X80.846 Y106.583 E12.58201 F1200.000
G1 X87.664 Y100.086 F7800.000
G1 X88.480 Y99.909 F7800.000
G1 X90.068 Y99.909 F7800.000
G1 X91.677 Y100.686 F7800.000
G1 X90.832 Y101.661 F7800.000
G1 X90.791 Y101.650 E12.58370 F4800.000
G1 X90.843 Y101.701 E12.58662
G1 X90.832 Y101.661 E12.58831
G1 X101.344 Y104.477 F7800.000
G1 X97.489 Y103.445 E12.74792 F4800.000
G1 X95.437 Y105.497 E12.86401
G1 X94.345 Y105.204 E12.90922
G1 X95.234 Y106.093 E12.95949
G1 X95.275 Y106.104 E12.96118
G1 X95.286 Y106.144 E12.96286
G1 X98.788 Y109.647 E13.16100
G1 X99.880 Y109.940 E13.20622
G1 X101.932 Y107.887 E13.32231
G1 X104.830 Y108.664 E13.44230
G1 X105.342 Y108.151 E13.47131
G1 X102.095 Y107.281 E13.60579
G1 X101.344 Y104.477 E13.72187
G1 X99.718 Y110.546 F7800.000
G1 X99.677 Y110.536 E13.72356 F4800.000
G1 X99.729 Y110.587 E13.72648
G1 X99.718 Y110.546 E13.72816
G1 X102.970 Y98.408 F7800.000
G1 X99.116 Y97.375 E13.88778 F4800.000
G1 X97.064 Y99.428 E14.00386
G1 X93.209 Y98.395 E14.16348
G1 X93.188 Y98.316 E14.16672
G1 X92.456 Y99.048 E14.20812
G1 X90.762 Y99.613 E14.27955
G1 X90.054 Y98.905 E14.31961
G1 X89.050 Y99.909 E14.37640
G1 X89.903 Y100.761 E14.42462
G1 X90.994 Y101.054 E14.46983
G1 X93.047 Y99.002 E14.58592
G1 X96.901 Y100.034 E14.74553
G1 X97.652 Y102.838 E14.86162
G1 X101.506 Y103.870 E15.02123
G1 X103.559 Y101.818 E15.13731
G1 X107.413 Y102.851 E15.29693
G1 X108.094 Y105.395 E15.40226
G1 X112.404 Y101.079 E15.64624
G1 X112.210 Y100.884 E15.65724
G1 X109.628 Y100.192 E15.76418
G1 X107.576 Y102.244 E15.88027
G1 X103.721 Y101.211 E16.03988
G1 X102.970 Y98.408 E16.15596
G1 X103.324 Y91.998 F7800.000
G1 X100.742 Y91.306 E16.26290 F4800.000
G1 X98.690 Y93.358 E16.37899
G1 X98.261 Y93.244 E16.39674
G1 X97.748 Y93.757 E16.42576
G1 X98.527 Y93.965 E16.45803
G1 X99.278 Y96.769 E16.57411
G1 X103.133 Y97.801 E16.73373
G1 X105.185 Y95.749 E16.84981
G1 X107.767 Y96.441 E16.95675
G1 X106.879 Y95.553 E17.00702
G1 X105.347 Y95.142 E17.07042
G1 X104.937 Y93.611 E17.13383
G1 X103.324 Y91.998 E17.22507
G1 X102.436 Y91.110 F7800.000
G1 X101.415 Y90.089 E17.28279 F4800.000
G1 X100.883 Y90.621 E17.31287
G1 X100.904 Y90.699 E17.31612
G1 X102.436 Y91.110 E17.37953
G1 X111.321 Y99.996 F7800.000
G1 X109.380 Y98.054 E17.48935 F4800.000
G1 X109.790 Y99.585 E17.55276
G1 X111.321 Y99.996 E17.61617
G1 X101.806 Y115.762 F7800.000
G1 X95.914 Y121.649 E18.30527 F1200.000
M106 S242.25
G1 Z1.000 F7800.000
G1 E16.30527 F2400.00000
G92 E0
G1 X90.907 Y99.002 F7800.000
G1 E2.00000 F2400.00000
G1 X92.168 Y98.582 E2.05318 F3600.000
G1 X101.724 Y89.025 E2.59376
G1 X113.475 Y100.776 E3.25848
G1 X103.688 Y110.562 E3.81207
G1 X103.688 Y111.784 E3.86094
G1 X104.350 Y112.446 E3.89838
G1 X102.591 Y114.205 E3.99790
G1 X88.295 Y99.909 E4.80662
G1 X90.054 Y98.150 E4.90614
G1 X90.864 Y98.960 E4.95196
G1 X91.076 Y98.283 F7800.000
G1 X91.828 Y98.032 E4.98367 F3600.000
G1 X101.724 Y88.137 E5.54345
G1 X114.363 Y100.776 E6.25844
G1 X104.317 Y110.822 E6.82675
G1 X104.317 Y111.524 E6.85480
G1 X105.239 Y112.446 E6.90697
G1 X102.069 Y115.615 E7.08627
G1 X102.169 Y114.672 E7.12422
G1 X87.999 Y100.502 E7.92580
G1 X87.078 Y100.237 E7.96413
G1 X90.054 Y97.261 E8.13246
G1 X91.034 Y98.241 E8.18788
G1 X91.209 Y97.719 F7800.000
G1 X91.562 Y97.602 E8.19634 F1800.000
G1 X101.608 Y87.556 E8.51930
G1 X101.673 Y87.542 E8.52080
G1 X101.727 Y87.494 E8.52244
M106 S255
G1 X101.754 Y87.470 E8.52391 F3600.000
G1 X115.060 Y100.776 E9.27661
G1 X115.034 Y100.802 E9.27808
M106 S242.25
G1 X104.809 Y111.027 E9.60679 F1800.000
G1 X104.809 Y111.320 E9.61345
G1 X105.936 Y112.446 E9.64966
G1 X95.902 Y122.479 E9.97222
G1 X95.096 Y121.663 E9.99830
G1 X101.625 Y115.134 E10.20820
G1 X101.655 Y114.854 E10.21461
G1 X87.741 Y100.940 E10.66191
G1 X87.399 Y100.842 E10.67000
G1 X80.838 Y107.403 E10.88093
G1 X80.022 Y106.597 E10.90701
G1 X90.054 Y96.564 E11.22954
G1 X91.167 Y97.677 E11.26532
G1 X91.380 Y98.050 F7800.000
G1 X86.968 Y100.461 F7800.000
G1 X80.604 Y106.826 E12.00995 F1200.000
G1 X88.160 Y100.228 F7800.000
G1 X94.875 Y101.182 F7800.000
G1 X102.176 Y111.651 F7800.000
G1 X102.591 Y114.458 F7800.000
G1 X102.490 Y114.558 F7800.000
G1 X95.673 Y121.897 F7800.000
G1 X101.806 Y115.765 E12.72747 F1200.000
G1 X105.088 Y108.408 F7800.000
G1 X102.539 Y107.725 E12.83301 F4800.000
G1 X99.718 Y110.546 E12.99262
G1 X99.729 Y110.587 E12.99431
G1 X102.591 Y113.450 E13.15624
G1 X103.595 Y112.446 E13.21304
G1 X103.154 Y112.005 E13.23797
G1 X103.154 Y110.341 E13.30453
G1 X105.088 Y108.408 E13.41390
G1 X112.609 Y100.666 F7800.000
G1 X110.235 Y100.030 E13.51224 F4800.000
G1 X107.413 Y102.851 E13.67185
G1 X108.096 Y105.400 E13.77738
G1 X112.719 Y100.776 E14.03894
G1 X112.609 Y100.666 E14.04517
G1 X108.166 Y96.223 F7800.000
G1 X105.792 Y95.587 E14.14351 F4800.000
G1 X102.970 Y98.408 E14.30312
G1 X103.721 Y101.211 E14.41920
G1 X100.900 Y104.033 E14.57882
G1 X98.096 Y103.282 E14.69490
G1 X95.275 Y106.104 E14.85452
G1 X95.286 Y106.144 E14.85620
G1 X99.233 Y110.091 E15.07948
G1 X99.273 Y110.102 E15.08116
G1 X102.095 Y107.281 E15.24078
G1 X101.344 Y104.477 E15.35686
G1 X104.165 Y101.656 E15.51647
G1 X106.969 Y102.407 E15.63256
G1 X109.790 Y99.585 E15.79217
G1 X109.154 Y97.211 E15.89051
G1 X108.166 Y96.223 E15.94638
G1 X103.724 Y91.780 F7800.000
G1 X101.349 Y91.144 E16.04472 F4800.000
G1 X98.527 Y93.965 E16.20433
G1 X99.278 Y96.769 E16.32041
G1 X96.457 Y99.590 E16.48003
G1 X93.653 Y98.839 E16.59611
G1 X90.832 Y101.661 E16.75573
G1 X90.843 Y101.701 E16.75741
G1 X94.790 Y105.648 E16.98069
G1 X94.830 Y105.659 E16.98237
G1 X97.652 Y102.838 E17.14199
G1 X96.901 Y100.034 E17.25807
G1 X99.723 Y97.213 E17.41769
G1 X102.526 Y97.964 E17.53377
G1 X105.347 Y95.142 E17.69338
G1 X104.711 Y92.768 E17.79172
G1 X103.724 Y91.780 E17.84759
G1 X100.904 Y90.699 F7800.000
G1 X100.883 Y90.621 E17.85083 F4800.000
G1 X98.004 Y93.500 E18.01369
G1 X98.083 Y93.521 E18.01694
G1 X100.904 Y90.699 E18.17655
G1 X93.209 Y98.395 F7800.000
G1 X93.188 Y98.316 E18.17980 F4800.000
G1 X92.456 Y99.048 E18.22120
G1 X90.762 Y99.613 E18.29263
G1 X90.054 Y98.905 E18.33268
G1 X89.050 Y99.909 E18.38948
G1 X90.347 Y101.205 E18.46283
G1 X90.388 Y101.216 E18.46451
G1 X93.209 Y98.395 E18.62413
G1 Z1.200 F7800.000
G1 X90.907 Y99.002 F7800.000
G1 X92.168 Y98.582 E18.67731 F3600.000
G1 X102.033 Y88.717 E19.23535
G1 X113.783 Y100.467 E19.90007
G1 X103.688 Y110.562 E20.47113
G1 X103.688 Y111.784 E20.52000
G1 X104.350 Y112.446 E20.55744
G1 X102.591 Y114.205 E20.65696
G1 X88.295 Y99.909 E21.46568
