; generated by Slic3r 1.2.9 on 2016-12-08 at 22:16:38

; external perimeters extrusion width = 0.40mm
; perimeters extrusion width = 0.42mm
; infill extrusion width = 0.42mm
; solid infill extrusion width = 0.42mm
; top infill extrusion width = 0.42mm

M107
M190 S110 ; set bed temperature
M104 S205 ; set temperature
G28 ; home all axes
G1 Z5 F5000 ; lift nozzle

M109 S205 ; wait for temperature to be reached
G21 ; set units to millimeters
G90 ; use absolute coordinates
M82 ; use absolute distances for extrusion
G92 E0
G1 Z0.400 F7800.000
G1 E-2.00000 F2400.00000
G92 E0
G1 X82.656 Y86.836 F7800.000
G1 E2.00000 F2400.00000
G1 X83.573 Y86.101 E2.13953 F1800.000
G1 X85.686 Y85.170 E2.41376
G1 X87.298 Y84.974 E2.60657
G1 X111.409 Y84.974 E5.47011
G1 X114.411 Y85.683 E5.83653 F1800.000
G1 X115.998 Y86.787 E6.06610
G1 X116.116 Y86.898 E6.08538
G1 X117.505 Y88.742 E6.35961
G1 X118.241 Y91.799 E6.73300
G1 X118.241 Y118.199 E9.86840
G1 X118.218 Y118.765 E9.93572
G1 X117.668 Y121.008 E10.20995
G1 X116.390 Y122.931 E10.48417
G1 X114.537 Y124.308 E10.75840
G1 X111.520 Y125.024 E11.12670
G1 X87.409 Y125.024 E13.99024
G1 X84.460 Y124.342 E14.34974
G1 X84.233 Y124.231 E14.37975
G1 X82.364 Y122.875 E14.65398
G1 X81.064 Y120.966 E14.92820
G1 X80.467 Y118.199 E15.26443
G1 X80.467 Y91.799 E18.39983
G1 X80.864 Y89.524 E18.67405
G1 X82.540 Y86.947 E19.03917
G1 X82.613 Y86.878 E19.05112
G1 E17.05112 F2400.00000
G92 E0
G1 X111.120 Y117.910 F7800.000
G1 E2.00000 F2400.00000
G1 X87.582 Y117.910 E4.79551 F1800.000
G1 X87.582 Y92.088 E7.86227
G1 X111.127 Y92.088 E10.65865
G1 X111.120 Y117.850 E13.71828
G1 X88.017 Y117.131 F7800.000
G1 X88.360 Y117.474 E13.77648 F1800.000
G1 X89.380 Y117.474 E13.89893
G1 X88.017 Y116.111 E14.13029
G1 X88.017 Y115.091 E14.25274
G1 X90.401 Y117.474 E14.65726
G1 X91.421 Y117.474 E14.77970
G1 X88.017 Y114.070 E15.35739
G1 X88.017 Y113.050 E15.47983
G1 X92.442 Y117.474 E16.23068
G1 X93.462 Y117.474 E16.35313
G1 X88.017 Y112.029 E17.27714
G1 X88.017 Y111.009 E17.39958
G1 X94.483 Y117.474 E18.49675
G1 X95.503 Y117.474 E18.61919
G1 X88.017 Y109.988 E19.88953
G1 X88.017 Y108.968 E20.01197
G1 X96.523 Y117.474 E21.45546
G1 X97.544 Y117.474 E21.57791
G1 X88.017 Y107.948 E23.19456
G1 X88.017 Y106.927 E23.31701
G1 X98.564 Y117.474 E25.10682
G1 X99.585 Y117.474 E25.22927
G1 X88.017 Y105.907 E27.19225
G1 X88.017 Y104.886 E27.31469
G1 X100.605 Y117.474 E29.45083
G1 X101.626 Y117.474 E29.57327
G1 X88.017 Y103.866 E31.88257
G1 X88.017 Y102.845 E32.00502
G1 X102.646 Y117.474 E34.48748
G1 X103.666 Y117.474 E34.60993
G1 X88.017 Y101.825 E37.26555
G1 X88.017 Y100.805 E37.38799
G1 X104.687 Y117.474 E40.21678
G1 X105.707 Y117.474 E40.33922
G1 X88.017 Y99.784 E43.34117
G1 X88.017 Y98.764 E43.46362
G1 X106.728 Y117.474 E46.63872
G1 X107.748 Y117.474 E46.76117
G1 X88.017 Y97.743 E50.10944
G1 X88.017 Y96.723 E50.23188
G1 X108.768 Y117.474 E53.75332
G1 X109.789 Y117.474 E53.87576
G1 X88.017 Y95.703 E57.57035
G1 X88.017 Y94.682 E57.69280
G1 X110.684 Y117.349 E61.53936
G1 X110.685 Y116.329 E61.66177
G1 X88.017 Y93.662 E65.50838
G1 X88.017 Y92.641 E65.63083
G1 X110.685 Y115.309 E69.47749
G1 X110.685 Y114.289 E69.59990
G1 X88.920 Y92.523 E73.29346
G1 X89.940 Y92.523 E73.41590
G1 X110.686 Y113.269 E76.93635
G1 X110.686 Y112.249 E77.05876
G1 X90.960 Y92.523 E80.40610
G1 X91.981 Y92.523 E80.52854
G1 X110.686 Y111.229 E83.70276
G1 X110.686 Y110.209 E83.82517
G1 X93.001 Y92.523 E86.82628
G1 X94.022 Y92.523 E86.94873
G1 X110.687 Y109.188 E89.77673
G1 X110.687 Y108.168 E89.89914
G1 X95.042 Y92.523 E92.55402
G1 X96.063 Y92.523 E92.67647
G1 X110.687 Y107.148 E95.15824
G1 X110.688 Y106.128 E95.28065
G1 X97.083 Y92.523 E97.58932
G1 X98.103 Y92.523 E97.71176
G1 X110.688 Y105.108 E99.84731
G1 X110.688 Y104.088 E99.96972
G1 X99.124 Y92.523 E101.93216
G1 X100.144 Y92.523 E102.05460
G1 X110.688 Y103.068 E103.84393
G1 X110.689 Y102.048 E103.96634
G1 X101.165 Y92.523 E105.58255
G1 X102.185 Y92.523 E105.70499
G1 X110.689 Y101.027 E107.14810
G1 X110.689 Y100.007 E107.27050
G1 X103.205 Y92.523 E108.54049
G1 X104.226 Y92.523 E108.66294
G1 X110.690 Y98.987 E109.75982
G1 X110.690 Y97.967 E109.88222
G1 X105.246 Y92.523 E110.80599
G1 X106.267 Y92.523 E110.92843
G1 X110.690 Y96.947 E111.67909
G1 X110.691 Y95.927 E111.80149
G1 X107.287 Y92.523 E112.37903
G1 X108.308 Y92.523 E112.50148
G1 X110.691 Y94.907 E112.90591
G1 X110.691 Y93.886 E113.02832
G1 X109.328 Y92.523 E113.25963
G1 X110.348 Y92.523 E113.38208
G1 X110.691 Y92.866 E113.44028
M104 S200 ; set temperature
M140 S100 ; wait for bed temperature to be reached
G1 Z0.800 F7800.000
G1 E111.44028 F2400.00000
G92 E0
G1 X111.561 Y118.110 F7800.000
G1 E2.00000 F2400.00000
G1 X108.745 Y118.110 E2.14712 F1800.000
G1 X108.645 Y118.181 E2.15354
G1 X108.508 Y118.181 E2.16066
G1 X108.477 Y118.212 E2.16297
G1 X108.429 Y118.212 E2.16546
G1 X108.113 Y118.510 E2.18817
G1 X108.083 Y118.538 E2.19028 F3600.000
G1 X108.063 Y118.510 E2.19206
G1 X107.937 Y118.334 E2.20334 F1800.000
G1 X107.548 Y118.182 E2.22518
G1 X107.371 Y118.178 E2.23442
G1 X107.270 Y118.110 E2.24083
G1 X101.131 Y118.110 E2.56154
G1 X101.113 Y118.261 E2.56950
G1 X100.977 Y118.355 E2.57812
G1 X100.869 Y118.510 E2.58800
G1 X100.819 Y118.582 E2.59258 F3600.000
G1 X100.784 Y118.510 E2.59675
G1 X100.705 Y118.343 E2.60640 F1800.000
G1 X100.358 Y118.200 E2.62601
G1 X100.163 Y118.181 E2.63623
G1 X100.089 Y118.110 E2.64159
G1 X93.979 Y118.110 E2.96079
G1 X93.923 Y118.234 E2.96791
G1 X93.876 Y118.234 E2.97040
G1 X93.698 Y118.371 E2.98212
G1 X93.636 Y118.510 E2.99005
G1 X93.589 Y118.614 E2.99601 F3600.000
G1 X93.532 Y118.510 E3.00222
G1 X93.441 Y118.343 E3.01214 F1800.000
G1 X93.151 Y118.215 E3.02873
G1 X92.973 Y118.197 E3.03804
G1 X92.912 Y118.110 E3.04360
G1 X86.982 Y118.110 E3.35341
G1 X86.825 Y118.110 E3.36160 F3600.000
G1 X86.760 Y118.175 E3.36640
G1 X86.524 Y118.078 E3.37976
G1 X86.524 Y91.766 E4.75441
G1 X86.699 Y91.875 E4.76519
G1 X86.982 Y91.888 E4.77997
G1 X93.010 Y91.888 E5.09492 F1800.000
G1 X93.165 Y91.868 E5.10308
G1 X93.434 Y91.742 E5.11863
G1 X93.482 Y91.584 E5.12721
G1 X93.545 Y91.488 E5.13326
G1 X93.601 Y91.403 E5.13857 F3600.000
G1 X93.632 Y91.488 E5.14328
G1 X93.721 Y91.735 E5.15700 F1800.000
G1 X93.899 Y91.839 E5.16780
G1 X94.083 Y91.888 E5.17770
G1 X100.351 Y91.888 E5.50518
G1 X100.451 Y91.844 E5.51088
G1 X100.507 Y91.844 E5.51382
G1 X100.706 Y91.730 E5.52580
G1 X100.745 Y91.571 E5.53434
G1 X100.790 Y91.488 E5.53930
G1 X100.830 Y91.413 E5.54373 F3600.000
G1 X100.877 Y91.488 E5.54835
G1 X100.939 Y91.586 E5.55439 F1800.000
G1 X100.990 Y91.735 E5.56262
G1 X101.255 Y91.888 E5.57859
G1 X107.524 Y91.888 E5.90609
G1 X107.739 Y91.856 E5.91748
G1 X107.961 Y91.731 E5.93078
G1 X107.994 Y91.589 E5.93835
G1 X108.077 Y91.488 E5.94521
G1 X108.102 Y91.458 E5.94724 F3600.000
G1 X108.129 Y91.488 E5.94935
G1 X108.224 Y91.594 E5.95678 F1800.000
G1 X108.249 Y91.708 E5.96289
G1 X108.423 Y91.856 E5.97480
G1 X108.642 Y91.888 E5.98637
G1 X111.470 Y91.888 E6.13413
G1 X111.561 Y91.924 E6.13925
G1 X111.561 Y118.050 E7.50417
G1 E5.50417 F2400.00000
G92 E0
G1 X111.289 Y115.717 F7800.000
G1 E2.00000 F2400.00000
G1 X111.170 Y115.388 E2.02022 F3600.000
G1 X110.669 Y115.388 E2.04917
G1 X111.289 Y117.093 E2.15405
G1 X111.089 Y117.919 E2.20318
G1 X110.168 Y115.388 E2.35887
G1 X109.667 Y115.388 E2.38782
G1 X110.588 Y117.919 E2.54351
G1 X110.087 Y117.919 E2.57246
G1 X109.166 Y115.388 E2.72815
G1 X108.665 Y115.388 E2.75711
G1 X109.586 Y117.919 E2.91279
G1 X109.085 Y117.919 E2.94175
G1 X108.164 Y115.388 E3.09743
G1 X107.663 Y115.388 E3.12639
G1 X108.606 Y117.978 E3.28573
G1 X108.179 Y118.182 E3.31307
G1 X107.162 Y115.388 E3.48492
G1 X106.661 Y115.388 E3.51388
G1 X107.609 Y117.991 E3.67400
G1 X107.081 Y117.919 E3.70476
G1 X106.160 Y115.388 E3.86045
G1 X105.659 Y115.388 E3.88940
G1 X106.580 Y117.919 E4.04509
G1 X106.079 Y117.919 E4.07405
G1 X105.158 Y115.388 E4.22973
G1 X104.657 Y115.388 E4.25869
G1 X105.578 Y117.919 E4.41437
G1 X105.078 Y117.919 E4.44333
G1 X104.156 Y115.388 E4.59902
G1 X103.842 Y115.902 E4.63381
G1 X104.577 Y117.919 E4.75791
G1 X103.852 Y117.304 E4.81286
G1 X103.719 Y116.939 E4.83531
G1 X103.903 Y117.748 F7800.000
G1 X103.730 Y117.921 E4.84906 F1200.000
G1 X103.253 Y117.921 E4.87585
G1 X103.704 Y117.470 E4.91165
G1 X103.505 Y117.192 E4.93085
G1 X102.776 Y117.921 E4.98871
G1 X102.298 Y117.921 E5.01549
G1 X103.516 Y116.703 E5.11213
G1 X103.580 Y116.162 E5.14274
G1 X101.821 Y117.921 E5.28237
G1 X101.344 Y117.921 E5.30916
G1 X103.592 Y115.673 E5.48755
G1 X103.114 Y115.673 F7800.000
G1 X100.648 Y118.139 E5.68325 F1200.000
G1 X100.299 Y118.011 E5.70413
G1 X102.637 Y115.673 E5.88969
G1 X102.308 Y115.525 F7800.000
G1 X99.912 Y117.921 E6.07987 F1200.000
G1 X99.435 Y117.921 E6.10666
G1 X111.372 Y105.984 E7.05407
G1 X111.372 Y106.461 E7.08085
G1 X102.599 Y115.234 E7.77710
G1 X103.077 Y115.234 F7800.000
G1 X111.372 Y106.939 E8.43547 F1200.000
G1 X111.372 Y107.416 E8.46225
G1 X103.554 Y115.234 E9.08274
G1 X104.031 Y115.234 E9.10953
G1 X111.372 Y107.893 E9.69214
G1 X111.372 Y108.370 E9.71892
G1 X104.508 Y115.234 E10.26365
G1 X104.986 Y115.234 E10.29044
G1 X111.372 Y108.848 E10.79729
G1 X111.372 Y109.325 E10.82407
G1 X105.463 Y115.234 E11.29305
G1 X105.940 Y115.234 E11.31983
G1 X111.372 Y109.802 E11.75092
G1 X111.372 Y110.279 E11.77771
G1 X106.418 Y115.234 E12.17092
G1 X106.895 Y115.234 E12.19771
G1 X111.372 Y110.757 E12.55305
G1 X111.372 Y111.234 E12.57983
G1 X107.372 Y115.234 E12.89729
G1 X107.849 Y115.234 E12.92407
G1 X111.372 Y111.711 E13.20365
G1 X111.372 Y112.188 E13.23044
G1 X108.327 Y115.234 E13.47214
G1 X108.804 Y115.234 E13.49892
G1 X111.372 Y112.666 E13.70274
G1 X111.372 Y113.143 E13.72953
G1 X109.281 Y115.234 E13.89547
G1 X109.758 Y115.234 E13.92225
G1 X111.372 Y113.620 E14.05032
G1 X111.372 Y114.097 E14.07710
G1 X110.236 Y115.234 E14.16728
G1 X110.713 Y115.234 E14.19407
G1 X111.372 Y114.575 E14.24637
G1 X111.372 Y115.052 E14.27316
G1 X111.190 Y115.234 E14.28759
G1 X98.958 Y117.921 F7800.000
G1 X111.372 Y105.507 E15.27288 F1200.000
G1 X111.372 Y105.030 E15.29966
G1 X98.480 Y117.921 E16.32283
G1 X98.003 Y117.921 E16.34961
G1 X111.372 Y104.552 E17.41066
G1 X111.372 Y104.075 E17.43744
G1 X97.526 Y117.921 E18.53637
G1 X97.049 Y117.921 E18.56315
G1 X111.372 Y103.598 E19.69996
G1 X111.372 Y103.120 E19.72674
G1 X96.610 Y117.882 E20.89833
G1 X96.366 Y117.649 E20.91728
G1 X111.372 Y102.643 E22.10822
G1 X111.372 Y102.166 E22.13501
G1 X96.123 Y117.415 E23.34531
G1 X95.879 Y117.182 E23.36425
G1 X111.372 Y101.689 E24.59391
G1 X111.372 Y101.211 E24.62070
G1 X95.635 Y116.948 E25.86971
G1 X95.391 Y116.715 E25.88865
G1 X111.372 Y100.734 E27.15702
G1 X111.372 Y100.257 E27.18380
G1 X95.147 Y116.482 E28.47153
G1 X94.903 Y116.248 E28.49047
G1 X95.478 Y115.673 E28.53610
G1 X95.441 Y115.234 F7800.000
G1 X111.372 Y99.302 E29.80053 F1200.000
G1 X111.372 Y99.780 E29.82732
G1 X95.811 Y115.341 E31.06238
G1 X94.963 Y115.234 F7800.000
G1 X111.372 Y98.825 E32.36468 F1200.000
G1 X111.372 Y98.348 E32.39147
G1 X94.486 Y115.234 E33.73166
G1 X94.009 Y115.234 E33.75844
G1 X111.372 Y97.871 E35.13651
G1 X111.372 Y97.393 E35.16329
G1 X93.532 Y115.234 E36.57924
G1 X93.054 Y115.234 E36.60602
G1 X111.372 Y96.916 E38.05984
G1 X111.372 Y96.439 E38.08663
G1 X92.577 Y115.234 E39.57833
G1 X92.100 Y115.234 E39.60512
G1 X111.372 Y95.962 E41.13470
G1 X111.372 Y95.484 E41.16148
G1 X91.623 Y115.234 E42.72894
G1 X91.145 Y115.234 E42.75573
G1 X111.372 Y95.007 E44.36107
G1 X111.372 Y94.530 E44.38785
G1 X90.668 Y115.234 E46.03107
G1 X90.258 Y115.167 E46.05440
G1 X111.372 Y94.053 E47.73019
G1 X111.372 Y93.575 E47.75697
G1 X90.258 Y114.689 E49.43276
G1 X90.258 Y114.212 E49.45954
G1 X111.372 Y93.098 E51.13533
G1 X111.372 Y92.621 E51.16211
G1 X90.258 Y113.735 E52.83790
G1 X90.258 Y113.258 E52.86468
G1 X111.372 Y92.144 E54.54047
G1 X110.961 Y92.077 E54.56380
G1 X90.258 Y112.780 E56.20702
G1 X90.258 Y112.303 E56.23380
G1 X110.484 Y92.077 E57.83914
G1 X110.007 Y92.077 E57.86592
G1 X90.258 Y111.826 E59.43338
G1 X90.258 Y111.349 E59.46017
G1 X109.530 Y92.077 E60.98974
G1 X109.052 Y92.077 E61.01653
G1 X90.258 Y110.871 E62.50823
G1 X90.258 Y110.394 E62.53501
G1 X108.590 Y92.062 E63.99004
G1 X108.253 Y91.921 E64.01053
G1 X90.258 Y109.917 E65.43880
G1 X90.258 Y109.440 E65.46559
G1 X107.622 Y92.076 E66.84375
G1 X107.143 Y92.077 E66.87060
G1 X90.258 Y108.962 E68.21079
G1 X90.258 Y108.485 E68.23757
G1 X106.666 Y92.077 E69.53988
G1 X106.189 Y92.077 E69.56666
G1 X90.258 Y108.008 E70.83109
G1 X90.258 Y107.531 E70.85787
G1 X105.712 Y92.077 E72.08442
G1 X105.234 Y92.077 E72.11120
G1 X90.258 Y107.053 E73.29987
G1 X90.258 Y106.576 E73.32666
G1 X104.757 Y92.077 E74.47745
G1 X104.280 Y92.077 E74.50423
G1 X90.258 Y106.099 E75.61714
G1 X90.258 Y105.622 E75.64393
G1 X103.803 Y92.077 E76.71896
G1 X103.325 Y92.077 E76.74574
G1 X90.258 Y105.144 E77.78290
G1 X90.258 Y104.667 E77.80968
G1 X102.848 Y92.077 E78.80896
G1 X102.371 Y92.077 E78.83574
G1 X90.258 Y104.190 E79.79714
G1 X90.258 Y103.713 E79.82392
G1 X101.894 Y92.077 E80.74744
G1 X101.416 Y92.077 E80.77422
G1 X90.258 Y103.235 E81.65986
G1 X90.258 Y102.758 E81.68664
G1 X101.055 Y91.961 E82.54363
G1 X100.462 Y92.077 E82.57756
G1 X90.258 Y102.281 E83.38744
G1 X90.258 Y101.804 E83.41423
G1 X99.985 Y92.077 E84.18623
G1 X99.507 Y92.077 E84.21301
G1 X90.258 Y101.326 E84.94714
G1 X90.258 Y100.849 E84.97392
G1 X99.030 Y92.077 E85.67016
G1 X98.553 Y92.077 E85.69695
G1 X90.258 Y100.372 E86.35531
G1 X90.258 Y99.895 E86.38210
G1 X98.076 Y92.077 E87.00258
G1 X97.598 Y92.077 E87.02937
G1 X90.258 Y99.417 E87.61197
G1 X90.258 Y98.940 E87.63876
G1 X97.121 Y92.077 E88.18349
G1 X96.644 Y92.077 E88.21027
G1 X90.258 Y98.463 E88.71712
G1 X90.258 Y97.986 E88.74391
G1 X96.167 Y92.077 E89.21288
G1 X95.689 Y92.077 E89.23966
G1 X90.258 Y97.508 E89.67075
G1 X90.258 Y97.031 E89.69754
G1 X95.212 Y92.077 E90.09075
G1 X94.735 Y92.077 E90.11753
G1 X90.258 Y96.554 E90.47287
G1 X90.258 Y96.077 E90.49965
G1 X94.258 Y92.077 E90.81711
G1 X93.855 Y92.002 E90.84008
G1 X90.258 Y95.599 E91.12559
G1 X90.258 Y95.122 E91.15238
G1 X93.348 Y92.032 E91.39762
G1 X92.826 Y92.077 E91.42702
G1 X90.258 Y94.645 E91.63084
G1 X90.258 Y94.167 E91.65763
G1 X92.348 Y92.077 E91.82356
G1 X91.871 Y92.077 E91.85035
G1 X90.258 Y93.690 E91.97841
G1 X90.258 Y93.213 E92.00519
G1 X91.394 Y92.077 E92.09538
G1 X90.917 Y92.077 E92.12216
G1 X90.258 Y92.736 E92.17446
G1 X90.258 Y92.258 E92.20125
G1 X90.439 Y92.077 E92.21567
G1 X95.001 Y115.673 F7800.000
G1 X94.659 Y116.015 E92.24278 F1200.000
G1 X94.505 Y116.099 F7800.000
G1 X88.752 Y115.596 E92.64663 F3600.000
G1 X89.048 Y116.137 E92.68973
G1 X95.097 Y116.666 E93.11436
G1 X95.689 Y117.232 E93.17165
G1 X89.344 Y116.677 E93.61707
G1 X89.639 Y117.218 E93.66016
G1 X96.236 Y117.795 E94.12317
G1 X94.093 Y115.548 F7800.000
G1 X93.574 Y115.503 E94.15956 F3600.000
G1 X90.457 Y117.804 F7800.000
G1 X89.935 Y117.758 E94.19617 F3600.000
G1 E92.19617 F2400.00000
G92 E0
G1 X86.726 Y117.772 F7800.000
G1 E2.00000 F2400.00000
G1 X89.739 Y117.772 E2.16230 F3600.000
G1 X89.489 Y117.316 E2.19033
G1 X86.726 Y117.316 E2.33917
G1 X86.726 Y116.860 E2.36375
G1 X89.239 Y116.860 E2.49915
G1 X88.989 Y116.403 E2.52717
G1 X86.726 Y116.403 E2.64911
G1 X86.726 Y115.947 E2.67369
G1 X88.740 Y115.947 E2.78217
G1 X88.490 Y115.491 E2.81019
G1 X86.726 Y115.491 E2.90522
G1 X86.726 Y115.035 E2.92980
G1 X90.092 Y115.035 E3.11113
G1 X90.092 Y114.579 E3.13571
G1 X86.726 Y114.579 E3.31703
G1 X86.726 Y114.122 E3.34161
G1 X90.092 Y114.122 E3.52294
G1 X90.092 Y113.666 E3.54752
G1 X86.726 Y113.666 E3.72884
G1 X86.726 Y113.210 E3.75342
G1 X90.092 Y113.210 E3.93475
G1 X90.092 Y112.754 E3.95933
G1 X86.726 Y112.754 E4.14065
G1 X86.726 Y112.297 E4.16523
G1 X90.092 Y112.297 E4.34656
G1 X90.092 Y111.841 E4.37114
G1 X86.726 Y111.841 E4.55246
G1 X86.726 Y111.385 E4.57704
G1 X90.092 Y111.385 E4.75837
G1 X90.092 Y110.929 E4.78295
G1 X86.726 Y110.929 E4.96427
G1 X86.726 Y110.473 E4.98885
G1 X90.092 Y110.473 E5.17018
G1 X90.092 Y110.016 E5.19476
G1 X86.726 Y110.016 E5.37608
G1 X86.726 Y109.560 E5.40066
G1 X90.092 Y109.560 E5.58199
G1 X90.092 Y109.104 E5.60657
