; generated by Slic3r 1.2.9 on 2016-12-09 at 22:13:16

; external perimeters extrusion width = 0.40mm
; perimeters extrusion width = 0.67mm
; infill extrusion width = 0.67mm
; solid infill extrusion width = 0.67mm
; top infill extrusion width = 0.67mm

M107
M190 S110 ; set bed temperature
M104 S210 ; set temperature
G28 ; home all axes
G1 Z5 F5000 ; lift nozzle

M109 S210 ; wait for temperature to be reached
G21 ; set units to millimeters
G90 ; use absolute coordinates
M82 ; use absolute distances for extrusion
G92 E0
G1 Z0.400 F7800.000
G1 E-2.00000 F2400.00000
G92 E0
G1 X85.430 Y93.360 F7800.000
G1 E2.00000 F2400.00000
G1 X87.463 Y92.266 E2.20995 F1800.000
G1 X89.581 Y91.923 E2.40501
G1 X105.421 Y91.923 E3.84533
G1 X107.299 Y92.191 E4.01786
G1 X109.386 Y93.213 E4.22911 F1800.000
G1 X110.991 Y94.872 E4.43907
G1 X111.763 Y96.397 E4.59446
G1 X112.100 Y97.705 E4.71730
G1 X112.201 Y98.878 E4.82436
G1 X112.201 Y113.345 E6.13982
G1 X111.714 Y115.858 E6.37257
G1 X111.684 Y115.931 E6.37977
G1 X110.090 Y118.279 E6.63777
G1 X108.133 Y119.596 E6.85231
G1 X105.421 Y120.168 E7.10432
G1 X89.581 Y120.168 E8.54465
G1 X86.407 Y119.371 E8.84219
G1 X84.745 Y118.137 E9.03040
G1 X83.426 Y116.242 E9.24035
G1 X82.800 Y113.412 E9.50394
G1 X82.800 Y98.945 E10.81939
G1 X82.952 Y97.525 E10.94924
G1 X83.018 Y97.217 E10.97787
G1 X83.887 Y95.078 E11.18782
G1 X85.390 Y93.405 E11.39232
G1 E9.39232 F2400.00000
G92 E0
G1 X103.659 Y111.625 F7800.000
G1 E2.00000 F2400.00000
G1 X91.342 Y111.625 E3.11994 F1800.000
G1 X91.342 Y100.466 E4.13465
G1 X103.659 Y100.469 E5.25459
G1 X103.659 Y111.565 E6.26356
G1 X104.373 Y112.340 F7800.000
G1 X90.628 Y112.340 E7.51337 F1800.000
G1 X90.628 Y99.752 E8.65798
G1 X104.373 Y99.755 E9.90779
G1 X104.373 Y112.280 E11.04662
G1 X105.087 Y113.054 F7800.000
G1 X89.914 Y113.054 E12.42631 F1800.000
G1 X89.914 Y99.037 E13.70081
G1 X105.087 Y99.041 E15.08050
G1 X105.087 Y112.994 E16.34919
G1 X104.741 Y112.854 F7800.000
G1 X103.223 Y101.248 F7800.000
G1 X102.880 Y100.905 E16.39514 F1800.000
G1 X101.828 Y100.904 E16.49485
G1 X103.223 Y102.300 E16.68182
G1 X103.223 Y103.352 E16.78150
G1 X100.775 Y100.904 E17.10948
G1 X99.723 Y100.904 E17.20919
G1 X103.223 Y104.404 E17.67817
G1 X103.223 Y105.457 E17.77785
G1 X98.670 Y100.904 E18.38785
G1 X97.618 Y100.903 E18.48756
G1 X103.223 Y106.509 E19.23856
G1 X103.223 Y107.561 E19.33825
G1 X96.565 Y100.903 E20.23026
G1 X95.513 Y100.903 E20.32997
G1 X103.223 Y108.613 E21.36300
G1 X103.223 Y109.666 E21.46268
G1 X94.460 Y100.903 E22.63672
G1 X93.408 Y100.902 E22.73643
G1 X103.223 Y110.718 E24.05148
G1 X102.643 Y111.190 E24.12234
G1 X92.355 Y100.902 E25.50067
G1 X91.778 Y101.377 E25.57149
G1 X101.591 Y111.190 E26.88621
G1 X100.539 Y111.190 E26.98590
G1 X91.778 Y102.429 E28.15964
G1 X91.778 Y103.481 E28.25933
G1 X99.487 Y111.190 E29.29210
G1 X98.434 Y111.190 E29.39178
G1 X91.778 Y104.534 E30.28358
G1 X91.778 Y105.586 E30.38326
G1 X97.382 Y111.190 E31.13409
G1 X96.330 Y111.190 E31.23377
G1 X91.778 Y106.638 E31.84362
G1 X91.778 Y107.690 E31.94330
G1 X95.278 Y111.190 E32.41218
G1 X94.225 Y111.190 E32.51186
G1 X91.778 Y108.742 E32.83976
G1 X91.778 Y109.795 E32.93945
G1 X93.173 Y111.190 E33.12637
G1 X92.121 Y111.190 E33.22606
G1 X91.778 Y110.847 E33.27201
M104 S200 ; set temperature
M140 S105 ; wait for bed temperature to be reached
G1 Z0.600 F7800.000
G1 X104.166 Y112.328 F7800.000
G1 X90.835 Y112.328 E33.80526 F3600.000
G1 X90.835 Y99.315 E34.32579
G1 X104.166 Y99.315 E34.85903
G1 X104.166 Y110.883 E35.32177
G1 X104.213 Y111.411 E35.34297
G1 X104.166 Y111.476 E35.34615
G1 X104.166 Y112.268 E35.37786
G1 X104.795 Y112.957 F7800.000
G1 X90.207 Y112.957 E35.96137 F3600.000
G1 X90.207 Y111.308 E36.02733
G1 X90.048 Y111.255 E36.03401
G1 X90.207 Y111.046 E36.04451
G1 X90.207 Y106.785 E36.21495
G1 X90.172 Y106.782 E36.21636
G1 X90.207 Y106.354 E36.23355
G1 X90.207 Y102.604 E36.38355
G1 X90.160 Y102.588 E36.38552
G1 X90.178 Y102.280 E36.39785
G1 X90.207 Y102.242 E36.39974
G1 X90.207 Y98.687 E36.54197
G1 X104.795 Y98.687 E37.12548
G1 X104.795 Y102.160 E37.26441
G1 X104.849 Y102.611 E37.28257
G1 X104.795 Y102.632 E37.28489
G1 X104.795 Y110.856 E37.61385
G1 X104.860 Y111.591 E37.64336
G1 X104.795 Y111.680 E37.64778
G1 X104.795 Y112.897 E37.69645
G1 X105.287 Y107.246 F7800.000
G1 X105.287 Y110.834 E37.77800 F1800.000
G1 X105.309 Y111.082 E37.78366
G1 X105.687 Y111.204 E37.79269
G1 X105.744 Y111.240 E37.79538 F3600.000
G1 X105.816 Y111.326 E37.79984
G1 X105.776 Y111.450 E37.80506
G1 X105.687 Y111.526 E37.80974
G1 X105.456 Y111.608 E37.81531 F1800.000
G1 X105.287 Y111.840 E37.82184
G1 X105.287 Y113.449 E37.85843
G1 X89.714 Y113.449 E38.21244
G1 X89.714 Y111.664 E38.25304
G1 X89.314 Y111.528 E38.26264
G1 X89.220 Y111.447 E38.26758 F3600.000
G1 X89.187 Y111.319 E38.27288
G1 X89.314 Y111.204 E38.27973
G1 X89.523 Y111.133 E38.28476 F1800.000
G1 X89.714 Y110.880 E38.29194
G1 X89.714 Y107.236 E38.37479
G1 X89.423 Y107.211 E38.38144
G1 X89.314 Y107.167 E38.38410
G1 X89.194 Y107.068 E38.39032 F3600.000
G1 X89.223 Y106.935 E38.39575
G1 X89.314 Y106.850 E38.40072
G1 X89.512 Y106.777 E38.40551 F1800.000
G1 X89.693 Y106.594 E38.41136
G1 X89.714 Y106.333 E38.41731
G1 X89.714 Y102.955 E38.49410
G1 X89.314 Y102.809 E38.50378
G1 X89.235 Y102.751 E38.50769 F3600.000
G1 X89.202 Y102.682 E38.51075
G1 X89.204 Y102.591 E38.51439
G1 X89.314 Y102.492 E38.52030
G1 X89.494 Y102.425 E38.52466 F1800.000
G1 X89.684 Y102.294 E38.52990
G1 X89.695 Y102.099 E38.53435
G1 X89.714 Y102.074 E38.53507
G1 X89.714 Y98.716 E38.61139
G1 X89.586 Y98.522 E38.61668
G1 X89.407 Y98.485 E38.62084
G1 X89.283 Y98.459 E38.62587 F3600.000
G1 X89.311 Y98.194 E38.63654
G1 X105.689 Y98.194 E39.29168
G1 X105.723 Y98.451 E39.30205
G1 X105.605 Y98.483 E39.30694
G1 X105.490 Y98.513 E39.30965 F1800.000
G1 X105.287 Y98.671 E39.31548
G1 X105.287 Y102.131 E39.39412
G1 X105.305 Y102.275 E39.39742
G1 X105.438 Y102.416 E39.40184
G1 X105.687 Y102.490 E39.40774
G1 X105.764 Y102.545 E39.41154 F3600.000
G1 X105.814 Y102.631 E39.41551
G1 X105.782 Y102.726 E39.41949
G1 X105.687 Y102.809 E39.42454
G1 X105.287 Y102.968 E39.43433 F1800.000
G1 X105.287 Y106.587 E39.51658
G1 X105.311 Y106.611 E39.51734
G1 X105.318 Y106.768 E39.52092
G1 X105.612 Y106.814 E39.52768
G1 X105.687 Y106.845 E39.52954
G1 X105.754 Y106.892 E39.53281 F3600.000
G1 X105.816 Y106.980 E39.53711
G1 X105.778 Y107.100 E39.54216
G1 X105.687 Y107.165 E39.54663
G1 X105.553 Y107.217 E39.54989 F1800.000
G1 X105.347 Y107.240 E39.55461
G1 X104.888 Y107.261 F7800.000
G1 X103.479 Y111.948 F7800.000
G1 X103.786 Y111.641 E39.57211 F1200.000
G1 X103.786 Y110.744 E39.60830
G1 X102.582 Y111.948 E39.67697
G1 X101.686 Y111.948 E39.71316
G1 X103.786 Y109.848 E39.83302
G1 X103.786 Y108.951 E39.86920
G1 X100.789 Y111.948 E40.04024
G1 X99.893 Y111.948 E40.07642
G1 X103.786 Y108.055 E40.29863
G1 X103.786 Y107.158 E40.33482
G1 X98.996 Y111.948 E40.60821
G1 X98.099 Y111.948 E40.64440
G1 X103.786 Y106.261 E40.96896
G1 X103.786 Y105.365 E41.00515
G1 X97.203 Y111.948 E41.38090
G1 X96.306 Y111.948 E41.41708
G1 X103.786 Y104.468 E41.84400
G1 X103.786 Y103.572 E41.88019
G1 X95.409 Y111.948 E42.35829
G1 X94.513 Y111.948 E42.39448
G1 X103.786 Y102.675 E42.92376
G1 X103.786 Y101.778 E42.95994
G1 X93.616 Y111.948 E43.54040
G1 X92.720 Y111.948 E43.57659
G1 X103.786 Y100.882 E44.20822
G1 X103.786 Y99.985 E44.24441
G1 X91.823 Y111.948 E44.92722
G1 X91.216 Y111.658 E44.95437
G1 X103.178 Y99.696 E45.63717
G1 X102.282 Y99.696 E45.67336
G1 X91.216 Y110.762 E46.30499
G1 X91.216 Y109.865 E46.34118
G1 X101.385 Y99.696 E46.92163
G1 X100.488 Y99.696 E46.95782
G1 X91.216 Y108.968 E47.48710
G1 X91.216 Y108.072 E47.52329
G1 X99.592 Y99.696 E48.00138
G1 X98.695 Y99.696 E48.03757
G1 X91.216 Y107.175 E48.46449
G1 X91.216 Y106.279 E48.50068
G1 X97.799 Y99.696 E48.87642
G1 X96.902 Y99.696 E48.91261
G1 X91.216 Y105.382 E49.23717
G1 X91.216 Y104.485 E49.27336
G1 X96.005 Y99.696 E49.54675
G1 X95.109 Y99.696 E49.58294
G1 X91.216 Y103.589 E49.80514
G1 X91.216 Y102.692 E49.84133
G1 X94.212 Y99.696 E50.01236
G1 X93.316 Y99.696 E50.04855
G1 X91.216 Y101.796 E50.16840
G1 X91.216 Y100.899 E50.20459
G1 X92.419 Y99.696 E50.27327
G1 X91.522 Y99.696 E50.30946
G1 X91.216 Y100.002 E50.32695
G1 Z0.800 F7800.000
G1 X104.166 Y112.475 F7800.000
G1 X90.835 Y112.475 E50.86019 F3600.000
G1 X90.835 Y111.511 E50.89875
G1 X90.711 Y111.343 E50.90709
G1 X90.806 Y111.236 E50.91281
G1 X90.806 Y111.112 E50.91777
G1 X90.835 Y111.072 E50.91974
G1 X90.835 Y102.993 E51.24292
G1 X90.702 Y102.683 E51.25641
G1 X90.836 Y102.547 E51.26406
G1 X90.828 Y98.886 E51.41050
G1 X104.166 Y98.886 E51.94402
G1 X104.179 Y102.598 E52.09250
G1 X104.166 Y112.415 E52.48518
G1 X104.795 Y107.173 F7800.000
G1 X104.795 Y111.046 E52.64012 F3600.000
G1 X105.112 Y111.362 E52.65804
G1 X104.795 Y111.583 E52.67351
G1 X104.795 Y113.103 E52.73431
G1 X90.207 Y113.103 E53.31781
G1 X90.207 Y111.718 E53.37324
G1 X89.984 Y111.415 E53.38829
G1 X90.132 Y111.381 E53.39436
G1 X90.132 Y111.050 E53.40761
G1 X90.178 Y110.998 E53.41040
G1 X90.178 Y110.909 E53.41394
G1 X90.207 Y110.869 E53.41592
G1 X90.207 Y107.214 E53.56212
G1 X89.879 Y106.996 E53.57785
G1 X90.207 Y106.554 E53.59987
G1 X90.207 Y103.122 E53.73712
G1 X89.957 Y102.542 E53.76238
G1 X90.207 Y102.289 E53.77662
G1 X90.198 Y98.258 E53.93788
G1 X105.182 Y98.258 E54.53723
G1 X104.794 Y98.672 E54.55995
G1 X104.808 Y102.910 E54.72946
G1 X104.795 Y102.920 E54.73013
G1 X104.795 Y106.879 E54.88849
G1 X105.085 Y107.015 E54.90133
G1 X104.847 Y107.144 E54.91215
G1 X89.707 Y98.670 F7800.000
G1 X89.365 Y98.612 E54.92003 F1800.000
G1 X89.190 Y98.538 E54.92434
G1 X89.080 Y98.433 E54.92780
G1 X89.042 Y98.351 E54.92987
G1 X89.033 Y98.274 E54.93162
G1 X89.061 Y98.180 E54.93384
G1 X89.133 Y98.091 E54.93645
G1 X89.298 Y97.993 E54.94080
G1 X89.481 Y97.947 E54.94510
G1 X89.720 Y97.794 E54.95155
G1 X89.766 Y97.765 E54.95370 F3600.000
G1 X105.308 Y97.765 E55.57538
G1 X105.324 Y97.794 E55.57671
G1 X105.401 Y97.931 E55.58029 F1800.000
G1 X105.712 Y97.997 E55.58750
G1 X105.839 Y98.064 E55.59079
G1 X105.940 Y98.180 E55.59427
G1 X105.965 Y98.282 E55.59666
G1 X105.960 Y98.350 E55.59821
G1 X105.903 Y98.461 E55.60105
G1 X105.842 Y98.517 E55.60293
G1 X105.735 Y98.579 E55.60575
G1 X105.493 Y98.646 E55.61145
G1 X105.287 Y98.866 E55.61831
G1 X105.299 Y102.271 E55.69571
G1 X105.711 Y102.355 E55.70527
G1 X105.857 Y102.436 E55.70905
G1 X105.947 Y102.555 E55.71247
G1 X105.964 Y102.676 E55.71524
G1 X105.921 Y102.794 E55.71809
G1 X105.839 Y102.874 E55.72069
G1 X105.707 Y102.950 E55.72416
G1 X105.514 Y102.994 E55.72866
G1 X105.287 Y103.166 E55.73512
G1 X105.287 Y106.566 E55.81241
G1 X105.497 Y106.664 E55.81767
G1 X105.709 Y106.709 E55.82260
G1 X105.852 Y106.791 E55.82635
G1 X105.949 Y106.911 E55.82987
G1 X105.967 Y107.007 E55.83209
G1 X105.935 Y107.128 E55.83493
G1 X105.836 Y107.239 E55.83831
G1 X105.710 Y107.304 E55.84153
G1 X105.489 Y107.357 E55.84671
G1 X105.287 Y107.466 E55.85192
G1 X105.287 Y110.842 E55.92865
G1 X105.457 Y111.011 E55.93410
G1 X105.706 Y111.065 E55.93990
G1 X105.872 Y111.164 E55.94429
G1 X105.947 Y111.260 E55.94706
G1 X105.968 Y111.364 E55.94946
G1 X105.946 Y111.466 E55.95183
G1 X105.863 Y111.571 E55.95487
G1 X105.706 Y111.661 E55.95899
G1 X105.461 Y111.720 E55.96471
G1 X105.287 Y111.841 E55.96953
G1 X105.287 Y113.596 E56.00944
G1 X89.715 Y113.596 E56.36344
G1 X89.714 Y111.879 E56.40246
G1 X89.607 Y111.735 E56.40656
G1 X89.258 Y111.647 E56.41474
G1 X89.137 Y111.574 E56.41795
G1 X89.052 Y111.460 E56.42118
G1 X89.031 Y111.365 E56.42339
G1 X89.052 Y111.270 E56.42560
G1 X89.136 Y111.158 E56.42880
G1 X89.295 Y111.065 E56.43298
G1 X89.639 Y110.987 E56.44100
G1 X89.639 Y110.863 E56.44383
G1 X89.685 Y110.811 E56.44541
G1 X89.685 Y110.750 E56.44680
G1 X89.714 Y110.710 E56.44792
G1 X89.714 Y107.478 E56.52138
G1 X89.527 Y107.353 E56.52650
G1 X89.254 Y107.290 E56.53287
G1 X89.168 Y107.242 E56.53510
G1 X89.064 Y107.124 E56.53866
G1 X89.034 Y107.029 E56.54093
G1 X89.051 Y106.919 E56.54347
G1 X89.119 Y106.817 E56.54625
G1 X89.272 Y106.716 E56.55042
G1 X89.519 Y106.655 E56.55619
G1 X89.714 Y106.391 E56.56366
G1 X89.714 Y103.224 E56.63565
G1 X89.618 Y103.002 E56.64116
G1 X89.271 Y102.942 E56.64916
G1 X89.136 Y102.855 E56.65281
G1 X89.069 Y102.771 E56.65526
G1 X89.038 Y102.692 E56.65718
G1 X89.043 Y102.598 E56.65934
G1 X89.101 Y102.483 E56.66225
G1 X89.163 Y102.420 E56.66427
G1 X89.250 Y102.371 E56.66654
G1 X89.506 Y102.298 E56.67259
G1 X89.714 Y102.087 E56.67932
G1 X89.707 Y98.730 E56.75564
G1 X89.745 Y98.326 F7800.000
G1 X92.955 Y102.817 F7800.000
G1 X91.370 Y102.392 E56.82125 F4800.000
G1 X91.371 Y102.766 E56.83622
G1 X91.335 Y102.803 E56.83827
G1 X91.369 Y102.883 E56.84176
G1 X91.369 Y108.246 E57.05630
G1 X91.491 Y108.279 E57.06134
G1 X93.543 Y106.227 E57.17742
G1 X97.397 Y107.260 E57.33704
G1 X98.149 Y110.063 E57.45312
G1 X102.003 Y111.096 E57.61273
G1 X103.636 Y109.463 E57.70512
G1 X103.640 Y106.281 E57.83238
G1 X103.467 Y105.634 E57.85919
G1 X99.612 Y104.601 E58.01881
G1 X97.560 Y106.653 E58.13489
G1 X93.706 Y105.620 E58.29451
G1 X92.955 Y102.817 E58.41059
G1 X92.079 Y111.689 F7800.000
G1 X91.369 Y109.038 E58.52036 F4800.000
G1 X91.369 Y111.245 E58.60863
G1 X91.340 Y111.285 E58.61060
G1 X91.369 Y111.336 E58.61294
G1 X91.369 Y111.941 E58.63714
G1 X93.020 Y111.941 E58.70316
G1 X92.079 Y111.689 E58.74209
G1 X101.840 Y111.703 F7800.000
G1 X97.986 Y110.670 E58.90171 F4800.000
G1 X96.715 Y111.941 E58.97362
G1 X101.904 Y111.941 E59.18120
G1 X101.840 Y111.703 E59.19107
G1 X103.645 Y102.599 F7800.000
G1 X103.634 Y99.420 E59.31820 F4800.000
G1 X100.350 Y99.420 E59.44957
G1 X99.186 Y100.584 E59.51539
G1 X95.332 Y99.551 E59.67500
G1 X95.297 Y99.420 E59.68041
G1 X91.363 Y99.420 E59.83775
G1 X91.369 Y101.741 E59.93060
G1 X93.117 Y102.210 E60.00301
G1 X95.169 Y100.158 E60.11909
G1 X99.024 Y101.191 E60.27871
G1 X99.775 Y103.994 E60.39479
G1 X103.629 Y105.027 E60.55441
G1 X103.645 Y102.599 E60.65153
M106 S252.45
G1 Z1.000 F7800.000
G1 X90.835 Y98.458 F7800.000
G1 X104.166 Y98.461 E61.18478 F3600.000
G1 X104.166 Y112.605 E61.75053
G1 X90.835 Y112.609 E62.28377
G1 X90.835 Y98.518 E62.84742
G1 X90.207 Y107.008 F7800.000
G1 X89.875 Y106.947 E62.86090 F3600.000
G1 X90.207 Y106.607 E62.87990
G1 X90.207 Y102.895 E63.02837
G1 X89.819 Y102.636 E63.04705
G1 X90.207 Y102.373 E63.06581
G1 X90.207 Y98.802 E63.20866
G1 X89.980 Y98.276 E63.23157
G1 X90.207 Y98.213 E63.24100
G1 X90.207 Y97.829 E63.25637
G1 X104.796 Y97.833 E63.83992
G1 X104.798 Y98.119 E63.85137
G1 X105.183 Y98.307 E63.86852
G1 X104.795 Y98.599 E63.88795
G1 X104.795 Y102.202 E64.03206
G1 X105.091 Y102.682 E64.05464
G1 X104.794 Y102.812 E64.06763
G1 X104.795 Y111.268 E64.40584
G1 X105.147 Y111.378 E64.42063
G1 X104.795 Y111.858 E64.44445
G1 X104.795 Y113.233 E64.49945
G1 X90.207 Y113.237 E65.08296
G1 X90.207 Y111.460 E65.15405
G1 X89.856 Y111.353 E65.16871
G1 X90.207 Y110.870 E65.19256
G1 X90.207 Y107.068 E65.34466
G1 X89.714 Y107.419 F7800.000
G1 X89.287 Y107.341 E65.35452 F1800.000
G1 X89.109 Y107.246 E65.35911
G1 X89.030 Y107.157 E65.36181
G1 X88.983 Y107.050 E65.36447
G1 X88.997 Y106.931 E65.36719
G1 X89.067 Y106.813 E65.37030
G1 X89.157 Y106.732 E65.37306
G1 X89.230 Y106.693 E65.37494
G1 X89.505 Y106.621 E65.38140
G1 X89.714 Y106.406 E65.38821
G1 X89.714 Y103.158 E65.46205
G1 X89.527 Y103.033 E65.46717
G1 X89.236 Y102.965 E65.47396
G1 X89.078 Y102.858 E65.47831
G1 X88.995 Y102.728 E65.48182
G1 X88.982 Y102.612 E65.48446
G1 X89.028 Y102.511 E65.48698
G1 X89.159 Y102.379 E65.49122
G1 X89.289 Y102.315 E65.49452
G1 X89.483 Y102.268 E65.49905
G1 X89.714 Y102.111 E65.50539
G1 X89.714 Y98.903 E65.57831
G1 X89.621 Y98.688 E65.58366
G1 X89.281 Y98.628 E65.59150
G1 X89.102 Y98.524 E65.59621
G1 X89.002 Y98.383 E65.60012
G1 X88.980 Y98.277 E65.60259
G1 X89.022 Y98.165 E65.60530
G1 X89.152 Y98.027 E65.60963
G1 X89.294 Y97.953 E65.61327
G1 X89.714 Y97.838 E65.62317
G1 X89.714 Y97.365 E65.63391
M106 S255
G1 X89.714 Y97.336 E65.63506 F3600.000
G1 X105.285 Y97.340 E66.25789
G1 X105.285 Y97.365 E66.25889
M106 S252.45
G1 X105.288 Y97.810 E66.26901 F1800.000
