; generated by Slic3r 1.2.9 on 2016-12-18 at 18:34:58

; external perimeters extrusion width = 0.40mm
; perimeters extrusion width = 0.67mm
; infill extrusion width = 0.67mm
; solid infill extrusion width = 0.67mm
; top infill extrusion width = 0.67mm

M107
M190 S70 ; set bed temperature
M104 S200 ; set temperature
G28 ; home all axes
G1 Z5 F5000 ; lift nozzle

M109 S200 ; wait for temperature to be reached
G21 ; set units to millimeters
G90 ; use absolute coordinates
M82 ; use absolute distances for extrusion
G92 E0
G1 Z0.250 F7800.000
G1 E-2.00000 F2400.00000
G92 E0
G1 X84.599 Y95.320 F7800.000
G1 E2.00000 F2400.00000
G1 X86.346 Y93.882 E2.10494 F1500.000
G1 X89.507 Y93.054 E2.25657
G1 X105.493 Y93.054 E2.99819
G1 X107.720 Y93.451 E3.10313
G1 X109.673 Y94.592 E3.20808 F1500.000
G1 X111.111 Y96.339 E3.31302
G1 X111.939 Y99.500 E3.46465
G1 X111.939 Y110.500 E3.97497
G1 X111.542 Y112.727 E4.07991
G1 X110.401 Y114.680 E4.18486
G1 X108.654 Y116.118 E4.28980
G1 X105.493 Y116.946 E4.44142
G1 X89.507 Y116.946 E5.18305
G1 X87.280 Y116.549 E5.28799
G1 X85.327 Y115.408 E5.39293
G1 X83.889 Y113.661 E5.49788
G1 X83.061 Y110.500 E5.64950
G1 X83.061 Y99.500 E6.15982
G1 X83.458 Y97.273 E6.26477
G1 X84.569 Y95.372 E6.36693
G1 E4.36693 F2400.00000
G92 E0
G1 X104.350 Y109.357 F7800.000
G1 E2.00000 F2400.00000
G1 X90.650 Y109.357 E2.63560 F1500.000
G1 X90.650 Y100.643 E3.03989
G1 X104.350 Y100.643 E3.67549
G1 X104.350 Y109.297 E4.07700
G1 X104.797 Y109.804 F7800.000
G1 X90.203 Y109.804 E4.75401 F1500.000
G1 X90.203 Y100.196 E5.19972
G1 X104.797 Y100.196 E5.87673
G1 X104.797 Y109.744 E6.31965
G1 X105.243 Y110.250 F7800.000
G1 X89.757 Y110.250 E7.03808 F1500.000
G1 X89.757 Y99.750 E7.52520
G1 X105.243 Y99.750 E8.24363
G1 X105.243 Y110.190 E8.72797
G1 X104.896 Y110.050 F7800.000
G1 X104.085 Y101.137 F7800.000
G1 X103.856 Y100.907 E8.74307 F1500.000
G1 X103.223 Y100.907 E8.77254
G1 X104.085 Y101.770 E8.82932
G1 X104.085 Y102.403 E8.85879
G1 X102.590 Y100.907 E8.95725
G1 X101.956 Y100.907 E8.98672
G1 X104.085 Y103.037 E9.12686
G1 X104.086 Y103.670 E9.15633
G1 X101.323 Y100.907 E9.33815
G1 X100.690 Y100.907 E9.36763
G1 X104.086 Y104.303 E9.59113
G1 X104.086 Y104.936 E9.62060
G1 X100.057 Y100.907 E9.88578
G1 X99.423 Y100.907 E9.91525
G1 X104.086 Y105.570 E10.22212
G1 X104.086 Y106.203 E10.25159
G1 X98.790 Y100.907 E10.60013
G1 X98.157 Y100.907 E10.62960
G1 X104.086 Y106.836 E11.01983
G1 X104.086 Y107.469 E11.04930
G1 X97.524 Y100.907 E11.48120
G1 X96.890 Y100.907 E11.51068
G1 X104.086 Y108.103 E11.98426
G1 X104.086 Y108.736 E12.01373
G1 X96.257 Y100.907 E12.52900
G1 X95.624 Y100.907 E12.55847
G1 X103.809 Y109.093 E13.09722
G1 X103.176 Y109.093 E13.12669
G1 X94.991 Y100.907 E13.66544
G1 X94.357 Y100.907 E13.69491
G1 X102.542 Y109.093 E14.23366
G1 X101.909 Y109.093 E14.26313
G1 X93.724 Y100.907 E14.80188
G1 X93.091 Y100.907 E14.83135
G1 X101.276 Y109.093 E15.37010
G1 X100.643 Y109.093 E15.39957
G1 X92.457 Y100.907 E15.93832
G1 X91.824 Y100.907 E15.96779
G1 X100.009 Y109.093 E16.50654
G1 X99.376 Y109.093 E16.53601
G1 X91.191 Y100.907 E17.07476
G1 X90.914 Y101.264 E17.09577
G1 X98.743 Y109.093 E17.61103
G1 X98.110 Y109.093 E17.64050
G1 X90.914 Y101.897 E18.11409
G1 X90.914 Y102.531 E18.14356
G1 X97.476 Y109.093 E18.57546
G1 X96.843 Y109.093 E18.60493
G1 X90.914 Y103.164 E18.99516
G1 X90.914 Y103.797 E19.02463
G1 X96.210 Y109.093 E19.37317
G1 X95.577 Y109.093 E19.40264
G1 X90.914 Y104.430 E19.70950
G1 X90.914 Y105.064 E19.73898
G1 X94.943 Y109.093 E20.00416
G1 X94.310 Y109.093 E20.03363
G1 X90.914 Y105.697 E20.25713
G1 X90.914 Y106.330 E20.28660
G1 X93.677 Y109.093 E20.46842
G1 X93.044 Y109.093 E20.49789
G1 X90.914 Y106.963 E20.63803
G1 X90.914 Y107.597 E20.66750
G1 X92.410 Y109.093 E20.76596
G1 X91.777 Y109.093 E20.79543
G1 X90.914 Y108.230 E20.85221
G1 X90.914 Y108.863 E20.88168
G1 X91.144 Y109.093 E20.89677
M140 S65 ; wait for bed temperature to be reached
G1 Z0.450 F7800.000
G1 X104.159 Y109.179 F7800.000
G1 X90.841 Y109.179 E21.59258 F3600.000
G1 X90.841 Y100.821 E22.02924
G1 X104.159 Y100.821 E22.72505
G1 X104.159 Y109.119 E23.15857
G1 X104.787 Y109.807 F7800.000
G1 X90.213 Y109.807 E23.92003 F3600.000
G1 X90.213 Y100.193 E24.42235
G1 X104.787 Y100.193 E25.18381
G1 X104.787 Y109.747 E25.68299
G1 X105.280 Y110.300 F7800.000
G1 X89.720 Y110.300 E26.14499 F1800.000
G1 X89.720 Y99.700 E26.45972
G1 X105.280 Y99.700 E26.92172
G1 X105.280 Y110.240 E27.23467
G1 X104.934 Y110.100 F7800.000
G1 X103.472 Y108.798 F7800.000
G1 X103.778 Y108.492 E27.25838 F1200.000
G1 X103.778 Y107.561 E27.30929
G1 X102.541 Y108.798 E27.40500
G1 X101.611 Y108.798 E27.45590
G1 X103.778 Y106.631 E27.62360
G1 X103.778 Y105.700 E27.67451
G1 X100.680 Y108.798 E27.91420
G1 X99.750 Y108.798 E27.96510
G1 X103.778 Y104.770 E28.27678
G1 X103.778 Y103.839 E28.32769
G1 X98.819 Y108.798 E28.71135
G1 X97.889 Y108.798 E28.76226
G1 X103.778 Y102.909 E29.21792
G1 X103.778 Y101.978 E29.26882
G1 X96.958 Y108.798 E29.79647
G1 X96.028 Y108.798 E29.84738
G1 X103.624 Y101.202 E30.43511
G1 X102.694 Y101.202 E30.48601
G1 X95.097 Y108.798 E31.07374
G1 X94.167 Y108.798 E31.12465
G1 X101.763 Y101.202 E31.71238
G1 X100.833 Y101.202 E31.76328
G1 X93.237 Y108.798 E32.35101
G1 X92.306 Y108.798 E32.40192
G1 X99.902 Y101.202 E32.98965
G1 X98.972 Y101.202 E33.04055
G1 X91.376 Y108.798 E33.62828
G1 X91.222 Y108.022 E33.67159
G1 X98.042 Y101.202 E34.19924
G1 X97.111 Y101.202 E34.25015
G1 X91.222 Y107.091 E34.70580
G1 X91.222 Y106.161 E34.75671
G1 X96.181 Y101.202 E35.14038
G1 X95.250 Y101.202 E35.19128
G1 X91.222 Y105.230 E35.50296
G1 X91.222 Y104.300 E35.55386
G1 X94.320 Y101.202 E35.79355
G1 X93.389 Y101.202 E35.84446
G1 X91.222 Y103.369 E36.01215
G1 X91.222 Y102.439 E36.06306
G1 X92.459 Y101.202 E36.15877
G1 X91.528 Y101.202 E36.20967
G1 X91.222 Y101.508 E36.23339
G1 Z0.650 F7800.000
G1 X104.148 Y109.179 F7800.000
G1 X90.852 Y109.179 E36.92801 F3600.000
G1 X90.852 Y100.821 E37.36467
G1 X104.148 Y100.821 E38.05929
G1 X104.148 Y109.119 E38.49281
G1 X104.776 Y109.807 F7800.000
G1 X90.224 Y109.807 E39.25309 F3600.000
G1 X90.224 Y100.193 E39.75540
G1 X104.776 Y100.193 E40.51567
G1 X104.776 Y109.747 E41.01485
G1 X105.269 Y110.300 F7800.000
G1 X89.731 Y110.300 E41.47618 F1800.000
G1 X89.731 Y99.700 E41.79090
G1 X105.269 Y99.700 E42.25223
G1 X105.269 Y110.240 E42.56518
G1 X104.922 Y110.100 F7800.000
G1 X103.767 Y101.508 F7800.000
G1 X103.460 Y101.202 E42.58887 F1200.000
G1 X102.531 Y101.202 E42.63966
G1 X103.767 Y102.438 E42.73517
G1 X103.767 Y103.367 E42.78596
G1 X101.602 Y101.202 E42.95329
G1 X100.672 Y101.202 E43.00408
G1 X103.767 Y104.297 E43.24324
G1 X103.767 Y105.226 E43.29402
G1 X99.743 Y101.202 E43.60501
G1 X98.813 Y101.202 E43.65579
G1 X103.767 Y106.155 E44.03860
G1 X103.767 Y107.085 E44.08938
G1 X97.884 Y101.202 E44.54401
G1 X96.955 Y101.202 E44.59480
G1 X103.767 Y108.014 E45.12125
G1 X103.622 Y108.798 E45.16482
G1 X96.025 Y101.202 E45.75187
G1 X95.096 Y101.202 E45.80266
G1 X102.692 Y108.798 E46.38970
G1 X101.763 Y108.798 E46.44049
G1 X94.166 Y101.202 E47.02753
G1 X93.237 Y101.202 E47.07832
G1 X100.834 Y108.798 E47.66537
G1 X99.904 Y108.798 E47.71615
G1 X92.308 Y101.202 E48.30320
G1 X91.378 Y101.202 E48.35399
G1 X98.975 Y108.798 E48.94103
G1 X98.045 Y108.798 E48.99182
G1 X91.233 Y101.986 E49.51827
G1 X91.233 Y102.915 E49.56905
G1 X97.116 Y108.798 E50.02368
G1 X96.187 Y108.798 E50.07446
G1 X91.233 Y103.845 E50.45727
G1 X91.233 Y104.774 E50.50805
G1 X95.257 Y108.798 E50.81903
G1 X94.328 Y108.798 E50.86982
G1 X91.233 Y105.703 E51.10898
G1 X91.233 Y106.633 E51.15976
G1 X93.398 Y108.798 E51.32710
G1 X92.469 Y108.798 E51.37789
G1 X91.233 Y107.562 E51.47340
G1 X91.233 Y108.492 E51.52418
G1 X91.540 Y108.798 E51.54787
M106 S255
G1 Z0.850 F7800.000
G1 X104.129 Y109.179 F7800.000
G1 X90.871 Y109.179 E52.24055 F3265.037
G1 X90.871 Y100.821 E52.67721
G1 X104.129 Y100.821 E53.36989
G1 X104.129 Y109.119 E53.80342
G1 X104.757 Y109.807 F7800.000
G1 X90.243 Y109.807 E54.56175 F3265.037
G1 X90.243 Y100.193 E55.06407
G1 X104.757 Y100.193 E55.82240
G1 X104.757 Y109.747 E56.32158
G1 X105.250 Y110.300 F7800.000
G1 X89.750 Y110.300 E56.78180 F1632.519
G1 X89.750 Y99.700 E57.09653
G1 X105.250 Y99.700 E57.55675
G1 X105.250 Y110.240 E57.86970
G1 X104.904 Y110.100 F7800.000
G1 X103.595 Y108.645 F7800.000
G1 X103.226 Y108.645 E57.88899 F4353.383
G1 X103.190 Y108.511 E57.89625
G1 X103.595 Y108.106 E57.92618
G1 X103.595 Y108.645 E57.95436
G1 X103.595 Y107.217 F7800.000
G1 X102.746 Y108.066 E58.01712 F4353.383
G1 X102.045 Y107.879 E58.05502
G1 X101.279 Y108.645 E58.11164
G1 X100.390 Y108.645 E58.15807
G1 X101.601 Y107.434 E58.24751
G1 X101.413 Y106.734 E58.28542
G1 X102.695 Y105.451 E58.38018
G1 X103.396 Y105.639 E58.41808
G1 X103.595 Y105.440 E58.43278
G1 X103.595 Y107.217 E58.52563
G1 X100.049 Y108.645 F7800.000
G1 X99.501 Y108.645 E58.55426 F4353.383
G1 X99.617 Y108.529 E58.56282
G1 X100.049 Y108.645 E58.58620
G1 X100.286 Y102.529 F7800.000
G1 X100.474 Y103.230 E58.62410 F4353.383
G1 X99.191 Y104.512 E58.71887
G1 X98.491 Y104.324 E58.75677
G1 X97.208 Y105.607 E58.85153
G1 X97.396 Y106.308 E58.88944
G1 X96.113 Y107.590 E58.98420
G1 X95.412 Y107.402 E59.02210
G1 X94.170 Y108.645 E59.11391
G1 X92.393 Y108.645 E59.20675
G1 X92.985 Y108.053 E59.25049
G1 X93.686 Y108.241 E59.28840
G1 X94.968 Y106.958 E59.38316
G1 X94.780 Y106.257 E59.42106
G1 X96.063 Y104.975 E59.51583
G1 X96.764 Y105.163 E59.55373
G1 X98.046 Y103.880 E59.64849
G1 X97.859 Y103.179 E59.68640
G1 X99.141 Y101.897 E59.78116
G1 X99.842 Y102.084 E59.81906
G1 X100.571 Y101.355 E59.87295
G1 X101.460 Y101.355 E59.91938
G1 X100.286 Y102.529 E60.00609
G1 X98.697 Y101.452 F7800.000
G1 X97.414 Y102.735 E60.10086 F4353.383
G1 X96.713 Y102.547 E60.13876
G1 X95.431 Y103.830 E60.23352
G1 X95.619 Y104.531 E60.27143
G1 X94.336 Y105.813 E60.36619
G1 X93.635 Y105.625 E60.40409
G1 X92.353 Y106.908 E60.49885
G1 X92.541 Y107.609 E60.53676
G1 X91.504 Y108.645 E60.61333
G1 X91.405 Y108.645 E60.61852
G1 X91.405 Y106.329 E60.73953
G1 X91.908 Y106.464 E60.76677
G1 X93.191 Y105.181 E60.86153
G1 X93.003 Y104.480 E60.89943
G1 X94.286 Y103.198 E60.99420
G1 X94.987 Y103.385 E61.03210
G1 X96.269 Y102.103 E61.12686
G1 X96.081 Y101.402 E61.16477
G1 X96.128 Y101.355 E61.16824
G1 X98.671 Y101.355 E61.30106
G1 X98.697 Y101.452 E61.30633
G1 X102.269 Y101.434 F7800.000
G1 X101.975 Y101.355 E61.32225 F4353.383
G1 X102.348 Y101.355 E61.34175
G1 X102.269 Y101.434 E61.34758
G1 X103.595 Y103.090 F7800.000
G1 X103.346 Y103.023 E61.36106 F4353.383
G1 X102.063 Y104.306 E61.45583
G1 X102.251 Y105.007 E61.49373
G1 X100.969 Y106.289 E61.58849
G1 X100.268 Y106.101 E61.62640
G1 X98.985 Y107.384 E61.72116
G1 X99.173 Y108.085 E61.75906
G1 X98.613 Y108.645 E61.80045
G1 X96.721 Y108.645 E61.89928
G1 X96.558 Y108.034 E61.93230
G1 X97.840 Y106.752 E62.02706
G1 X98.541 Y106.940 E62.06497
G1 X99.823 Y105.657 E62.15973
G1 X99.636 Y104.956 E62.19763
G1 X100.918 Y103.674 E62.29239
G1 X101.619 Y103.862 E62.33030
G1 X102.902 Y102.579 E62.42506
G1 X102.714 Y101.878 E62.46296
G1 X103.237 Y101.355 E62.50162
G1 X103.595 Y101.355 E62.52033
G1 X103.595 Y103.090 E62.61098
G1 X93.654 Y102.053 F7800.000
G1 X93.841 Y102.753 E62.64888 F4353.383
G1 X92.559 Y104.036 E62.74364
G1 X91.858 Y103.848 E62.78155
G1 X91.405 Y104.301 E62.81504
G1 X91.405 Y102.524 E62.90788
G1 X92.509 Y101.420 E62.98943
G1 X93.209 Y101.608 E63.02734
G1 X93.463 Y101.355 E63.04604
G1 X94.351 Y101.355 E63.09247
G1 X93.654 Y102.053 E63.14400
G1 X91.405 Y101.636 F7800.000
G1 X91.405 Y101.355 E63.15866 F4353.383
G1 X91.685 Y101.355 E63.17332
G1 X91.405 Y101.636 E63.19405
G1 Z1.050 F7800.000
G1 X104.095 Y109.179 F7800.000
G1 X90.905 Y109.179 E63.88319 F3264.663
G1 X90.905 Y100.821 E64.31985
G1 X104.095 Y100.821 E65.00899
G1 X104.095 Y109.119 E65.44252
G1 X104.724 Y109.807 F7800.000
G1 X90.276 Y109.807 E66.19732 F3264.663
G1 X90.276 Y100.193 E66.69963
G1 X104.724 Y100.193 E67.45443
G1 X104.724 Y109.747 E67.95360
G1 X105.216 Y110.300 F7800.000
G1 X89.784 Y110.300 E68.41182 F1632.331
G1 X89.784 Y99.700 E68.72655
G1 X105.216 Y99.700 E69.18476
G1 X105.216 Y110.240 E69.49771
G1 X104.870 Y110.100 F7800.000
G1 X103.561 Y103.081 F7800.000
G1 X103.561 Y101.355 E69.58788 F4352.884
G1 X102.899 Y101.355 E69.62249
G1 X103.346 Y103.023 E69.71273
G1 X103.561 Y103.081 E69.72438
G1 X102.269 Y101.434 F7800.000
G1 X101.975 Y101.355 E69.74030 F4352.884
G1 X100.947 Y101.355 E69.79399
G1 X100.962 Y101.409 E69.79690
G1 X100.449 Y101.922 E69.83480
G1 X100.918 Y103.674 E69.92956
G1 X101.619 Y103.862 E69.96747
G1 X102.088 Y105.614 E70.06223
G1 X101.575 Y106.127 E70.10014
G1 X102.045 Y107.879 E70.19490
G1 X102.746 Y108.066 E70.23280
G1 X102.901 Y108.645 E70.26409
G1 X103.551 Y108.645 E70.29808
G1 X103.353 Y107.904 E70.33817
G1 X103.561 Y107.695 E70.35358
G1 X103.561 Y106.255 E70.42883
G1 X103.396 Y105.639 E70.46215
G1 X102.695 Y105.451 E70.50006
G1 X102.226 Y103.699 E70.59482
G1 X102.739 Y103.186 E70.63272
G1 X102.269 Y101.434 E70.72748
G1 X99.141 Y101.897 F7800.000
G1 X98.996 Y101.355 E70.75678 F4352.884
G1 X98.345 Y101.355 E70.79076
G1 X98.534 Y102.059 E70.82885
G1 X98.021 Y102.572 E70.86676
G1 X98.491 Y104.324 E70.96152
G1 X99.191 Y104.512 E70.99942
G1 X99.661 Y106.264 E71.09419
G1 X99.148 Y106.777 E71.13209
G1 X99.617 Y108.529 E71.22685
G1 X100.049 Y108.645 E71.25023
G1 X100.949 Y108.645 E71.29724
G1 X100.925 Y108.554 E71.30214
G1 X101.438 Y108.041 E71.34005
G1 X100.969 Y106.289 E71.43481
G1 X100.268 Y106.101 E71.47271
G1 X99.798 Y104.349 E71.56748
G1 X100.311 Y103.836 E71.60538
G1 X99.842 Y102.084 E71.70014
G1 X99.141 Y101.897 E71.73805
G1 X96.713 Y102.547 F7800.000
G1 X96.394 Y101.355 E71.80252 F4352.884
G1 X95.744 Y101.355 E71.83651
G1 X96.107 Y102.710 E71.90978
G1 X95.593 Y103.223 E71.94769
G1 X96.063 Y104.975 E72.04245
G1 X96.764 Y105.163 E72.08035
G1 X97.233 Y106.915 E72.17511
G1 X96.720 Y107.428 E72.21302
G1 X97.046 Y108.645 E72.27886
G1 X98.998 Y108.645 E72.38082
G1 X98.541 Y106.940 E72.47305
G1 X97.840 Y106.752 E72.51095
G1 X97.371 Y105.000 E72.60571
G1 X97.884 Y104.487 E72.64362
G1 X97.414 Y102.735 E72.73838
G1 X96.713 Y102.547 E72.77628
G1 X93.816 Y101.446 F7800.000
G1 X93.907 Y101.355 E72.78297 F4352.884
G1 X92.491 Y101.355 E72.85694
G1 X92.509 Y101.420 E72.86048
G1 X93.209 Y101.608 E72.89839
G1 X93.679 Y103.360 E72.99315
G1 X93.166 Y103.873 E73.03105
G1 X93.635 Y105.625 E73.12581
G1 X94.336 Y105.813 E73.16372
G1 X94.806 Y107.565 E73.25848
G1 X94.293 Y108.078 E73.29639
G1 X94.444 Y108.645 E73.32705
G1 X96.396 Y108.645 E73.42900
G1 X96.113 Y107.590 E73.48605
G1 X95.412 Y107.402 E73.52395
G1 X94.943 Y105.650 E73.61871
G1 X95.456 Y105.137 E73.65662
G1 X94.987 Y103.385 E73.75138
G1 X94.286 Y103.198 E73.78928
G1 X93.816 Y101.446 E73.88404
G1 X91.902 Y101.583 F7800.000
G1 X91.841 Y101.355 E73.89638 F4352.884
G1 X91.439 Y101.355 E73.91737
G1 X91.439 Y102.046 E73.95348
G1 X91.902 Y101.583 E73.98768
G1 X91.858 Y103.848 F7800.000
G1 X91.439 Y102.283 E74.07234 F4352.884
G1 X91.439 Y106.338 E74.28419
G1 X91.908 Y106.464 E74.30959
G1 X92.378 Y108.216 E74.40435
G1 X91.949 Y108.645 E74.43608
G1 X93.794 Y108.645 E74.53249
G1 X93.686 Y108.241 E74.55436
G1 X92.985 Y108.053 E74.59226
G1 X92.515 Y106.301 E74.68702
G1 X93.028 Y105.788 E74.72493
G1 X92.559 Y104.036 E74.81969
G1 X91.858 Y103.848 E74.85759
G1 Z1.250 F7800.000
G1 X104.061 Y109.179 F7800.000
G1 X90.939 Y109.179 E75.54320 F3291.926
G1 X90.939 Y100.821 E75.97986
G1 X104.061 Y100.821 E76.66547
G1 X104.061 Y109.119 E77.09900
G1 X104.690 Y109.807 F7800.000
G1 X90.310 Y109.807 E77.85026 F3291.926
G1 X90.310 Y100.193 E78.35257
G1 X104.690 Y100.193 E79.10383
G1 X104.690 Y109.747 E79.60301
G1 X105.182 Y110.300 F7800.000
G1 X89.818 Y110.300 E80.05922 F1645.963
G1 X89.818 Y99.700 E80.37394
G1 X105.182 Y99.700 E80.83015
G1 X105.182 Y110.240 E81.14310
G1 X104.836 Y110.100 F7800.000
G1 X103.527 Y102.747 F7800.000
G1 X102.902 Y102.579 E81.17695 F4389.235
G1 X102.714 Y101.878 E81.21485
G1 X100.962 Y101.409 E81.30961
G1 X100.449 Y101.922 E81.34752
G1 X98.697 Y101.452 E81.44228
G1 X98.671 Y101.355 E81.44754
G1 X103.527 Y101.355 E81.70128
