; generated by Slic3r 1.2.9 on 2016-12-18 at 15:19:39

; external perimeters extrusion width = 0.40mm
; perimeters extrusion width = 0.67mm
; infill extrusion width = 0.67mm
; solid infill extrusion width = 0.67mm
; top infill extrusion width = 0.67mm

M107
M190 S70 ; set bed temperature
M104 S200 ; set temperature
G28 ; home all axes
G1 Z5 F5000 ; lift nozzle

M109 S200 ; wait for temperature to be reached
G21 ; set units to millimeters
G90 ; use absolute coordinates
M82 ; use absolute distances for extrusion
G92 E0
G1 Z0.250 F7800.000
G1 E-2.00000 F2400.00000
G92 E0
G1 X31.839 Y85.882 F7800.000
G1 E2.00000 F2400.00000
G1 X35.000 Y85.054 E2.15162 F1500.000
G1 X160.000 Y85.054 E7.95070
G1 X162.227 Y85.451 E8.05565
G1 X164.180 Y86.592 E8.16059 F1500.000
G1 X165.618 Y88.339 E8.26554
G1 X166.446 Y91.500 E8.41716
G1 X166.446 Y118.500 E9.66976
G1 X166.049 Y120.727 E9.77471
G1 X164.908 Y122.680 E9.87965
G1 X163.161 Y124.118 E9.98459
G1 X160.000 Y124.946 E10.13622
G1 X35.000 Y124.946 E15.93530
G1 X32.773 Y124.549 E16.04024
G1 X30.820 Y123.408 E16.14519
G1 X29.382 Y121.661 E16.25013
G1 X28.554 Y118.500 E16.40175
G1 X28.554 Y91.500 E17.65436
G1 X28.951 Y89.273 E17.75930
G1 X30.092 Y87.320 E17.86425
G1 X31.792 Y85.920 E17.96641
G1 E15.96641 F2400.00000
G92 E0
G1 X87.285 Y111.327 F7800.000
G1 E2.00000 F2400.00000
G1 X86.060 Y111.982 E2.06445 F1500.000
G1 X85.617 Y112.172 E2.08682
G1 X85.148 Y112.329 E2.10977
G1 X84.628 Y112.458 E2.13463
G1 X84.066 Y112.537 E2.16098
G1 X83.475 Y112.562 E2.18839
G1 X82.954 Y112.533 E2.21259
G1 X82.442 Y112.442 E2.23674
G1 X81.940 Y112.286 E2.26114
G1 X81.473 Y112.060 E2.28520
G1 X81.046 Y111.774 E2.30903
G1 X80.664 Y111.428 E2.33295
G1 X80.335 Y111.034 E2.35677
G1 X80.063 Y110.590 E2.38094
G1 X79.846 Y110.099 E2.40583
G1 X79.698 Y109.574 E2.43113
G1 X79.613 Y109.033 E2.45652
G1 X79.585 Y108.482 E2.48215
G1 X79.602 Y107.967 E2.50603
G1 X79.651 Y107.485 E2.52853
G1 X79.738 Y107.010 E2.55091
G1 X79.876 Y106.551 E2.57317
G1 X80.060 Y106.120 E2.59492
G1 X80.289 Y105.720 E2.61629
G1 X80.557 Y105.355 E2.63727
G1 X80.858 Y105.022 E2.65810
G1 X81.199 Y104.711 E2.67952
G1 X81.570 Y104.437 E2.70092
G1 X81.959 Y104.192 E2.72225
G1 X82.994 Y103.635 E2.77677
G1 X83.409 Y103.363 E2.79979
G1 X83.595 Y103.192 E2.81153
G1 X83.679 Y103.064 E2.81864
G1 X83.730 Y102.637 E2.83856
G1 X83.697 Y102.297 E2.85442
G1 X83.636 Y102.120 E2.86310
G1 X83.582 Y102.043 E2.86745
G1 X83.507 Y101.990 E2.87175
G1 X83.299 Y101.923 E2.88187
G1 X82.910 Y101.889 E2.89996
G1 X82.657 Y101.908 E2.91176
G1 X82.155 Y102.013 E2.93555
G1 X81.856 Y102.106 E2.95006
G1 X81.580 Y102.221 E2.96392
G1 X79.466 Y103.348 E3.07507
G1 X79.466 Y99.360 E3.26010
G1 X80.411 Y98.831 E3.31032
G1 X80.881 Y98.646 E3.33378
G1 X81.367 Y98.517 E3.35710
G1 X81.871 Y98.423 E3.38086
G1 X82.392 Y98.366 E3.40517
G1 X82.916 Y98.349 E3.42949
G1 X83.510 Y98.377 E3.45710
G1 X84.078 Y98.468 E3.48377
G1 X84.627 Y98.629 E3.51031
G1 X85.150 Y98.870 E3.53705
G1 X85.621 Y99.180 E3.56318
G1 X86.035 Y99.551 E3.58899
G1 X86.392 Y99.984 E3.61503
G1 X86.685 Y100.468 E3.64126
G1 X86.908 Y100.990 E3.66760
G1 X87.104 Y100.970 E3.67674
G1 X87.603 Y98.512 E3.79310
G1 X90.778 Y98.512 E3.94040
G1 X91.320 Y100.933 E4.05547
G1 X91.535 Y100.932 E4.06547
G1 X92.055 Y98.512 E4.18028
G1 X95.264 Y98.512 E4.32916
G1 X95.905 Y101.634 E4.47701
G1 X96.111 Y101.645 E4.48658
G1 X96.292 Y101.087 E4.51379
G1 X96.566 Y100.494 E4.54411
G1 X96.904 Y99.961 E4.57341
G1 X97.303 Y99.488 E4.60207
G1 X97.767 Y99.085 E4.63060
G1 X98.289 Y98.763 E4.65906
G1 X98.855 Y98.529 E4.68747
G1 X99.474 Y98.389 E4.71692
G1 X100.042 Y98.349 E4.74335
G1 X100.810 Y98.392 E4.77904
G1 X101.279 Y98.474 E4.80112
G1 X101.923 Y98.662 E4.83221
G1 X102.360 Y98.861 E4.85452
G1 X103.320 Y99.390 E4.90535
G1 X103.320 Y100.348 E4.94977
G1 X103.513 Y100.404 E4.95909
G1 X103.795 Y99.961 E4.98345
G1 X104.192 Y99.488 E5.01208
G1 X104.658 Y99.085 E5.04069
G1 X105.179 Y98.763 E5.06910
G1 X105.745 Y98.529 E5.09750
G1 X106.363 Y98.389 E5.12692
G1 X106.933 Y98.349 E5.15340
G1 X107.699 Y98.392 E5.18903
G1 X108.169 Y98.474 E5.21117
G1 X108.811 Y98.662 E5.24220
G1 X109.250 Y98.861 E5.26453
G1 X110.210 Y99.390 E5.31539
G1 X110.210 Y100.033 E5.34519
G1 X110.420 Y100.079 E5.35517
G1 X110.582 Y99.729 E5.37305
G1 X110.832 Y99.350 E5.39411
G1 X111.134 Y99.017 E5.41498
G1 X111.506 Y98.737 E5.43657
G1 X111.897 Y98.552 E5.45664
G1 X112.270 Y98.437 E5.47478
G1 X112.650 Y98.369 E5.49265
G1 X113.017 Y98.349 E5.50973
G1 X113.356 Y98.363 E5.52547
G1 X113.791 Y98.430 E5.54587
G1 X114.221 Y98.537 E5.56645
G1 X115.300 Y98.988 E5.62067
G1 X115.300 Y102.371 E5.77762
G1 X113.520 Y101.851 E5.86363
G1 X113.501 Y102.266 E5.88290
G1 X113.501 Y106.183 E6.06465
G1 X115.245 Y106.183 E6.14556
G1 X115.245 Y109.510 E6.29988
G1 X113.501 Y109.510 E6.38079
G1 X113.501 Y111.497 E6.47297
G1 X110.820 Y111.497 E6.59733
G1 X110.232 Y109.271 E6.70413
G1 X109.151 Y108.623 E6.76259
G1 X108.857 Y108.904 E6.78146
G1 X108.393 Y109.221 E6.80751
G1 X107.867 Y109.468 E6.83451
G1 X107.295 Y109.617 E6.86192
G1 X106.699 Y109.666 E6.88966
G1 X106.091 Y109.612 E6.91795
G1 X105.506 Y109.453 E6.94609
G1 X104.963 Y109.192 E6.97402
G1 X104.470 Y108.846 E7.00197
G1 X104.035 Y108.411 E7.03053
G1 X103.679 Y107.917 E7.05879
G1 X103.378 Y107.379 E7.08740
G1 X103.243 Y107.045 E7.10408
G1 X103.003 Y107.589 E7.13164
G1 X102.716 Y108.074 E7.15778
G1 X102.375 Y108.515 E7.18366
G1 X101.967 Y108.904 E7.20982
G1 X101.503 Y109.221 E7.23590
G1 X100.977 Y109.468 E7.26287
G1 X100.405 Y109.617 E7.29028
G1 X99.809 Y109.666 E7.31802
G1 X99.201 Y109.612 E7.34631
G1 X98.616 Y109.453 E7.37444
G1 X98.073 Y109.192 E7.40238
G1 X97.355 Y108.688 E7.44312
G1 X97.523 Y109.510 E7.48204
G1 X94.004 Y109.510 E7.64533
G1 X93.644 Y107.567 E7.73697
G1 X93.425 Y107.564 E7.74714
G1 X92.999 Y109.510 E7.83954
G1 X89.936 Y109.510 E7.98162
G1 X89.491 Y107.572 E8.07387
G1 X89.272 Y107.577 E8.08401
G1 X88.929 Y109.510 E8.17507
G1 X86.674 Y109.510 E8.27967
G1 X87.266 Y111.270 E8.36582
G1 X86.742 Y111.111 F7800.000
G1 X85.867 Y111.579 E8.41186 F1500.000
G1 X85.458 Y111.754 E8.43249
G1 X85.023 Y111.900 E8.45378
G1 X84.543 Y112.020 E8.47673
G1 X84.025 Y112.092 E8.50099
G1 X83.478 Y112.115 E8.52638
G1 X83.006 Y112.089 E8.54833
G1 X82.548 Y112.008 E8.56991
G1 X82.104 Y111.869 E8.59146
G1 X81.695 Y111.672 E8.61255
G1 X81.321 Y111.421 E8.63342
G1 X80.986 Y111.118 E8.65437
G1 X80.699 Y110.773 E8.67522
G1 X80.459 Y110.382 E8.69650
G1 X80.267 Y109.947 E8.71854
G1 X80.135 Y109.478 E8.74115
G1 X80.057 Y108.988 E8.76420
G1 X80.032 Y108.478 E8.78788
G1 X80.048 Y107.997 E8.81021
G1 X80.093 Y107.547 E8.83117
G1 X80.172 Y107.115 E8.85155
G1 X80.296 Y106.703 E8.87151
G1 X80.460 Y106.319 E8.89091
G1 X80.663 Y105.964 E8.90989
G1 X80.903 Y105.638 E8.92863
G1 X81.175 Y105.337 E8.94743
G1 X81.482 Y105.056 E8.96677
G1 X81.821 Y104.806 E8.98632
G1 X82.184 Y104.578 E9.00619
G1 X83.222 Y104.019 E9.06088
G1 X83.675 Y103.723 E9.08602
G1 X83.820 Y103.602 E9.09474
G1 X84.020 Y103.370 E9.10896
G1 X84.114 Y103.171 E9.11917
G1 X84.170 Y102.812 E9.13605
G1 X84.177 Y102.624 E9.14477
G1 X84.137 Y102.202 E9.16441
G1 X84.038 Y101.915 E9.17852
G1 X83.902 Y101.723 E9.18942
G1 X83.708 Y101.586 E9.20043
G1 X83.388 Y101.483 E9.21603
G1 X82.913 Y101.442 E9.23813
G1 X82.594 Y101.465 E9.25297
G1 X82.042 Y101.581 E9.27913
G1 X81.704 Y101.686 E9.29558
G1 X81.389 Y101.817 E9.31139
G1 X79.913 Y102.604 E9.38903
G1 X79.913 Y99.622 E9.52740
G1 X80.603 Y99.235 E9.56409
G1 X81.021 Y99.070 E9.58495
G1 X81.465 Y98.952 E9.60629
G1 X81.936 Y98.865 E9.62847
G1 X82.423 Y98.812 E9.65122
G1 X82.913 Y98.796 E9.67394
G1 X83.464 Y98.821 E9.69954
G1 X83.979 Y98.904 E9.72375
G1 X84.470 Y99.048 E9.74747
G1 X84.933 Y99.261 E9.77113
G1 X85.347 Y99.534 E9.79415
G1 X85.712 Y99.861 E9.81687
G1 X86.027 Y100.243 E9.83984
G1 X86.286 Y100.672 E9.86308
G1 X86.486 Y101.138 E9.88662
G1 X86.633 Y101.641 E9.91095
G1 X86.720 Y102.178 E9.93618
G1 X86.749 Y102.738 E9.96217
G1 X86.730 Y103.237 E9.98535
G1 X86.673 Y103.701 E10.00703
G1 X86.572 Y104.133 E10.02761
G1 X86.430 Y104.525 E10.04694
G1 X86.249 Y104.890 E10.06584
G1 X86.026 Y105.231 E10.08478
G1 X85.765 Y105.535 E10.10333
G1 X85.478 Y105.808 E10.12173
G1 X85.155 Y106.061 E10.14076
G1 X84.473 Y106.487 E10.17805
G1 X83.494 Y107.016 E10.22969
G1 X83.077 Y107.293 E10.25292
G1 X82.836 Y107.522 E10.26834
G1 X82.707 Y107.734 E10.27984
G1 X82.667 Y107.850 E10.28552
G1 X82.602 Y108.235 E10.30367
G1 X82.596 Y108.427 E10.31256
G1 X82.629 Y108.778 E10.32892
G1 X82.710 Y109.014 E10.34048
G1 X82.826 Y109.180 E10.34987
G1 X82.976 Y109.297 E10.35870
G1 X83.186 Y109.376 E10.36913
G1 X83.512 Y109.411 E10.38431
G1 X83.782 Y109.397 E10.39685
G1 X84.062 Y109.354 E10.41002
G1 X84.340 Y109.280 E10.42336
G1 X84.611 Y109.180 E10.43674
G1 X86.029 Y108.497 E10.50976
G1 X87.968 Y98.959 E10.96134
G1 X90.421 Y98.959 E11.07514
G1 X91.328 Y103.018 E11.26811
G1 X91.544 Y103.017 E11.27811
G1 X92.415 Y98.959 E11.47067
G1 X94.900 Y98.959 E11.58594
G1 X96.042 Y104.518 E11.84926
G1 X96.287 Y104.489 E11.86068
G1 X96.268 Y103.958 E11.88536
G1 X96.295 Y103.192 E11.92090
G1 X96.377 Y102.497 E11.95337
G1 X96.514 Y101.849 E11.98409
G1 X96.708 Y101.251 E12.01328
G1 X96.959 Y100.708 E12.04100
G1 X97.265 Y100.225 E12.06752
G1 X97.622 Y99.803 E12.09317
G1 X98.032 Y99.446 E12.11840
G1 X98.493 Y99.162 E12.14351
G1 X98.990 Y98.956 E12.16850
G1 X99.540 Y98.832 E12.19462
G1 X100.054 Y98.795 E12.21854
G1 X100.754 Y98.835 E12.25107
G1 X101.178 Y98.910 E12.27104
G1 X101.767 Y99.081 E12.29950
G1 X102.160 Y99.260 E12.31952
G1 X102.873 Y99.654 E12.35733
G1 X102.873 Y102.511 E12.48990
G1 X101.396 Y101.724 E12.56755
G1 X101.142 Y101.618 E12.58033
G1 X100.714 Y101.501 E12.60092
G1 X100.420 Y101.458 E12.61469
G1 X100.111 Y101.442 E12.62906
G1 X99.713 Y101.497 E12.64769
G1 X99.453 Y101.629 E12.66126
G1 X99.235 Y101.864 E12.67609
G1 X99.044 Y102.264 E12.69667
G1 X98.874 Y103.005 E12.73192
G1 X103.207 Y103.005 E12.93292
G1 X103.266 Y102.497 E12.95665
G1 X103.405 Y101.848 E12.98740
G1 X103.598 Y101.251 E13.01653
G1 X103.848 Y100.708 E13.04427
G1 X104.155 Y100.225 E13.07081
G1 X104.510 Y99.803 E13.09642
G1 X104.923 Y99.446 E13.12172
G1 X105.383 Y99.162 E13.14681
G1 X105.880 Y98.956 E13.17178
G1 X106.429 Y98.832 E13.19786
G1 X106.944 Y98.795 E13.22183
G1 X107.643 Y98.835 E13.25431
G1 X108.068 Y98.910 E13.27433
G1 X108.656 Y99.081 E13.30274
G1 X109.049 Y99.260 E13.32280
G1 X109.763 Y99.654 E13.36062
G1 X109.763 Y102.510 E13.49314
G1 X108.285 Y101.724 E13.57080
G1 X108.032 Y101.618 E13.58356
G1 X107.604 Y101.501 E13.60413
G1 X107.310 Y101.458 E13.61790
G1 X107.001 Y101.442 E13.63227
G1 X106.603 Y101.497 E13.65090
G1 X106.343 Y101.629 E13.66447
G1 X106.125 Y101.864 E13.67930
G1 X105.934 Y102.264 E13.69988
G1 X105.764 Y103.005 E13.73513
G1 X110.078 Y103.005 E13.93527
G1 X110.078 Y104.614 E14.00993
G1 X110.056 Y105.222 E14.03817
G1 X109.987 Y105.814 E14.06579
G1 X109.871 Y106.378 E14.09251
G1 X109.792 Y106.630 E14.10476
G1 X110.522 Y106.630 E14.13860
G1 X110.522 Y102.229 E14.34274
G1 X110.537 Y101.687 E14.36790
G1 X110.586 Y101.185 E14.39130
G1 X110.671 Y100.725 E14.41304
G1 X110.803 Y100.313 E14.43308
G1 X110.973 Y99.947 E14.45180
G1 X111.185 Y99.625 E14.46971
G1 X111.437 Y99.348 E14.48704
G1 X111.738 Y99.121 E14.50455
G1 X112.059 Y98.969 E14.52103
G1 X112.376 Y98.871 E14.53643
G1 X112.701 Y98.813 E14.55175
G1 X113.020 Y98.795 E14.56656
G1 X113.313 Y98.808 E14.58015
G1 X113.703 Y98.868 E14.59846
G1 X114.080 Y98.962 E14.61651
G1 X114.853 Y99.285 E14.65538
G1 X114.853 Y101.775 E14.77091
G1 X113.750 Y101.453 E14.82424
G1 X113.394 Y101.390 E14.84103
G1 X113.182 Y101.380 E14.85085
G1 X113.122 Y101.551 E14.85927
G1 X113.074 Y101.841 E14.87290
G1 X113.054 Y102.255 E14.89215
G1 X113.054 Y106.630 E15.09509
G1 X114.798 Y106.630 E15.17600
G1 X114.798 Y109.063 E15.28890
G1 X113.054 Y109.063 E15.36981
G1 X113.054 Y111.050 E15.46199
G1 X111.164 Y111.050 E15.54970
G1 X110.617 Y108.982 E15.64897
G1 X109.548 Y108.340 E15.70682
G1 X109.548 Y107.684 E15.73729
G1 X109.351 Y107.630 E15.74677
G1 X109.236 Y107.823 E15.75720
G1 X108.931 Y108.216 E15.78027
G1 X108.575 Y108.556 E15.80311
G1 X108.171 Y108.832 E15.82581
G1 X107.714 Y109.047 E15.84922
G1 X107.220 Y109.175 E15.87292
G1 X106.700 Y109.218 E15.89712
G1 X106.170 Y109.171 E15.92180
G1 X105.663 Y109.033 E15.94619
G1 X105.190 Y108.806 E15.97054
G1 X104.758 Y108.503 E15.99498
G1 X104.376 Y108.121 E16.02007
G1 X104.056 Y107.677 E16.04548
G1 X103.781 Y107.185 E16.07161
G1 X103.556 Y106.631 E16.09932
G1 X103.381 Y106.026 E16.12855
G1 X103.330 Y105.758 E16.14122
G1 X103.110 Y105.756 E16.15143
G1 X102.982 Y106.378 E16.18086
G1 X102.818 Y106.902 E16.20634
G1 X102.606 Y107.385 E16.23081
G1 X102.346 Y107.823 E16.25443
G1 X102.043 Y108.216 E16.27746
G1 X101.685 Y108.556 E16.30036
G1 X101.281 Y108.833 E16.32310
G1 X100.824 Y109.047 E16.34648
G1 X100.330 Y109.175 E16.37019
G1 X99.810 Y109.218 E16.39438
G1 X99.280 Y109.171 E16.41906
G1 X98.773 Y109.033 E16.44346
G1 X98.300 Y108.806 E16.46780
G1 X97.868 Y108.503 E16.49227
G1 X97.487 Y108.121 E16.51730
G1 X97.166 Y107.677 E16.54271
G1 X96.891 Y107.185 E16.56886
G1 X96.785 Y106.923 E16.58199
G1 X96.551 Y106.994 E16.59333
G1 X96.976 Y109.063 E16.69135
G1 X94.375 Y109.063 E16.81202
G1 X93.680 Y105.314 E16.98892
G1 X93.461 Y105.311 E16.99908
G1 X92.639 Y109.063 E17.17729
G1 X90.292 Y109.063 E17.28622
G1 X89.435 Y105.336 E17.46364
G1 X89.216 Y105.342 E17.47378
G1 X88.555 Y109.063 E17.64914
G1 X86.053 Y109.063 E17.76521
G1 X86.723 Y111.054 E17.86267
G1 X86.198 Y110.896 F7800.000
G1 X85.673 Y111.177 E17.89029 F1500.000
G1 X85.299 Y111.337 E17.90918
G1 X84.898 Y111.471 E17.92880
G1 X84.458 Y111.581 E17.94985
G1 X83.985 Y111.647 E17.97201
G1 X83.481 Y111.668 E17.99539
G1 X83.057 Y111.645 E18.01509
G1 X82.654 Y111.573 E18.03410
G1 X82.269 Y111.453 E18.05281
G1 X81.917 Y111.283 E18.07091
G1 X81.597 Y111.069 E18.08882
G1 X81.309 Y110.809 E18.10681
G1 X81.062 Y110.512 E18.12470
G1 X80.855 Y110.174 E18.14309
G1 X80.688 Y109.796 E18.16228
G1 X80.571 Y109.383 E18.18220
G1 X80.502 Y108.942 E18.20291
G1 X80.479 Y108.474 E18.22463
G1 X80.493 Y108.026 E18.24541
G1 X80.535 Y107.610 E18.26483
G1 X80.607 Y107.220 E18.28321
G1 X80.717 Y106.856 E18.30088
G1 X80.861 Y106.518 E18.31792
G1 X81.038 Y106.207 E18.33450
G1 X81.249 Y105.921 E18.35101
G1 X81.492 Y105.653 E18.36779
G1 X81.766 Y105.402 E18.38504
G1 X82.073 Y105.175 E18.40273
G1 X82.409 Y104.964 E18.42115
G1 X83.450 Y104.403 E18.47601
G1 X83.942 Y104.082 E18.50326
G1 X84.275 Y103.772 E18.52437
G1 X84.395 Y103.613 E18.53359
G1 X84.486 Y103.450 E18.54225
G1 X84.548 Y103.286 E18.55042
G1 X84.616 Y102.854 E18.57072
G1 X84.624 Y102.610 E18.58203
G1 X84.576 Y102.107 E18.60545
G1 X84.439 Y101.709 E18.62498
G1 X84.222 Y101.402 E18.64244
G1 X83.909 Y101.182 E18.66016
G1 X83.477 Y101.043 E18.68123
G1 X82.916 Y100.994 E18.70734
G1 X82.532 Y101.022 E18.72522
G1 X81.930 Y101.148 E18.75376
G1 X81.551 Y101.266 E18.77216
G1 X81.198 Y101.413 E18.78991
G1 X80.359 Y101.861 E18.83402
G1 X80.359 Y99.883 E18.92575
G1 X80.795 Y99.640 E18.94891
G1 X81.161 Y99.495 E18.96717
G1 X81.564 Y99.388 E18.98652
G1 X82.001 Y99.306 E19.00713
G1 X82.454 Y99.257 E19.02831
G1 X82.910 Y99.242 E19.04944
G1 X83.418 Y99.266 E19.07304
G1 X83.880 Y99.341 E19.09477
G1 X84.313 Y99.467 E19.11568
G1 X84.716 Y99.653 E19.13626
G1 X85.074 Y99.888 E19.15616
G1 X85.389 Y100.171 E19.17579
G1 X85.662 Y100.502 E19.19570
G1 X85.888 Y100.876 E19.21596
G1 X86.065 Y101.289 E19.23682
G1 X86.197 Y101.741 E19.25864
G1 X86.276 Y102.226 E19.28143
G1 X86.302 Y102.740 E19.30535
G1 X86.284 Y103.201 E19.32674
G1 X86.232 Y103.623 E19.34645
G1 X86.143 Y104.006 E19.36471
G1 X86.019 Y104.349 E19.38164
G1 X85.861 Y104.667 E19.39812
G1 X85.668 Y104.963 E19.41447
G1 X85.441 Y105.227 E19.43063
G1 X85.186 Y105.469 E19.44699
G1 X84.898 Y105.695 E19.46395
G1 X84.249 Y106.101 E19.49947
G1 X83.264 Y106.633 E19.55139
G1 X82.806 Y106.937 E19.57687
G1 X82.633 Y107.086 E19.58747
G1 X82.490 Y107.239 E19.59720
G1 X82.381 Y107.391 E19.60589
G1 X82.296 Y107.558 E19.61460
G1 X82.233 Y107.739 E19.62347
