; generated by Slic3r 1.2.9 on 2016-12-24 at 01:06:50

; external perimeters extrusion width = 0.40mm
; perimeters extrusion width = 0.68mm
; infill extrusion width = 1.28mm
; solid infill extrusion width = 0.68mm
; top infill extrusion width = 0.68mm

M107
M190 S65 ; set bed temperature
M104 S200 ; set temperature
G28 ; home all axes
G1 Z5 F5000 ; lift nozzle

M109 S200 ; wait for temperature to be reached
G21 ; set units to millimeters
G90 ; use absolute coordinates
M82 ; use absolute distances for extrusion
G92 E0
G1 Z0.250 F7800.000
G1 E-2.00000 F2400.00000
G92 E0
G1 X72.474 Y84.969 F7800.000
G1 E2.00000 F2400.00000
G1 X72.948 Y84.565 E2.02887 F1500.000
G1 X73.833 Y83.937 E2.07924
G1 X74.245 Y83.670 E2.10199
G1 X75.108 Y83.155 E2.14865
G1 X75.698 Y82.846 E2.17953
G1 X76.694 Y82.397 E2.23022
G1 X86.285 Y78.526 E2.71004
G1 X87.740 Y78.129 E2.78002
G1 X89.137 Y77.934 E2.84544
G1 X89.723 Y77.886 E2.87272
G1 X90.552 Y77.871 E2.91119
G1 X92.005 Y77.936 E2.97867 F1500.000
G1 X117.738 Y79.994 E4.17630
G1 X118.808 Y80.171 E4.22661
G1 X119.676 Y80.391 E4.26815
G1 X120.975 Y80.874 E4.33245
G1 X121.127 Y80.950 E4.34034
G1 X123.643 Y83.193 E4.49672
G1 X124.208 Y84.059 E4.54469
G1 X124.632 Y84.815 E4.58490
G1 X132.146 Y100.631 E5.39725
G1 X132.469 Y101.451 E5.43814
G1 X132.766 Y102.390 E5.48380
G1 X133.033 Y103.678 E5.54486
G1 X133.133 Y104.654 E5.59038
G1 X133.133 Y105.969 E5.65134
G1 X133.033 Y106.945 E5.69686
G1 X132.766 Y108.233 E5.75792
G1 X132.469 Y109.172 E5.80358
G1 X132.134 Y110.017 E5.84577
G1 X124.529 Y125.846 E6.66048
G1 X122.826 Y128.022 E6.78865
G1 X122.144 Y128.586 E6.82971
G1 X119.396 Y129.920 E6.97143
G1 X118.459 Y130.070 E7.01544
G1 X92.219 Y132.016 E8.23615
G1 X90.347 Y132.125 E8.32313
G1 X89.297 Y132.100 E8.37185
G1 X88.105 Y131.974 E8.42748
G1 X87.557 Y131.897 E8.45315
G1 X86.655 Y131.694 E8.49605
G1 X85.802 Y131.436 E8.53739
G1 X85.315 Y131.267 E8.56127
G1 X76.689 Y127.886 E8.99112
G1 X76.289 Y127.713 E9.01133
G1 X75.313 Y127.242 E9.06160
G1 X74.750 Y126.902 E9.09211
G1 X73.338 Y125.947 E9.17118
G1 X72.685 Y125.442 E9.20952
G1 X72.296 Y125.099 E9.23358
G1 X71.840 Y124.655 E9.26308
G1 X70.632 Y123.357 E9.34534
G1 X70.150 Y122.774 E9.38041
G1 X69.682 Y122.135 E9.41716
G1 X69.389 Y121.698 E9.44161
G1 X67.608 Y118.796 E9.59958
G1 X63.863 Y112.677 E9.93241
G1 X63.598 Y112.201 E9.95766
G1 X63.225 Y111.457 E9.99628
G1 X63.006 Y110.969 E10.02108
G1 X62.743 Y110.315 E10.05380
G1 X62.574 Y109.840 E10.07719
G1 X62.337 Y109.067 E10.11470
G1 X62.139 Y108.222 E10.15495
G1 X62.034 Y107.541 E10.18691
G1 X61.890 Y106.365 E10.24188
G1 X61.843 Y105.642 E10.27548
G1 X61.834 Y104.638 E10.32207
G1 X61.902 Y103.641 E10.36844
G1 X62.128 Y102.107 E10.44037
G1 X62.356 Y101.113 E10.48768
G1 X62.750 Y99.932 E10.54542
G1 X63.078 Y99.125 E10.58584
G1 X63.381 Y98.484 E10.61876
G1 X64.131 Y97.116 E10.69110
G1 X69.298 Y88.616 E11.15258
G1 X69.582 Y88.188 E11.17641
G1 X70.221 Y87.304 E11.22702
G1 X70.839 Y86.570 E11.27155
G1 X72.069 Y85.314 E11.35311
G1 X72.428 Y85.008 E11.37500
G1 E9.37500 F2400.00000
G92 E0
G1 X117.130 Y122.121 F7800.000
G1 E2.00000 F2400.00000
G1 X116.158 Y121.666 E2.04979 F1500.000
G1 X115.732 Y121.506 E2.07090
G1 X115.589 Y122.233 E2.10527
G1 X115.052 Y122.163 E2.13040
G1 X114.395 Y121.442 E2.17564
G1 X113.831 Y121.156 E2.20498
G1 X113.813 Y121.545 E2.22306
G1 X113.464 Y121.989 E2.24927
G1 X112.388 Y120.900 E2.32033
G1 X112.017 Y120.770 E2.33857
G1 X111.865 Y121.059 E2.35370
G1 X111.383 Y120.870 E2.37773
G1 X110.998 Y120.299 E2.40967
G1 X110.771 Y120.035 E2.42583
G1 X110.517 Y119.821 E2.44126
G1 X110.063 Y120.114 E2.46631
G1 X109.660 Y119.748 E2.49156
G1 X109.421 Y119.327 E2.51404
G1 X108.965 Y118.619 E2.55309
G1 X108.821 Y118.513 E2.56140
G1 X108.477 Y119.023 E2.58993
G1 X108.109 Y118.281 E2.62833
G1 X107.638 Y117.058 E2.68915
G1 X107.573 Y116.948 E2.69510
G1 X107.310 Y116.972 E2.70734
G1 X106.981 Y116.832 E2.72396
G1 X106.804 Y115.947 E2.76581
G1 X106.741 Y115.395 E2.79161
G1 X106.401 Y114.931 E2.81832
G1 X106.035 Y114.907 E2.83530
G1 X106.345 Y112.254 E2.95922
G1 X106.573 Y111.506 E2.99551
G1 X106.989 Y110.650 E3.03965
G1 X107.167 Y110.372 E3.05496
G1 X108.029 Y109.453 E3.11342
G1 X108.800 Y109.026 E3.15431
G1 X109.134 Y109.120 E3.17044
G1 X110.158 Y110.065 E3.23506
G1 X111.059 Y111.150 E3.30050
G1 X111.929 Y112.330 E3.36849
G1 X112.976 Y113.837 E3.45365
G1 X113.403 Y114.336 E3.48410
G1 X113.807 Y114.934 E3.51758
G1 X114.974 Y117.091 E3.63136
G1 X115.283 Y117.891 E3.67114
G1 X115.461 Y118.501 E3.70064
G1 X115.733 Y118.749 E3.71771
G1 X115.752 Y118.356 E3.73596
G1 X115.675 Y118.010 E3.75239
G1 X115.352 Y117.254 E3.79054
G1 X114.580 Y115.324 E3.88699
G1 X113.682 Y113.523 E3.98034
G1 X112.890 Y112.011 E4.05951
G1 X112.863 Y111.825 E4.06827
G1 X111.811 Y109.894 E4.17029
G1 X111.153 Y108.967 E4.22300
G1 X110.992 Y108.559 E4.24336
G1 X110.462 Y107.617 E4.29352
G1 X111.216 Y106.799 E4.34512
G1 X111.904 Y106.402 E4.38195
G1 X113.469 Y106.289 E4.45474
G1 X114.161 Y106.450 E4.48771
G1 X114.929 Y106.802 E4.52689
G1 X115.454 Y107.086 E4.55462
G1 X115.890 Y107.225 E4.57582
G1 X116.588 Y107.773 E4.61700
G1 X117.067 Y108.192 E4.64655
G1 X117.469 Y108.618 E4.67368
G1 X117.085 Y108.932 E4.69668
G1 X117.242 Y109.149 E4.70909
G1 X118.265 Y110.101 E4.77391
G1 X118.397 Y110.610 E4.79830
G1 X118.008 Y110.755 E4.81756
G1 X117.874 Y110.883 E4.82616
G1 X118.012 Y111.071 E4.83701
G1 X118.720 Y111.841 E4.88549
G1 X118.816 Y112.255 E4.90522
G1 X118.495 Y112.426 E4.92211
G1 X118.280 Y112.477 E4.93234
G1 X118.374 Y112.807 E4.94826
G1 X118.704 Y113.297 E4.97569
G1 X119.104 Y114.086 E5.01674
G1 X118.533 Y114.253 E5.04434
G1 X118.526 Y114.504 E5.05599
G1 X118.906 Y115.326 E5.09802
G1 X119.270 Y116.469 E5.15367
G1 X118.449 Y116.115 E5.19518
G1 X118.520 Y116.658 E5.22060
G1 X118.627 Y117.093 E5.24136
G1 X118.685 Y117.544 E5.26244
G1 X118.479 Y117.924 E5.28254
G1 X118.155 Y117.940 E5.29756
G1 X118.179 Y118.613 E5.32880
G1 X118.301 Y119.695 E5.37929
G1 X118.065 Y120.496 E5.41803
G1 X117.674 Y120.106 E5.44364
G1 X117.610 Y120.662 E5.46959
G1 X117.594 Y121.212 E5.49510
G1 X117.462 Y121.781 E5.52222
G1 X117.172 Y122.078 E5.54147
G1 X116.921 Y122.462 F7800.000
G1 E3.54147 F2400.00000
G92 E0
G1 X119.745 Y114.365 F7800.000
G1 E2.00000 F2400.00000
G1 X119.090 Y113.071 E2.06730 F1500.000
G1 X118.863 Y112.735 E2.08607
G1 X119.329 Y112.488 E2.11052
G1 X119.128 Y111.625 E2.15160
G1 X118.572 Y111.021 E2.18966
G1 X118.930 Y110.888 E2.20735
G1 X118.664 Y109.863 E2.25647
G1 X117.723 Y108.987 E2.31615
G1 X118.121 Y108.659 E2.34008
G1 X117.377 Y107.871 E2.39039
G1 X116.873 Y107.429 E2.42148
G1 X116.102 Y106.824 E2.46695
G1 X115.630 Y106.674 E2.48994
G1 X115.128 Y106.402 E2.51640
G1 X114.228 Y105.989 E2.56237
G1 X114.291 Y105.768 E2.57305
G1 X115.083 Y105.869 E2.61009
G1 X115.317 Y105.950 E2.62159
G1 X116.923 Y106.878 E2.70765
G1 X116.930 Y106.902 E2.70878
G1 X117.258 Y107.152 E2.72793
G1 X118.151 Y108.071 E2.78733
G1 X118.363 Y108.461 E2.80795
G1 X118.449 Y108.948 E2.83090
G1 X118.802 Y109.226 E2.85177
G1 X118.880 Y109.266 E2.85580
G1 X119.305 Y110.363 E2.91039
G1 X119.325 Y110.861 E2.93349
G1 X119.436 Y111.487 E2.96300
G1 X119.660 Y112.039 E2.99061
G1 X119.703 Y113.194 E3.04426
G1 X119.980 Y114.248 E3.09480
G1 X119.949 Y114.765 E3.11885
G1 X119.861 Y114.977 E3.12947
G1 X119.895 Y115.979 E3.17600
G1 X119.878 Y116.192 E3.18593
G1 X119.659 Y116.218 E3.19616
G1 X119.323 Y115.163 E3.24749
G1 X119.047 Y114.568 E3.27795
G1 X119.688 Y114.381 E3.30890
G1 X116.622 Y106.189 F7800.000
G1 X115.503 Y105.543 E3.36884 F1500.000
G1 X115.185 Y105.432 E3.38446
G1 X114.585 Y105.355 E3.41255
G1 X115.014 Y104.874 E3.44248
G1 X116.670 Y103.969 E3.53002
G1 X116.532 Y105.312 E3.59264
G1 X116.616 Y106.129 E3.63078
G1 X116.498 Y106.569 F7800.000
G1 X116.430 Y103.591 F7800.000
G1 X116.296 Y103.379 E3.64242 F1500.000
G1 X117.026 Y102.846 E3.68434
G1 X117.565 Y102.248 E3.72172
G1 X117.746 Y101.926 E3.73883
G1 X118.292 Y101.768 E3.76522
G1 X118.147 Y102.115 E3.78269
G1 X118.086 Y102.197 E3.78744
G1 X117.213 Y103.120 E3.84636
G1 X117.178 Y103.182 E3.84966
G1 X116.483 Y103.562 E3.88641
G1 X117.348 Y103.881 F7800.000
G1 X117.411 Y103.681 E3.89613 F1500.000
G1 X117.576 Y103.386 E3.91178
G1 X118.427 Y102.485 E3.96931
G1 X118.537 Y102.338 E3.97781
G1 X118.640 Y102.092 E3.99022
G1 X119.044 Y101.774 E4.01406
G1 X119.809 Y101.382 E4.05393
G1 X120.639 Y101.141 E4.09402
G1 X121.465 Y101.064 E4.13251 F1500.000
G1 X122.361 Y101.141 E4.17423
G1 X123.192 Y101.382 E4.21436
G1 X123.957 Y101.774 E4.25423
G1 X124.627 Y102.301 E4.29379
G1 X125.179 Y102.945 E4.33314
G1 X125.590 Y103.681 E4.37224
G1 X125.842 Y104.481 E4.41114
G1 X125.927 Y105.311 E4.44989
G1 X125.842 Y106.142 E4.48864
G1 X125.590 Y106.942 E4.52754
G1 X125.179 Y107.678 E4.56665
G1 X124.627 Y108.322 E4.60600
G1 X123.957 Y108.849 E4.64556
G1 X123.192 Y109.241 E4.68542
G1 X122.362 Y109.482 E4.72552
G1 X121.500 Y109.563 E4.76568
G1 X120.639 Y109.482 E4.80579
G1 X119.809 Y109.241 E4.84589
G1 X119.044 Y108.849 E4.88575
G1 X118.859 Y108.703 E4.89671
G1 X118.796 Y108.347 E4.91346
G1 X118.517 Y107.807 E4.94167
G1 X117.556 Y106.818 E5.00567
G1 X117.314 Y106.633 E5.01979
G1 X117.159 Y106.142 E5.04365
G1 X117.074 Y105.311 E5.08240
G1 X117.159 Y104.481 E5.12115
G1 X117.330 Y103.938 E5.14756
G1 X117.207 Y103.726 F7800.000
G1 X119.264 Y99.777 F7800.000
G1 X118.497 Y99.332 E5.18866 F1500.000
G1 X119.397 Y98.150 E5.25757
G1 X119.602 Y98.270 E5.26857
G1 X119.428 Y98.673 E5.28896
G1 X119.323 Y99.315 E5.31913
G1 X119.287 Y99.790 E5.34123
G1 X119.247 Y99.919 E5.34747
G1 X118.157 Y101.615 E5.44102
G1 X117.677 Y101.290 E5.46793
G1 X119.098 Y99.685 E5.56739
G1 X119.211 Y99.747 E5.57340
G1 X119.451 Y95.986 F7800.000
G1 X118.985 Y95.798 E5.59671 F1500.000
G1 X119.283 Y95.039 E5.63453
G1 X119.586 Y94.081 E5.68115
G1 X119.813 Y94.116 E5.69180
G1 X119.813 Y94.408 E5.70534
G1 X119.777 Y94.925 E5.72940
G1 X120.019 Y96.003 E5.78066
G1 X120.021 Y96.075 E5.78401
G1 X119.966 Y96.192 E5.78997
G1 X119.700 Y97.133 E5.83535
G1 X119.672 Y97.730 E5.86306
G1 X119.588 Y98.214 E5.88584
G1 X118.796 Y97.534 E5.93425
G1 X119.120 Y97.065 E5.96069
G1 X119.434 Y96.043 E6.01026
G1 X119.097 Y91.736 F7800.000
G1 X118.483 Y91.852 E6.03927 F1500.000
G1 X118.673 Y90.535 E6.10100
G1 X118.670 Y89.880 E6.13141
G1 X118.916 Y89.859 E6.14285
G1 X119.147 Y91.218 E6.20682
G1 X119.319 Y91.524 E6.22311
G1 X119.636 Y92.920 E6.28953
G1 X119.833 Y93.506 E6.31820
G1 X118.904 Y93.694 E6.36218
G1 X119.008 Y93.181 E6.38646
G1 X119.093 Y91.796 E6.45082
G1 X118.694 Y89.303 F7800.000
G1 X117.993 Y89.502 E6.48461 F1500.000
G1 X117.949 Y88.892 E6.51300
G1 X117.793 Y87.680 E6.56968
G1 X117.994 Y87.606 E6.57958
G1 X118.146 Y87.839 E6.59247
G1 X118.205 Y88.203 E6.60959
G1 X118.555 Y89.078 E6.65332
G1 X118.662 Y89.252 E6.66278
G1 X117.835 Y87.293 F7800.000
G1 X115.900 Y88.217 E6.76227 F1500.000
G1 X115.770 Y87.039 E6.81730
G1 X116.441 Y87.058 E6.84844
G1 X117.111 Y87.109 E6.87964
G1 X117.777 Y87.278 E6.91151
G1 X115.374 Y87.262 F7800.000
G1 X114.036 Y88.391 E6.99270 F1500.000
G1 X113.749 Y87.336 E7.04344
G1 X114.062 Y87.350 E7.05798
G1 X114.758 Y87.284 E7.09041
G1 X115.250 Y87.065 E7.11540
G1 X115.342 Y87.212 E7.12340
G1 X113.495 Y87.739 F7800.000
G1 X112.212 Y88.903 E7.20379 F1500.000
G1 X112.123 Y88.739 E7.21247
G1 X111.236 Y88.841 E7.25390
G1 X110.463 Y89.876 E7.31382
G1 X109.835 Y89.138 E7.35877
G1 X110.486 Y88.929 E7.39046
G1 X111.198 Y88.466 E7.42986
G1 X111.509 Y88.228 E7.44805
G1 X111.653 Y88.150 E7.45564
G1 X112.802 Y87.857 E7.51065
G1 X113.355 Y87.544 E7.54012
G1 X113.460 Y87.690 E7.54845
G1 X113.547 Y88.294 F7800.000
G1 X113.789 Y89.183 E7.59120 F1500.000
G1 X115.407 Y87.818 E7.68941
G1 X115.491 Y88.578 E7.72486
G1 X115.523 Y88.729 E7.73201
G1 X115.938 Y88.694 E7.75131
G1 X117.385 Y88.003 E7.82572
G1 X117.505 Y88.936 E7.86940
G1 X117.586 Y90.048 E7.92111
G1 X117.776 Y90.028 E7.93001
G1 X118.224 Y89.901 E7.95158
G1 X118.226 Y90.504 E7.97957
G1 X118.000 Y92.073 E8.05313
G1 X118.065 Y92.385 E8.06792
G1 X118.616 Y92.281 E8.09393
G1 X118.564 Y93.122 E8.13303
G1 X118.428 Y93.795 E8.16486
G1 X118.374 Y94.256 E8.18641
G1 X119.109 Y94.107 E8.22120
G1 X118.862 Y94.888 E8.25918
G1 X118.620 Y95.489 E8.28925
G1 X118.424 Y96.053 E8.31693
G1 X118.904 Y96.247 E8.34095
G1 X118.714 Y96.868 E8.37110
G1 X118.282 Y97.493 E8.40634
G1 X118.240 Y97.604 E8.41185
G1 X118.250 Y97.787 E8.42036
G1 X118.552 Y97.913 E8.43556
G1 X118.833 Y98.154 E8.45274
G1 X117.853 Y99.441 E8.52779
G1 X117.973 Y99.544 E8.53511
G1 X118.405 Y99.794 E8.55827
G1 X117.258 Y101.089 E8.63850
G1 X117.043 Y101.399 E8.65602
G1 X117.395 Y101.638 E8.67579
G1 X117.200 Y101.986 E8.69429
G1 X116.725 Y102.513 E8.72721
G1 X116.140 Y102.941 E8.76083
G1 X115.236 Y103.443 E8.80883
G1 X113.643 Y103.982 E8.88683
G1 X112.918 Y104.092 E8.92088
G1 X111.484 Y103.730 E8.98946
G1 X111.177 Y103.515 E9.00686
G1 X110.393 Y102.715 E9.05882
G1 X110.572 Y102.346 E9.07780
G1 X111.337 Y101.256 E9.13961
G1 X111.690 Y100.556 E9.17599
G1 X112.411 Y99.468 E9.23654
G1 X113.629 Y97.229 E9.35476
G1 X114.446 Y95.575 E9.44033
G1 X114.754 Y94.671 E9.48467
G1 X115.315 Y93.258 E9.55517
G1 X115.422 Y92.890 E9.57297
G1 X115.557 Y92.297 E9.60120
G1 X115.385 Y92.198 E9.61038
G1 X115.248 Y92.326 E9.61908
G1 X115.032 Y92.911 E9.64801
G1 X114.722 Y93.428 E9.67597
G1 X114.591 Y93.711 E9.69046
G1 X113.954 Y94.566 E9.73994
G1 X113.809 Y95.005 E9.76136
G1 X113.200 Y96.006 E9.81572
G1 X112.653 Y96.798 E9.86038
G1 X111.806 Y98.285 E9.93981
G1 X110.912 Y99.581 E10.01282
G1 X110.170 Y100.366 E10.06293
G1 X109.713 Y100.795 E10.09202
G1 X109.179 Y101.215 E10.12356
G1 X108.544 Y101.210 E10.15302
G1 X108.018 Y100.899 E10.18137
G1 X106.984 Y99.728 E10.25380
G1 X106.472 Y98.644 E10.30941
G1 X106.353 Y98.322 E10.32536
G1 X106.150 Y97.403 E10.36903
G1 X106.050 Y96.732 E10.40049
G1 X106.015 Y95.295 E10.46717
G1 X106.562 Y95.335 E10.49259
G1 X106.694 Y95.057 E10.50685
G1 X106.881 Y93.951 E10.55889
G1 X107.080 Y93.276 E10.59153
G1 X107.349 Y93.303 E10.60408
G1 X107.562 Y93.277 E10.61403
G1 X107.871 Y92.611 E10.64808
G1 X108.386 Y91.381 E10.70994
G1 X108.808 Y91.836 E10.73872
G1 X109.008 Y91.610 E10.75268
G1 X109.316 Y91.068 E10.78163
G1 X109.993 Y90.012 E10.83980
G1 X110.320 Y90.397 E10.86322
G1 X110.462 Y90.496 E10.87125
G1 X110.703 Y90.302 E10.88558
G1 X111.478 Y89.263 E10.94574
G1 X111.874 Y89.217 E10.96423
G1 X112.091 Y89.616 E10.98530
G1 X113.503 Y88.335 E11.07375
G1 X113.912 Y88.130 F7800.000
G1 X109.739 Y89.581 F7800.000
G1 X108.934 Y90.837 E11.14297 F1500.000
G1 X108.765 Y91.134 E11.15880
G1 X108.189 Y90.514 E11.19807
G1 X108.683 Y90.228 E11.22453
G1 X109.105 Y89.894 E11.24949
G1 X109.548 Y89.430 E11.27923
G1 X109.692 Y89.544 E11.28773
G1 X106.756 Y92.796 F7800.000
G1 X106.449 Y93.839 E11.33818 F1500.000
G1 X106.205 Y93.786 E11.34974
G1 X106.359 Y92.717 E11.39985
G1 X106.805 Y92.083 E11.43580
G1 X107.093 Y91.828 E11.45366
G1 X107.863 Y90.881 E11.51028
G1 X108.062 Y91.000 E11.52104
G1 X107.463 Y92.431 E11.59300
G1 X107.269 Y92.847 E11.61428
G1 X106.816 Y92.802 E11.63544
G1 E9.63544 F2400.00000
G92 E0
G1 X86.468 Y119.890 F7800.000
G1 E2.00000 F2400.00000
G1 X87.231 Y119.429 E2.04136 F1500.000
G1 X87.940 Y119.141 E2.07687
G1 X89.397 Y118.738 E2.14701
G1 X90.450 Y118.543 E2.19668
G1 X92.028 Y118.383 E2.27029
G1 X93.506 Y118.366 E2.33887
G1 X95.151 Y118.519 E2.41551
G1 X95.528 Y118.692 E2.43474
G1 X96.562 Y119.653 E2.50021
G1 X96.432 Y120.456 E2.53797
G1 X95.868 Y121.394 E2.58872
G1 X94.751 Y122.491 E2.66135
G1 X94.314 Y122.802 E2.68622
G1 X93.647 Y123.182 E2.72185
G1 X92.915 Y123.528 E2.75939
G1 X91.747 Y123.800 E2.81505
G1 X90.370 Y123.913 E2.87913
G1 X88.724 Y123.733 E2.95598
G1 X87.934 Y123.522 E2.99391
G1 X86.993 Y123.016 E3.04347
G1 X86.471 Y122.663 E3.07270
G1 X85.404 Y121.554 E3.14408
G1 X85.666 Y120.371 E3.20031
G1 X85.361 Y120.561 E3.21703
G1 X84.971 Y120.765 E3.23741
G1 X84.419 Y120.940 E3.26431
G1 X82.462 Y121.178 E3.35577
G1 X81.622 Y121.196 E3.39472
G1 X80.780 Y121.089 E3.43411
G1 X79.639 Y120.677 E3.49040
G1 X78.778 Y120.283 E3.53430
G1 X77.890 Y119.715 E3.58320
G1 X77.040 Y118.922 E3.63715
