; generated by Slic3r 1.2.9 on 2016-12-07 at 20:19:57

; external perimeters extrusion width = 0.40mm
; perimeters extrusion width = 0.48mm
; infill extrusion width = 0.48mm
; solid infill extrusion width = 0.48mm
; top infill extrusion width = 0.48mm

M107
M190 S110 ; set bed temperature
M104 S235 ; set temperature
G28 ; home all axes
G1 Z5 F5000 ; lift nozzle

M109 S235 ; wait for temperature to be reached
G21 ; set units to millimeters
G90 ; use absolute coordinates
M82 ; use absolute distances for extrusion
G92 E0
G1 Z0.400 F7800.000
G1 E-2.00000 F2400.00000
G92 E0
G1 X87.089 Y87.885 F7800.000
G1 E2.00000 F2400.00000
G1 X88.170 Y86.862 E2.17677 F1800.000
G1 X89.350 Y86.123 E2.34215
G1 X90.351 Y85.724 E2.47014
G1 X91.485 Y85.461 E2.60833
G1 X92.088 Y85.399 E2.68041
G1 X92.605 Y85.386 E2.74182
G1 X107.395 Y85.386 E4.49831
G1 X107.893 Y85.398 E4.55745 F1800.000
G1 X108.472 Y85.455 E4.62664
G1 X109.433 Y85.659 E4.74328
G1 X110.529 Y86.066 E4.88216
G1 X111.755 Y86.805 E5.05213
G1 X112.857 Y87.821 E5.23017
G1 X113.364 Y88.481 E5.32905
G1 X114.128 Y89.930 E5.52353
G1 X114.516 Y91.345 E5.69780
G1 X114.569 Y91.729 E5.74385
G1 X114.613 Y92.464 E5.83127
G1 X114.613 Y107.536 E7.62130
G1 X114.568 Y108.280 E7.70978
G1 X114.514 Y108.663 E7.75577
G1 X114.120 Y110.088 E7.93139
G1 X113.300 Y111.612 E8.13693
G1 X112.844 Y112.194 E8.22472
G1 X111.748 Y113.200 E8.40144
G1 X110.524 Y113.937 E8.57108
G1 X109.521 Y114.316 E8.69839
G1 X108.467 Y114.546 E8.82656
G1 X107.879 Y114.603 E8.89672
G1 X107.395 Y114.614 E8.95420
G1 X92.641 Y114.614 E10.70642
G1 X92.099 Y114.602 E10.77079
G1 X91.492 Y114.540 E10.84333
G1 X90.357 Y114.278 E10.98164
G1 X89.356 Y113.880 E11.10958
G1 X88.177 Y113.143 E11.27469
G1 X87.079 Y112.103 E11.45436
G1 X86.609 Y111.481 E11.54684
G1 X85.864 Y110.048 E11.73869
G1 X85.465 Y108.520 E11.92634
G1 X85.387 Y107.518 E12.04560
G1 X85.387 Y107.212 E12.08204
G1 X85.387 Y92.482 E13.83143
G1 X85.434 Y91.713 E13.92294
G1 X85.478 Y91.385 E13.96223
G1 X85.894 Y89.876 E14.14811
G1 X86.599 Y88.534 E14.32820
G1 X87.051 Y87.932 E14.41757
G1 E12.41757 F2400.00000
G92 E0
G1 X96.241 Y104.768 F7800.000
G1 E2.00000 F2400.00000
G1 X95.959 Y105.005 E2.04375 F1800.000
G1 X95.632 Y105.185 E2.08799
G1 X95.243 Y105.307 E2.13646
G1 X94.880 Y105.338 E2.17971
G1 X94.516 Y105.303 E2.22314
G1 X94.164 Y105.197 E2.26687
G1 X93.838 Y105.026 E2.31059
G1 X93.551 Y104.795 E2.35432
G1 X93.314 Y104.513 E2.39807
G1 X93.135 Y104.186 E2.44231
G1 X93.021 Y103.825 E2.48730
G1 X92.981 Y103.438 E2.53352
G1 X93.016 Y103.070 E2.57739
G1 X93.122 Y102.718 E2.62111
G1 X93.294 Y102.392 E2.66484
G1 X93.525 Y102.105 E2.70856
G1 X93.807 Y101.868 E2.75232
G1 X94.133 Y101.689 E2.79655
G1 X94.494 Y101.575 E2.84155
G1 X94.833 Y101.540 E2.88193 F1800.000
G1 X95.244 Y101.569 E2.93092
G1 X95.602 Y101.676 E2.97527
G1 X95.928 Y101.848 E3.01900
G1 X96.214 Y102.079 E3.06272
G1 X96.451 Y102.361 E3.10647
G1 X96.631 Y102.687 E3.15071
G1 X96.754 Y103.076 E3.19918
G1 X96.784 Y103.439 E3.24243
G1 X96.749 Y103.803 E3.28587
G1 X96.643 Y104.156 E3.32959
G1 X96.472 Y104.482 E3.37332
G1 X96.278 Y104.721 E3.40991
G1 X96.328 Y105.126 F7800.000
G1 X98.208 Y104.147 F7800.000
G1 X98.098 Y103.797 E3.45354 F1800.000
G1 X98.067 Y103.434 E3.49679
G1 X98.102 Y103.070 E3.54023
G1 X98.208 Y102.718 E3.58395
G1 X98.379 Y102.392 E3.62768
G1 X98.610 Y102.105 E3.67140
G1 X98.893 Y101.868 E3.71515
G1 X99.219 Y101.689 E3.75939
G1 X99.609 Y101.566 E3.80794
G1 X99.923 Y101.540 E3.84535 F1800.000
G1 X100.330 Y101.569 E3.89383
G1 X100.688 Y101.676 E3.93819
G1 X101.013 Y101.848 E3.98191
G1 X101.300 Y102.079 E4.02563
G1 X101.537 Y102.361 E4.06939
G1 X101.717 Y102.687 E4.11363
G1 X101.839 Y103.076 E4.16209
G1 X101.870 Y103.439 E4.20534
G1 X101.835 Y103.803 E4.24878
G1 X101.729 Y104.156 E4.29250
G1 X101.558 Y104.482 E4.33623
G1 X101.327 Y104.768 E4.37995
G1 X101.044 Y105.005 E4.42370
G1 X100.718 Y105.185 E4.46794
G1 X100.329 Y105.307 E4.51641
G1 X99.966 Y105.338 E4.55966
G1 X99.602 Y105.303 E4.60309
G1 X99.249 Y105.197 E4.64682
G1 X98.924 Y105.026 E4.69054
G1 X98.637 Y104.795 E4.73427
G1 X98.400 Y104.513 E4.77802
G1 X98.230 Y104.203 E4.81997
G1 X97.846 Y104.089 F7800.000
G1 X97.420 Y104.213 F7800.000
G1 X97.808 Y104.918 E4.91553 F1800.000
G1 X98.135 Y105.307 E4.97582
G1 X98.529 Y105.625 E5.03604
G1 X98.978 Y105.862 E5.09626
G1 X99.464 Y106.007 E5.15649
G1 X99.962 Y106.055 E5.21590
G1 X100.468 Y106.012 E5.27628
G1 X101.001 Y105.844 E5.34256
G1 X101.450 Y105.597 E5.40351
G1 X101.839 Y105.271 E5.46380
G1 X102.157 Y104.876 E5.52403
G1 X102.506 Y104.213 E5.61293
G1 X102.894 Y104.918 E5.70848
G1 X103.221 Y105.307 E5.76878
G1 X103.615 Y105.625 E5.82900
G1 X104.064 Y105.862 E5.88922
G1 X104.550 Y106.007 E5.94944
G1 X105.048 Y106.055 E6.00885
G1 X105.554 Y106.012 E6.06924
G1 X106.086 Y105.844 E6.13552
G1 X106.785 Y105.460 E6.23025
G1 X106.785 Y106.785 E6.38766
G1 X93.215 Y106.786 E7.99931
G1 X93.215 Y105.505 E8.15143
G1 X93.892 Y105.862 E8.24233
G1 X94.378 Y106.007 E8.30255
G1 X94.876 Y106.055 E8.36196
G1 X95.383 Y106.012 E8.42234
G1 X95.915 Y105.844 E8.48863
G1 X96.364 Y105.597 E8.54957
G1 X96.753 Y105.271 E8.60987
G1 X97.071 Y104.876 E8.67009
G1 X97.392 Y104.267 E8.75187
G1 X98.630 Y106.277 F7800.000
G1 X101.134 Y106.304 F7800.000
G1 X102.510 Y105.175 F7800.000
G1 X102.511 Y104.502 F7800.000
G1 X102.513 Y104.451 F7800.000
G1 X102.513 Y104.365 F7800.000
G1 X102.356 Y104.154 F7800.000
G1 X103.177 Y103.724 F7800.000
G1 X103.153 Y103.434 E8.78641 F1800.000
G1 X103.188 Y103.070 E8.82984
G1 X103.294 Y102.718 E8.87357
G1 X103.465 Y102.392 E8.91729
G1 X103.696 Y102.105 E8.96102
G1 X103.978 Y101.868 E9.00477
G1 X104.305 Y101.689 E9.04901
G1 X104.695 Y101.566 E9.09755
G1 X105.009 Y101.540 E9.13497 F1800.000
G1 X105.416 Y101.569 E9.18345
G1 X105.773 Y101.676 E9.22780
G1 X106.099 Y101.848 E9.27152
G1 X106.386 Y102.079 E9.31525
G1 X106.623 Y102.361 E9.35900
G1 X106.802 Y102.687 E9.40324
G1 X106.916 Y103.048 E9.44823
G1 X106.956 Y103.435 E9.49445
G1 X106.921 Y103.803 E9.53832
G1 X106.815 Y104.156 E9.58205
G1 X106.643 Y104.482 E9.62577
G1 X106.412 Y104.768 E9.66950
G1 X106.130 Y105.005 E9.71325
G1 X105.804 Y105.185 E9.75749
G1 X105.415 Y105.307 E9.80595
G1 X105.052 Y105.338 E9.84920
G1 X104.688 Y105.303 E9.89264
G1 X104.335 Y105.197 E9.93636
G1 X104.009 Y105.026 E9.98009
G1 X103.723 Y104.795 E10.02381
G1 X103.486 Y104.513 E10.06757
G1 X103.306 Y104.186 E10.11180
G1 X103.182 Y103.784 E10.16182
G1 X102.907 Y103.617 F7800.000
G1 X102.511 Y101.300 F7800.000
G1 X102.305 Y101.054 E10.19992 F1800.000
G1 X101.802 Y100.648 E10.27664
G1 X101.230 Y100.347 E10.35336
G1 X100.758 Y100.206 E10.41192
G1 X100.756 Y99.890 E10.44952
G1 X101.283 Y99.723 E10.51520
G1 X101.856 Y99.408 E10.59285
G1 X102.351 Y98.992 E10.66969
G1 X102.512 Y98.793 E10.70007
G1 X102.718 Y99.038 E10.73818
G1 X103.221 Y99.444 E10.81490
G1 X103.793 Y99.745 E10.89162
G1 X104.265 Y99.886 E10.95018
G1 X104.267 Y100.203 E10.98777
G1 X103.740 Y100.369 E11.05345
G1 X103.167 Y100.685 E11.13111
G1 X102.672 Y101.101 E11.20795
G1 X102.549 Y101.253 E11.23121
G1 X99.179 Y99.886 F7800.000
G1 X99.181 Y100.203 E11.26880 F1800.000
G1 X98.654 Y100.369 E11.33449
G1 X98.081 Y100.685 E11.41214
G1 X97.586 Y101.101 E11.48898
G1 X97.425 Y101.300 E11.51936
G1 X97.219 Y101.054 E11.55747
G1 X96.716 Y100.648 E11.63419
G1 X96.144 Y100.347 E11.71091
G1 X95.672 Y100.206 E11.76946
G1 X95.670 Y99.890 E11.80706
G1 X96.197 Y99.723 E11.87274
G1 X96.770 Y99.408 E11.95040
G1 X97.265 Y98.992 E12.02724
G1 X97.426 Y98.793 E12.05762
G1 X97.632 Y99.038 E12.09573
G1 X98.135 Y99.444 E12.17245
G1 X98.707 Y99.745 E12.24916
G1 X99.122 Y99.869 E12.30060
G1 X97.420 Y97.432 F7800.000
G1 X97.808 Y98.137 E12.39615 F1800.000
G1 X98.135 Y98.526 E12.45645
G1 X98.529 Y98.844 E12.51667
G1 X98.978 Y99.081 E12.57689
G1 X99.464 Y99.226 E12.63711
G1 X99.962 Y99.274 E12.69652
G1 X100.468 Y99.231 E12.75690
G1 X101.001 Y99.063 E12.82319
G1 X101.450 Y98.816 E12.88413
G1 X101.839 Y98.489 E12.94443
G1 X102.157 Y98.095 E13.00465
G1 X102.506 Y97.432 E13.09355
G1 X102.894 Y98.137 E13.18911
G1 X103.221 Y98.526 E13.24940
G1 X103.615 Y98.844 E13.30963
G1 X104.064 Y99.081 E13.36985
G1 X104.550 Y99.226 E13.43007
G1 X105.048 Y99.274 E13.48948
G1 X105.554 Y99.231 E13.54986
G1 X106.086 Y99.063 E13.61614
G1 X106.785 Y98.679 E13.71087
G1 X106.785 Y101.402 E14.03426
G1 X106.045 Y101.012 E14.13363
G1 X105.545 Y100.862 E14.19560
G1 X105.005 Y100.824 E14.25992
G1 X104.556 Y100.860 E14.31335
G1 X104.022 Y101.029 E14.37985
G1 X103.573 Y101.276 E14.44080
G1 X103.184 Y101.603 E14.50109
G1 X102.866 Y101.998 E14.56132
G1 X102.517 Y102.660 E14.65022
G1 X102.129 Y101.955 E14.74577
G1 X101.802 Y101.566 E14.80607
G1 X101.408 Y101.248 E14.86629
G1 X100.959 Y101.012 E14.92651
G1 X100.459 Y100.862 E14.98848
G1 X99.919 Y100.824 E15.05280
G1 X99.471 Y100.860 E15.10623
G1 X98.937 Y101.029 E15.17273
G1 X98.487 Y101.276 E15.23368
G1 X98.098 Y101.603 E15.29398
G1 X97.780 Y101.998 E15.35420
G1 X97.431 Y102.660 E15.44310
G1 X97.043 Y101.955 E15.53866
G1 X96.717 Y101.566 E15.59895
G1 X96.322 Y101.248 E15.65917
G1 X95.873 Y101.012 E15.71939
G1 X95.373 Y100.862 E15.78136
G1 X94.821 Y100.823 E15.84711
G1 X94.349 Y100.872 E15.90350
G1 X93.851 Y101.029 E15.96553
G1 X93.215 Y101.379 E16.05168
G1 X93.215 Y98.724 E16.36697
G1 X93.892 Y99.081 E16.45782
G1 X94.378 Y99.226 E16.51804
G1 X94.876 Y99.274 E16.57746
G1 X95.383 Y99.231 E16.63784
G1 X95.915 Y99.063 E16.70412
G1 X96.364 Y98.816 E16.76507
G1 X96.753 Y98.489 E16.82536
G1 X97.071 Y98.095 E16.88558
G1 X97.392 Y97.485 E16.96736
G1 X97.428 Y99.105 F7800.000
G1 X98.472 Y100.209 F7800.000
G1 X102.509 Y99.305 F7800.000
G1 X102.509 Y97.776 F7800.000
G1 X102.513 Y97.670 F7800.000
G1 X102.509 Y97.146 F7800.000
G1 X102.466 Y96.735 F7800.000
G1 X103.177 Y96.943 F7800.000
G1 X103.153 Y96.653 E17.00190 F1800.000
G1 X103.188 Y96.289 E17.04533
G1 X103.294 Y95.936 E17.08906
G1 X103.465 Y95.611 E17.13278
G1 X103.696 Y95.324 E17.17651
G1 X103.978 Y95.087 E17.22026
G1 X104.305 Y94.908 E17.26450
G1 X104.666 Y94.794 E17.30949
G1 X105.004 Y94.759 E17.34987 F1800.000
G1 X105.416 Y94.788 E17.39887
G1 X105.773 Y94.895 E17.44322
G1 X106.099 Y95.066 E17.48694
G1 X106.386 Y95.298 E17.53067
G1 X106.623 Y95.580 E17.57442
G1 X106.802 Y95.906 E17.61866
G1 X106.916 Y96.267 E17.66365
G1 X106.956 Y96.654 E17.70987
G1 X106.921 Y97.022 E17.75374
G1 X106.815 Y97.375 E17.79747
G1 X106.643 Y97.701 E17.84119
G1 X106.412 Y97.987 E17.88492
G1 X106.130 Y98.224 E17.92867
G1 X105.804 Y98.404 E17.97291
G1 X105.415 Y98.526 E18.02137
G1 X105.052 Y98.557 E18.06462
G1 X104.688 Y98.522 E18.10806
G1 X104.335 Y98.416 E18.15178
G1 X104.009 Y98.245 E18.19551
G1 X103.723 Y98.014 E18.23923
G1 X103.486 Y97.732 E18.28298
G1 X103.306 Y97.405 E18.32722
G1 X103.182 Y97.003 E18.37724
G1 X102.907 Y96.836 F7800.000
G1 X102.511 Y94.519 F7800.000
G1 X102.016 Y93.929 E18.46865 F1800.000
G1 X103.137 Y93.929 E18.60173
G1 X102.672 Y94.319 E18.67384
G1 X102.549 Y94.472 E18.69710
G1 X98.051 Y93.929 F7800.000
G1 X97.586 Y94.319 E18.76921 F1800.000
G1 X97.425 Y94.519 E18.79960
G1 X96.930 Y93.929 E18.89101
G1 X97.991 Y93.929 E19.01696
G1 X97.431 Y95.879 F7800.000
G1 X97.043 Y95.174 E19.11252 F1800.000
G1 X96.717 Y94.785 E19.17282
G1 X96.322 Y94.467 E19.23304
G1 X95.873 Y94.231 E19.29326
G1 X95.373 Y94.081 E19.35523
G1 X94.821 Y94.042 E19.42098
G1 X94.349 Y94.091 E19.47737
G1 X93.851 Y94.248 E19.53940
G1 X93.216 Y94.598 E19.62550
G1 X93.216 Y93.215 E19.78971
G1 X106.785 Y93.215 E21.40128
G1 X106.785 Y94.621 E21.56821
G1 X106.045 Y94.231 E21.66758
G1 X105.545 Y94.081 E21.72955
G1 X104.993 Y94.042 E21.79530
G1 X104.520 Y94.091 E21.85169
G1 X104.022 Y94.248 E21.91372
G1 X103.573 Y94.495 E21.97467
G1 X103.184 Y94.822 E22.03496
G1 X102.866 Y95.217 E22.09518
G1 X102.517 Y95.879 E22.18409
G1 X102.129 Y95.174 E22.27964
G1 X101.802 Y94.785 E22.33994
G1 X101.408 Y94.467 E22.40016
G1 X100.959 Y94.231 E22.46038
G1 X100.459 Y94.081 E22.52235
G1 X99.907 Y94.042 E22.58810
G1 X99.435 Y94.091 E22.64449
G1 X98.937 Y94.248 E22.70652
G1 X98.487 Y94.495 E22.76747
G1 X98.098 Y94.822 E22.82776
G1 X97.780 Y95.217 E22.88798
G1 X97.459 Y95.826 E22.96976
G1 X98.160 Y96.097 F7800.000
G1 X98.208 Y95.936 E22.98966 F1800.000
G1 X98.379 Y95.611 E23.03338
G1 X98.610 Y95.324 E23.07711
G1 X98.893 Y95.087 E23.12086
G1 X99.219 Y94.908 E23.16510
G1 X99.580 Y94.794 E23.21009
G1 X99.918 Y94.759 E23.25047 F1800.000
G1 X100.330 Y94.788 E23.29946
G1 X100.688 Y94.895 E23.34382
G1 X101.013 Y95.066 E23.38754
G1 X101.300 Y95.298 E23.43126
G1 X101.537 Y95.580 E23.47502
G1 X101.717 Y95.906 E23.51926
G1 X101.831 Y96.267 E23.56425
G1 X101.871 Y96.654 E23.61047
G1 X101.835 Y97.022 E23.65434
G1 X101.729 Y97.375 E23.69806
G1 X101.558 Y97.701 E23.74179
G1 X101.327 Y97.987 E23.78551
G1 X101.044 Y98.224 E23.82926
G1 X100.718 Y98.404 E23.87350
G1 X100.329 Y98.526 E23.92197
G1 X99.966 Y98.557 E23.96522
G1 X99.602 Y98.522 E24.00865
G1 X99.249 Y98.416 E24.05238
G1 X98.924 Y98.245 E24.09610
G1 X98.637 Y98.014 E24.13983
G1 X98.400 Y97.732 E24.18358
G1 X98.221 Y97.405 E24.22782
G1 X98.098 Y97.016 E24.27629
G1 X98.067 Y96.653 E24.31954
G1 X98.102 Y96.289 E24.36297
G1 X98.143 Y96.154 E24.37967
G1 X98.045 Y95.975 F7800.000
G1 X96.745 Y96.267 F7800.000
G1 X96.785 Y96.654 E24.42589 F1800.000
G1 X96.749 Y97.022 E24.46976
G1 X96.643 Y97.375 E24.51349
G1 X96.472 Y97.701 E24.55721
G1 X96.241 Y97.987 E24.60094
G1 X95.959 Y98.224 E24.64469
G1 X95.632 Y98.404 E24.68893
G1 X95.243 Y98.526 E24.73740
G1 X94.880 Y98.557 E24.78065
G1 X94.516 Y98.522 E24.82408
G1 X94.164 Y98.416 E24.86781
G1 X93.838 Y98.245 E24.91153
G1 X93.551 Y98.014 E24.95525
G1 X93.314 Y97.732 E24.99901
G1 X93.135 Y97.405 E25.04325
G1 X93.021 Y97.044 E25.08824
G1 X92.981 Y96.657 E25.13446
G1 X93.016 Y96.289 E25.17833
G1 X93.122 Y95.936 E25.22205
G1 X93.294 Y95.611 E25.26578
G1 X93.525 Y95.324 E25.30950
G1 X93.807 Y95.087 E25.35325
G1 X94.133 Y94.908 E25.39749
G1 X94.494 Y94.794 E25.44249
G1 X94.833 Y94.759 E25.48287 F1800.000
G1 X95.244 Y94.788 E25.53186
G1 X95.602 Y94.895 E25.57621
G1 X95.928 Y95.066 E25.61994
G1 X96.214 Y95.298 E25.66366
G1 X96.451 Y95.580 E25.70741
G1 X96.631 Y95.906 E25.75165
G1 X96.727 Y96.210 E25.78952
G1 X97.110 Y96.402 F7800.000
G1 X92.502 Y92.501 F7800.000
G1 X107.499 Y92.501 E27.57072 F1800.000
G1 X107.499 Y107.499 E29.35201
G1 X92.512 Y107.500 E31.13200
G1 X92.502 Y92.561 E32.90626
G1 X92.848 Y92.701 F7800.000
G1 X93.573 Y93.762 F7800.000
G1 X94.250 Y93.658 E32.98766 F1800.000
G1 X94.819 Y93.628 E33.05534
G1 X95.461 Y93.652 E33.13157
G1 X96.084 Y93.744 E33.20643
G1 X96.546 Y94.116 E33.27685
G1 X96.808 Y94.372 E33.32036
G1 X98.468 Y94.074 F7800.000
G1 X98.768 Y93.868 E33.36356 F1800.000
G1 X99.077 Y93.697 E33.40553
G1 X99.353 Y93.656 E33.43866
G1 X99.895 Y93.628 E33.50314
G1 X100.529 Y93.650 E33.57847
G1 X101.170 Y93.744 E33.65538
G1 X101.632 Y94.116 E33.72581
G1 X101.894 Y94.372 E33.76931
G1 X101.806 Y99.893 F7800.000
G1 X102.157 Y100.244 E33.83371 F1800.000
G1 X102.866 Y99.849 E33.93908
G1 X103.217 Y100.199 E34.00348
G1 X104.623 Y100.054 F7800.000
G1 X106.428 Y100.043 E34.45793 F1800.000
G1 E32.45793 F2400.00000
G92 E0
G1 X106.067 Y99.820 F7800.000
G1 X106.349 Y106.349 F7800.000
G1 X106.428 Y106.273 F7800.000
G1 E2.00000 F2400.00000
G1 X105.634 Y106.396 E2.09546 F1800.000
G1 X105.421 Y106.405 E2.12071
G1 X104.720 Y106.405 F7800.000
G1 X104.470 Y106.393 E2.15039 F1800.000
G1 X103.894 Y106.308 E2.21959
G1 X103.636 Y106.246 E2.25116
G1 X103.636 Y106.246 F7800.000
G1 X103.241 Y106.145 E2.35379 F1800.000
G1 X102.515 Y105.878 E2.54857
G1 X101.848 Y106.125 E2.72767
G1 X101.382 Y106.248 E2.84910
G1 X101.382 Y106.248 F7800.000
G1 X101.181 Y106.298 E2.87367 F1800.000
G1 X100.548 Y106.396 E2.94975
G1 X100.332 Y106.405 E2.97536
G1 X99.637 Y106.406 F7800.000
G1 X99.385 Y106.393 E3.00536 F1800.000
G1 X98.808 Y106.309 E3.07456
G1 X98.550 Y106.246 E3.10607
G1 X98.550 Y106.246 F7800.000
G1 X98.155 Y106.145 E3.20885 F1800.000
G1 X97.429 Y105.878 E3.40360
G1 X96.762 Y106.125 E3.58268
G1 X96.295 Y106.248 E3.70426
G1 X96.295 Y106.248 F7800.000
G1 X96.095 Y106.298 E3.72876 F1800.000
