; generated by Slic3r 1.2.9 on 2016-12-10 at 21:21:12

; external perimeters extrusion width = 0.40mm
; perimeters extrusion width = 0.48mm
; infill extrusion width = 0.48mm
; solid infill extrusion width = 0.48mm
; top infill extrusion width = 0.48mm

M107
M190 S55 ; set bed temperature
M104 S190 ; set temperature
G28 ; home all axes
G1 Z5 F5000 ; lift nozzle

M109 S190 ; wait for temperature to be reached
G21 ; set units to millimeters
G90 ; use absolute coordinates
M82 ; use absolute distances for extrusion
G92 E0
G1 Z0.350 F7800.000
G1 E-2.00000 F2400.00000
G92 E0
G1 X77.186 Y80.945 F7800.000
G1 E2.00000 F2400.00000
G1 X78.253 Y79.936 E2.13355 F1800.000
G1 X79.193 Y79.329 E2.23529
G1 X80.394 Y78.825 E2.35369
G1 X81.490 Y78.571 E2.45603
G1 X82.001 Y78.515 E2.50275
G1 X82.521 Y78.496 E2.55004
G1 X97.367 Y78.495 E3.90003
G1 X97.883 Y78.507 E3.94697 F1800.000
G1 X98.461 Y78.563 E3.99981
G1 X99.396 Y78.762 E4.08668
G1 X100.663 Y79.252 E4.21019
G1 X101.672 Y79.880 E4.31824
G1 X102.760 Y80.882 E4.45275
G1 X103.270 Y81.531 E4.52781
G1 X104.024 Y82.963 E4.67493
G1 X104.406 Y84.358 E4.80654
G1 X104.443 Y84.599 E4.82870
G1 X104.504 Y85.461 E4.90720
G1 X104.504 Y100.539 E6.27831
G1 X104.411 Y101.609 E6.37595
G1 X104.016 Y103.056 E6.51232
G1 X103.251 Y104.496 E6.66059
G1 X102.746 Y105.134 E6.73454
G1 X101.665 Y106.126 E6.86798
G1 X100.657 Y106.751 E6.97584
G1 X99.494 Y107.209 E7.08949
G1 X98.463 Y107.437 E7.18550
G1 X97.885 Y107.493 E7.23833
G1 X97.479 Y107.504 E7.27520
G1 X82.644 Y107.505 E8.62416
G1 X82.029 Y107.487 E8.68011
G1 X81.490 Y107.429 E8.72946
G1 X80.400 Y107.177 E8.83120
G1 X79.200 Y106.675 E8.94945
G1 X78.260 Y106.070 E9.05113
G1 X77.127 Y104.986 E9.19362
G1 X76.194 Y103.545 E9.34978
G1 X75.967 Y103.016 E9.40210
G1 X75.572 Y101.503 E9.54432
G1 X75.495 Y100.519 E9.63405
G1 X75.495 Y85.590 E10.99149
G1 X75.541 Y84.724 E11.07041
G1 X75.587 Y84.398 E11.10033
G1 X75.960 Y83.002 E11.23172
G1 X76.189 Y82.464 E11.28490
G1 X77.147 Y80.991 E11.44466
G1 E9.44466 F2400.00000
G92 E0
G1 X96.377 Y97.733 F7800.000
G1 E2.00000 F2400.00000
G1 X96.102 Y97.964 E2.03261 F1800.000
G1 X95.736 Y98.165 E2.07054
G1 X95.426 Y98.250 E2.09982
G1 X95.055 Y98.288 E2.13369
G1 X94.698 Y98.254 E2.16638
G1 X94.354 Y98.151 E2.19898
G1 X94.037 Y97.984 E2.23157
G1 X93.758 Y97.759 E2.26416
G1 X93.527 Y97.484 E2.29677
G1 X93.326 Y97.119 E2.33470
G1 X93.241 Y96.808 E2.36398
G1 X93.203 Y96.438 E2.39785
G1 X93.237 Y96.080 E2.43054
G1 X93.340 Y95.735 E2.46324
G1 X93.507 Y95.419 E2.49574
G1 X93.732 Y95.140 E2.52832
G1 X94.007 Y94.910 E2.56093
G1 X94.325 Y94.735 E2.59391
G1 X94.710 Y94.613 E2.63067
G1 X95.016 Y94.590 E2.65853 F1800.000
G1 X95.407 Y94.619 E2.69423
G1 X95.754 Y94.723 E2.72720
G1 X96.072 Y94.890 E2.75979
G1 X96.351 Y95.115 E2.79239
G1 X96.581 Y95.389 E2.82500
G1 X96.782 Y95.755 E2.86293
G1 X96.868 Y96.065 E2.89221
G1 X96.906 Y96.436 E2.92608
G1 X96.871 Y96.793 E2.95877
G1 X96.769 Y97.137 E2.99136
G1 X96.601 Y97.454 E3.02396
G1 X96.414 Y97.686 E3.05109
G1 X96.462 Y98.081 F7800.000
G1 E1.05109 F2400.00000
G92 E0
G1 X91.785 Y96.793 F7800.000
G1 E2.00000 F2400.00000
G1 X91.683 Y97.137 E2.03259 F1800.000
G1 X91.516 Y97.454 E2.06518
G1 X91.291 Y97.733 E2.09778
G1 X91.016 Y97.964 E2.13039
G1 X90.698 Y98.139 E2.16336
G1 X90.347 Y98.249 E2.19690
G1 X89.970 Y98.288 E2.23137
G1 X89.612 Y98.254 E2.26406
G1 X89.268 Y98.151 E2.29665
G1 X88.951 Y97.984 E2.32924
G1 X88.672 Y97.759 E2.36183
G1 X88.442 Y97.484 E2.39444
G1 X88.267 Y97.167 E2.42742
G1 X88.156 Y96.815 E2.46095
G1 X88.117 Y96.438 E2.49542
G1 X88.152 Y96.080 E2.52811
G1 X88.254 Y95.737 E2.56070
G1 X88.421 Y95.419 E2.59330
G1 X88.646 Y95.140 E2.62589
G1 X88.921 Y94.910 E2.65850
G1 X89.239 Y94.735 E2.69147
G1 X89.590 Y94.624 E2.72501
G1 X89.925 Y94.589 E2.75561 F1800.000
G1 X90.321 Y94.619 E2.79173
G1 X90.669 Y94.723 E2.82470
G1 X90.986 Y94.890 E2.85729
G1 X91.265 Y95.115 E2.88988
G1 X91.495 Y95.389 E2.92249
G1 X91.697 Y95.755 E2.96042
G1 X91.782 Y96.065 E2.98971
G1 X91.820 Y96.436 E3.02358
G1 X91.791 Y96.734 E3.05081
G1 X92.048 Y97.038 F7800.000
G1 X92.508 Y98.214 F7800.000
G1 X92.879 Y98.655 E3.10322 F1800.000
G1 X93.343 Y99.030 E3.15744
G1 X93.255 Y99.280 E3.18156
G1 X91.392 Y99.280 E3.35095
G1 X92.187 Y98.612 E3.44538
G1 X92.471 Y98.261 E3.48643
G1 X88.257 Y99.030 F7800.000
G1 X88.169 Y99.280 E3.51055 F1800.000
G1 X86.306 Y99.280 E3.67990
G1 X87.102 Y98.612 E3.77431
G1 X87.423 Y98.214 E3.82081
G1 X87.793 Y98.655 E3.87322
G1 X88.210 Y98.992 E3.92196
G1 X87.286 Y97.014 F7800.000
G1 X87.563 Y97.012 E3.94714 F1800.000
G1 X87.689 Y97.414 E3.98541
G1 X87.924 Y97.839 E4.02957
G1 X88.233 Y98.207 E4.07327
G1 X88.606 Y98.508 E4.11691
G1 X89.031 Y98.732 E4.16055
G1 X89.491 Y98.870 E4.20420
G1 X89.971 Y98.916 E4.24811
G1 X90.474 Y98.865 E4.29406
G1 X90.945 Y98.716 E4.33900
G1 X91.371 Y98.481 E4.38317
G1 X91.739 Y98.173 E4.42686
G1 X92.040 Y97.799 E4.47051
G1 X92.264 Y97.374 E4.51415
G1 X92.370 Y97.021 E4.54769
G1 X92.652 Y97.024 E4.57337
G1 X92.743 Y97.356 E4.60463
G1 X93.010 Y97.839 E4.65483
G1 X93.318 Y98.207 E4.69852
G1 X93.692 Y98.508 E4.74217
G1 X94.117 Y98.732 E4.78581
G1 X94.577 Y98.870 E4.82945
G1 X95.057 Y98.916 E4.87337
G1 X95.542 Y98.866 E4.91764
G1 X95.973 Y98.748 E4.95834
G1 X96.457 Y98.482 E5.00854
G1 X96.905 Y98.105 E5.06173
G1 X96.905 Y99.905 E5.22536
G1 X83.095 Y99.904 E6.48107
G1 X83.095 Y98.166 E6.63919
G1 X83.521 Y98.508 E6.68887
G1 X83.945 Y98.732 E6.73251
G1 X84.405 Y98.870 E6.77616
G1 X84.886 Y98.916 E6.82007
G1 X85.370 Y98.866 E6.86435
G1 X85.802 Y98.748 E6.90505
G1 X86.285 Y98.482 E6.95524
G1 X86.653 Y98.173 E6.99894
G1 X86.955 Y97.799 E7.04258
G1 X87.178 Y97.374 E7.08622
G1 X87.269 Y97.072 E7.11492
G1 X86.687 Y96.835 F7800.000
G1 X86.597 Y97.137 E7.14355 F1800.000
G1 X86.430 Y97.454 E7.17614
G1 X86.205 Y97.733 E7.20873
G1 X85.930 Y97.964 E7.24135
G1 X85.565 Y98.165 E7.27927
G1 X85.254 Y98.250 E7.30856
G1 X84.884 Y98.288 E7.34243
G1 X84.526 Y98.254 E7.37512
G1 X84.183 Y98.151 E7.40771
G1 X83.865 Y97.984 E7.44030
G1 X83.586 Y97.759 E7.47290
G1 X83.356 Y97.484 E7.50551
G1 X83.155 Y97.119 E7.54343
G1 X83.069 Y96.808 E7.57272
G1 X83.031 Y96.438 E7.60659
G1 X83.066 Y96.080 E7.63928
G1 X83.169 Y95.737 E7.67187
G1 X83.336 Y95.419 E7.70446
G1 X83.561 Y95.140 E7.73706
G1 X83.835 Y94.910 E7.76967
G1 X84.153 Y94.735 E7.80264
G1 X84.505 Y94.624 E7.83618
G1 X84.839 Y94.589 E7.86678 F1800.000
G1 X85.236 Y94.619 E7.90290
G1 X85.583 Y94.723 E7.93587
G1 X85.900 Y94.890 E7.96846
G1 X86.179 Y95.115 E8.00105
G1 X86.410 Y95.389 E8.03366
G1 X86.585 Y95.707 E8.06664
G1 X86.696 Y96.059 E8.10017
G1 X86.734 Y96.436 E8.13464
G1 X86.701 Y96.777 E8.16584
G1 X86.916 Y97.051 F7800.000
G1 X87.429 Y94.659 F7800.000
G1 X87.058 Y94.218 E8.21825 F1800.000
G1 X86.590 Y93.840 E8.27294
G1 X86.058 Y93.560 E8.32764
G1 X85.463 Y93.382 E8.38404
G1 X84.821 Y93.335 E8.44262
G1 X84.250 Y93.394 E8.49484
G1 X83.720 Y93.561 E8.54534
G1 X83.720 Y92.536 E8.63854
G1 X84.284 Y92.705 E8.69207
G1 X84.888 Y92.763 E8.74721
G1 X85.516 Y92.699 E8.80463
G1 X86.107 Y92.512 E8.86099
G1 X86.640 Y92.218 E8.91635
G1 X87.102 Y91.831 E8.97113
G1 X87.423 Y91.433 E9.01763
G1 X87.793 Y91.874 E9.07004
G1 X88.261 Y92.252 E9.12474
G1 X88.794 Y92.532 E9.17943
G1 X89.370 Y92.705 E9.23412
G1 X89.973 Y92.763 E9.28926
G1 X90.602 Y92.699 E9.34668
G1 X91.193 Y92.512 E9.40304
G1 X91.726 Y92.218 E9.45840
G1 X92.187 Y91.831 E9.51318
G1 X92.508 Y91.433 E9.55968
G1 X92.879 Y91.874 E9.61209
G1 X93.347 Y92.252 E9.66678
G1 X93.879 Y92.532 E9.72148
G1 X94.456 Y92.705 E9.77618
G1 X95.059 Y92.763 E9.83131
G1 X95.687 Y92.699 E9.88873
G1 X96.280 Y92.512 E9.94522
G1 X96.280 Y93.575 E10.04193
G1 X95.635 Y93.382 E10.10313
G1 X95.013 Y93.336 E10.15980
G1 X94.471 Y93.378 E10.20929
G1 X93.830 Y93.580 E10.27037
G1 X93.297 Y93.874 E10.32573
G1 X92.836 Y94.261 E10.38051
G1 X92.515 Y94.659 E10.42701
G1 X92.144 Y94.218 E10.47942
G1 X91.676 Y93.840 E10.53411
G1 X91.143 Y93.560 E10.58881
G1 X90.549 Y93.382 E10.64521
G1 X89.907 Y93.335 E10.70378
G1 X89.336 Y93.394 E10.75600
G1 X88.744 Y93.580 E10.81236
G1 X88.211 Y93.874 E10.86773
G1 X87.750 Y94.261 E10.92250
G1 X87.466 Y94.613 E10.96355
G1 X87.565 Y95.859 F7800.000
G1 X87.288 Y95.861 E10.98873 F1800.000
G1 X87.162 Y95.460 E11.02699
G1 X86.928 Y95.034 E11.07116
G1 X86.619 Y94.666 E11.11486
G1 X86.245 Y94.365 E11.15850
G1 X85.820 Y94.141 E11.20214
G1 X85.349 Y94.000 E11.24683
G1 X84.830 Y93.962 E11.29417
G1 X84.377 Y94.009 E11.33559
G1 X83.906 Y94.158 E11.38053
G1 X83.480 Y94.392 E11.42470
G1 X83.095 Y94.715 E11.47042
G1 X83.095 Y91.384 E11.77328
G1 X83.521 Y91.727 E11.82296
G1 X83.945 Y91.951 E11.86660
G1 X84.405 Y92.089 E11.91025
G1 X84.886 Y92.135 E11.95416
G1 X85.388 Y92.083 E12.00011
G1 X85.860 Y91.935 E12.04505
G1 X86.285 Y91.700 E12.08922
G1 X86.653 Y91.391 E12.13292
G1 X86.955 Y91.018 E12.17656
G1 X87.178 Y90.593 E12.22020
G1 X87.284 Y90.240 E12.25374
G1 X87.566 Y90.243 E12.27942
G1 X87.657 Y90.575 E12.31068
G1 X87.924 Y91.058 E12.36088
G1 X88.233 Y91.426 E12.40457
G1 X88.606 Y91.727 E12.44822
G1 X89.031 Y91.951 E12.49186
G1 X89.491 Y92.089 E12.53551
G1 X89.971 Y92.135 E12.57942
G1 X90.474 Y92.083 E12.62536
G1 X90.945 Y91.935 E12.67031
G1 X91.371 Y91.700 E12.71448
G1 X91.739 Y91.392 E12.75817
G1 X92.040 Y91.018 E12.80182
G1 X92.264 Y90.593 E12.84546
G1 X92.370 Y90.240 E12.87900
G1 X92.652 Y90.243 E12.90468
G1 X92.743 Y90.575 E12.93594
G1 X93.010 Y91.058 E12.98614
G1 X93.318 Y91.426 E13.02983
G1 X93.692 Y91.727 E13.07347
G1 X94.117 Y91.951 E13.11712
G1 X94.577 Y92.089 E13.16076
G1 X95.057 Y92.135 E13.20467
G1 X95.560 Y92.083 E13.25062
G1 X96.031 Y91.935 E13.29557
G1 X96.457 Y91.700 E13.33973
G1 X96.905 Y91.325 E13.39290
G1 X96.905 Y94.759 E13.70515
G1 X96.417 Y94.365 E13.76217
G1 X95.992 Y94.141 E13.80582
G1 X95.521 Y94.000 E13.85050
G1 X95.014 Y93.963 E13.89669
G1 X94.590 Y93.996 E13.93536
G1 X94.077 Y94.158 E13.98428
G1 X93.652 Y94.392 E14.02845
G1 X93.284 Y94.701 E14.07214
G1 X92.983 Y95.074 E14.11576
G1 X92.759 Y95.498 E14.15931
G1 X92.653 Y95.852 E14.19297
G1 X92.371 Y95.849 E14.21865
G1 X92.280 Y95.518 E14.24991
G1 X92.013 Y95.034 E14.30011
G1 X91.704 Y94.666 E14.34380
G1 X91.331 Y94.365 E14.38745
G1 X90.906 Y94.141 E14.43109
G1 X90.435 Y94.000 E14.47578
G1 X89.916 Y93.962 E14.52312
G1 X89.463 Y94.009 E14.56453
G1 X88.992 Y94.158 E14.60948
G1 X88.566 Y94.392 E14.65365
G1 X88.198 Y94.701 E14.69734
G1 X87.897 Y95.074 E14.74099
G1 X87.673 Y95.499 E14.78463
G1 X87.583 Y95.801 E14.81333
G1 X89.268 Y91.370 F7800.000
G1 X88.951 Y91.203 E14.84592 F1800.000
G1 X88.672 Y90.978 E14.87851
G1 X88.442 Y90.703 E14.91112
G1 X88.240 Y90.338 E14.94905
G1 X88.155 Y90.027 E14.97834
G1 X88.117 Y89.657 E15.01221
G1 X88.152 Y89.299 E15.04489
G1 X88.254 Y88.955 E15.07749
G1 X88.421 Y88.638 E15.11008
G1 X88.646 Y88.359 E15.14267
G1 X88.921 Y88.129 E15.17528
G1 X89.239 Y87.954 E15.20826
G1 X89.590 Y87.843 E15.24179
G1 X89.925 Y87.808 E15.27240 F1800.000
G1 X90.321 Y87.837 E15.30852
G1 X90.669 Y87.941 E15.34148
G1 X90.986 Y88.108 E15.37408
G1 X91.265 Y88.333 E15.40667
G1 X91.495 Y88.608 E15.43928
G1 X91.697 Y88.974 E15.47721
G1 X91.782 Y89.284 E15.50649
G1 X91.820 Y89.655 E15.54036
G1 X91.785 Y90.012 E15.57305
G1 X91.683 Y90.356 E15.60564
G1 X91.516 Y90.673 E15.63824
G1 X91.291 Y90.952 E15.67083
G1 X91.016 Y91.183 E15.70344
G1 X90.698 Y91.357 E15.73641
G1 X90.347 Y91.468 E15.76995
G1 X89.970 Y91.507 E15.80442
G1 X89.612 Y91.473 E15.83711
G1 X89.326 Y91.387 E15.86424
G1 X88.978 Y91.580 F7800.000
G1 X86.597 Y90.356 F7800.000
G1 X86.430 Y90.673 E15.89684 F1800.000
G1 X86.205 Y90.952 E15.92943
G1 X85.930 Y91.183 E15.96204
G1 X85.613 Y91.357 E15.99501
G1 X85.261 Y91.468 E16.02855
G1 X84.884 Y91.507 E16.06302
G1 X84.526 Y91.473 E16.09571
G1 X84.183 Y91.370 E16.12830
G1 X83.865 Y91.203 E16.16089
G1 X83.586 Y90.978 E16.19348
G1 X83.356 Y90.703 E16.22609
G1 X83.155 Y90.338 E16.26402
G1 X83.069 Y90.027 E16.29331
G1 X83.031 Y89.657 E16.32718
G1 X83.066 Y89.299 E16.35987
G1 X83.169 Y88.955 E16.39246
G1 X83.336 Y88.638 E16.42505
G1 X83.561 Y88.359 E16.45764
G1 X83.835 Y88.129 E16.49025
G1 X84.153 Y87.954 E16.52323
G1 X84.505 Y87.843 E16.55676
G1 X84.839 Y87.808 E16.58737 F1800.000
G1 X85.236 Y87.837 E16.62349
G1 X85.584 Y87.942 E16.65656
G1 X85.900 Y88.109 E16.68906
G1 X86.179 Y88.333 E16.72164
G1 X86.410 Y88.608 E16.75425
G1 X86.611 Y88.974 E16.79218
G1 X86.696 Y89.284 E16.82147
G1 X86.734 Y89.655 E16.85534
G1 X86.700 Y90.012 E16.88803
G1 X86.614 Y90.298 E16.91516
G1 X86.807 Y90.646 F7800.000
G1 E14.91516 F2400.00000
G92 E0
G1 X93.204 Y89.673 F7800.000
G1 E2.00000 F2400.00000
G1 X93.237 Y89.299 E2.03415 F1800.000
G1 X93.340 Y88.955 E2.06674
G1 X93.507 Y88.638 E2.09933
G1 X93.732 Y88.359 E2.13193
G1 X94.007 Y88.129 E2.16454
G1 X94.324 Y87.954 E2.19751
G1 X94.710 Y87.832 E2.23427
G1 X95.016 Y87.809 E2.26213 F1800.000
G1 X95.407 Y87.837 E2.29784
G1 X95.756 Y87.942 E2.33091
G1 X96.072 Y88.109 E2.36341
G1 X96.351 Y88.333 E2.39599
G1 X96.581 Y88.608 E2.42860
G1 X96.782 Y88.974 E2.46653
G1 X96.868 Y89.284 E2.49582
G1 X96.906 Y89.655 E2.52969
G1 X96.871 Y90.012 E2.56238
G1 X96.769 Y90.356 E2.59497
G1 X96.601 Y90.673 E2.62756
G1 X96.377 Y90.952 E2.66015
G1 X96.102 Y91.183 E2.69277
G1 X95.784 Y91.357 E2.72574
G1 X95.432 Y91.468 E2.75928
G1 X95.055 Y91.507 E2.79374
G1 X94.698 Y91.473 E2.82643
G1 X94.354 Y91.370 E2.85902
G1 X94.037 Y91.203 E2.89162
G1 X93.758 Y90.978 E2.92421
G1 X93.527 Y90.703 E2.95682
G1 X93.326 Y90.338 E2.99475
G1 X93.241 Y90.027 E3.02403
G1 X93.210 Y89.733 E3.05096
G1 X92.884 Y89.477 F7800.000
G1 X88.376 Y87.002 F7800.000
G1 X88.211 Y87.093 E3.06812 F1800.000
G1 X87.750 Y87.480 E3.12290
G1 X87.429 Y87.878 E3.16940
G1 X87.058 Y87.437 E3.22181
G1 X86.480 Y86.970 E3.28937
G1 X86.568 Y86.720 E3.31349
G1 X88.304 Y86.720 E3.47135
G1 X88.362 Y86.944 E3.49233
G1 X91.566 Y86.971 F7800.000
G1 X91.654 Y86.720 E3.51645 F1800.000
G1 X93.390 Y86.720 E3.67428
G1 X93.462 Y87.002 E3.70071
G1 X93.297 Y87.093 E3.71786
G1 X92.836 Y87.480 E3.77263
G1 X92.515 Y87.878 E3.81913
G1 X92.144 Y87.437 E3.87154
G1 X91.612 Y87.008 E3.93364
G1 X92.653 Y89.071 F7800.000
G1 X92.371 Y89.068 E3.95932 F1800.000
G1 X92.280 Y88.737 E3.99058
G1 X92.013 Y88.253 E4.04078
G1 X91.704 Y87.885 E4.08447
G1 X91.331 Y87.584 E4.12812
G1 X90.906 Y87.360 E4.17176
G1 X90.435 Y87.219 E4.21644
G1 X89.916 Y87.181 E4.26379
G1 X89.463 Y87.228 E4.30520
G1 X88.992 Y87.377 E4.35015
G1 X88.566 Y87.611 E4.39432
G1 X88.198 Y87.920 E4.43801
G1 X87.897 Y88.293 E4.48166
G1 X87.673 Y88.718 E4.52530
G1 X87.567 Y89.071 E4.55884
G1 X87.285 Y89.068 E4.58452
G1 X87.194 Y88.737 E4.61578
G1 X86.928 Y88.253 E4.66598
G1 X86.619 Y87.885 E4.70967
G1 X86.245 Y87.584 E4.75328
G1 X85.822 Y87.361 E4.79684
G1 X85.349 Y87.219 E4.84164
G1 X84.830 Y87.181 E4.88899
G1 X84.377 Y87.228 E4.93040
G1 X83.906 Y87.377 E4.97535
G1 X83.480 Y87.611 E5.01952
G1 X83.095 Y87.934 E5.06524
G1 X83.095 Y86.095 E5.23243
G1 X96.904 Y86.096 E6.48810
G1 X96.904 Y87.977 E6.65920
G1 X96.417 Y87.584 E6.71617
G1 X95.993 Y87.361 E6.75973
G1 X95.521 Y87.219 E6.80453
G1 X95.014 Y87.182 E6.85072
G1 X94.590 Y87.215 E6.88939
G1 X94.077 Y87.377 E6.93831
G1 X93.652 Y87.611 E6.98248
G1 X93.284 Y87.920 E7.02617
G1 X92.983 Y88.293 E7.06982
G1 X92.759 Y88.718 E7.11346
G1 X92.670 Y89.014 E7.14154
G1 X97.529 Y85.471 F7800.000
G1 X97.518 Y100.530 E8.51086 F1800.000
G1 X82.470 Y100.529 E9.87912
G1 X82.470 Y85.471 E11.24839
G1 X97.469 Y85.471 E12.61224
G1 X97.329 Y85.817 F7800.000
G1 X96.592 Y86.802 F7800.000
G1 X95.652 Y86.664 E12.79548 F1800.000
G1 X95.031 Y86.639 E12.91524
G1 X94.454 Y86.663 E13.02658
G1 X93.726 Y86.775 E13.16851
G1 X91.304 Y86.773 F7800.000
G1 X90.566 Y86.664 E13.31237 F1800.000
G1 X89.928 Y86.638 E13.43537
G1 X89.320 Y86.670 E13.55275
G1 X88.641 Y86.775 E13.68533
G1 X86.218 Y86.773 F7800.000
G1 X85.480 Y86.664 E13.82917 F1800.000
G1 X84.802 Y86.638 E13.96000
G1 X84.235 Y86.670 E14.06955
G1 X83.408 Y86.797 E14.23085
G1 E12.23085 F2400.00000
G92 E0
G1 X86.053 Y92.911 F7800.000
G1 E2.00000 F2400.00000
G1 X86.348 Y93.206 E2.05311 F1800.000
G1 X86.847 Y92.468 E2.16661
G1 X88.004 Y93.624 E2.37489
G1 X88.503 Y92.886 E2.48839
