; generated by Slic3r 1.2.9 on 2017-01-02 at 21:13:04

; external perimeters extrusion width = 0.40mm
; perimeters extrusion width = 0.68mm
; infill extrusion width = 1.28mm
; solid infill extrusion width = 0.68mm
; top infill extrusion width = 0.68mm

M107
M190 S70 ; set bed temperature
M104 S190 ; set temperature
G28 ; home all axes
G1 Z5 F5000 ; lift nozzle

M109 S190 ; wait for temperature to be reached
G21 ; set units to millimeters
G90 ; use absolute coordinates
M82 ; use absolute distances for extrusion
G92 E0
G1 Z0.200 F6000.000
G1 E-2.00000 F2400.00000
G92 E0
G1 X85.564 Y92.546 F6000.000
G1 E2.00000 F2400.00000
G1 X86.877 Y91.622 E2.04766 F1500.000
G1 X88.159 Y91.110 E2.08866
G1 X89.042 Y90.914 E2.11552
G1 X89.983 Y90.843 E2.14355
G1 X104.866 Y90.843 E2.58542
G1 X105.048 Y90.844 E2.59084 F1500.000
G1 X106.196 Y90.958 E2.62509
G1 X106.710 Y91.074 E2.64074
G1 X108.032 Y91.576 E2.68273
G1 X109.354 Y92.474 E2.73020
G1 X110.591 Y93.894 E2.78611
G1 X110.998 Y94.623 E2.81089
G1 X111.520 Y96.183 E2.85973
G1 X111.571 Y96.465 E2.86823
G1 X111.656 Y97.465 E2.89804
G1 X111.656 Y112.548 E3.34587
G1 X111.569 Y113.547 E3.37563
G1 X111.519 Y113.826 E3.38406
G1 X110.989 Y115.397 E3.43329
G1 X110.603 Y116.087 E3.45677
G1 X109.339 Y117.539 E3.51393
G1 X109.252 Y117.613 E3.51730
G1 X108.024 Y118.428 E3.56108
G1 X106.704 Y118.928 E3.60300
G1 X106.196 Y119.042 E3.61844
G1 X105.035 Y119.156 E3.65308
G1 X89.983 Y119.157 E4.09998
G1 X89.042 Y119.086 E4.12801
G1 X88.166 Y118.892 E4.15466
G1 X86.875 Y118.377 E4.19592
G1 X85.579 Y117.468 E4.24292
G1 X84.377 Y116.053 E4.29805
G1 X83.985 Y115.345 E4.32206
G1 X83.474 Y113.794 E4.37056
G1 X83.416 Y113.450 E4.38092
G1 X83.345 Y112.538 E4.40806
G1 X83.345 Y97.473 E4.85537
G1 X83.415 Y96.562 E4.88249
G1 X83.472 Y96.216 E4.89292
G1 X83.976 Y94.674 E4.94107
G1 X84.363 Y93.969 E4.96495
G1 X85.525 Y92.592 E5.01846
G1 E3.01846 F2400.00000
G92 E0
G1 X93.597 Y109.628 F6000.000
G1 E2.00000 F2400.00000
G1 X93.345 Y109.839 E2.00978 F1500.000
G1 X93.053 Y110.000 E2.01967
G1 X92.730 Y110.102 E2.02973
G1 X92.383 Y110.138 E2.04008
G1 X92.055 Y110.106 E2.04988
G1 X91.740 Y110.011 E2.05965
G1 X91.448 Y109.858 E2.06943
G1 X91.192 Y109.651 E2.07920
G1 X90.980 Y109.399 E2.08898
G1 X90.819 Y109.107 E2.09887
G1 X90.718 Y108.784 E2.10893
G1 X90.682 Y108.437 E2.11928
G1 X90.714 Y108.109 E2.12908
G1 X90.808 Y107.794 E2.13886
G1 X90.961 Y107.502 E2.14863
G1 X91.168 Y107.246 E2.15841
G1 X91.420 Y107.034 E2.16819
G1 X91.712 Y106.873 E2.17808
G1 X92.035 Y106.772 E2.18813
G1 X92.359 Y106.738 E2.19779 F1500.000
G1 X92.709 Y106.767 E2.20823
G1 X93.026 Y106.862 E2.21805
G1 X93.317 Y107.015 E2.22782
G1 X93.574 Y107.222 E2.23760
G1 X93.785 Y107.474 E2.24738
G1 X93.946 Y107.766 E2.25727
G1 X94.048 Y108.089 E2.26732
G1 X94.084 Y108.436 E2.27768
G1 X94.052 Y108.764 E2.28747
G1 X93.957 Y109.080 E2.29725
G1 X93.804 Y109.371 E2.30703
G1 X93.635 Y109.581 E2.31502
G1 X93.675 Y109.947 F6000.000
G1 E0.31502 F2400.00000
G92 E0
G1 X92.730 Y103.321 F6000.000
G1 E2.00000 F2400.00000
G1 X92.383 Y103.357 E2.01036 F1500.000
G1 X92.055 Y103.325 E2.02015
G1 X91.740 Y103.230 E2.02993
G1 X91.448 Y103.077 E2.03970
G1 X91.192 Y102.870 E2.04948
G1 X90.980 Y102.618 E2.05926
G1 X90.819 Y102.326 E2.06915
G1 X90.718 Y102.003 E2.07920
G1 X90.682 Y101.656 E2.08956
G1 X90.714 Y101.328 E2.09935
G1 X90.808 Y101.012 E2.10913
G1 X90.961 Y100.721 E2.11891
G1 X91.168 Y100.465 E2.12868
G1 X91.420 Y100.253 E2.13846
G1 X91.712 Y100.092 E2.14835
G1 X92.035 Y99.990 E2.15841
G1 X92.359 Y99.957 E2.16807 F1500.000
G1 X92.709 Y99.986 E2.17850
G1 X93.026 Y100.081 E2.18832
G1 X93.317 Y100.234 E2.19810
G1 X93.574 Y100.441 E2.20787
G1 X93.785 Y100.693 E2.21765
G1 X93.946 Y100.985 E2.22754
G1 X94.048 Y101.308 E2.23760
G1 X94.084 Y101.655 E2.24796
G1 X94.052 Y101.983 E2.25775
G1 X93.957 Y102.299 E2.26753
G1 X93.804 Y102.590 E2.27730
G1 X93.597 Y102.846 E2.28708
G1 X93.345 Y103.058 E2.29686
G1 X93.053 Y103.219 E2.30675
G1 X92.787 Y103.303 E2.31502
G1 X92.610 Y103.648 F6000.000
G1 X95.742 Y106.744 F6000.000
G1 X96.101 Y106.442 E2.32894 F1500.000
G1 X96.516 Y106.214 E2.34300
G1 X96.975 Y106.069 E2.35732
G1 X97.438 Y106.021 E2.37111 F1500.000
G1 X97.928 Y106.062 E2.38574
G1 X98.383 Y106.198 E2.39983
G1 X98.797 Y106.416 E2.41373
G1 X99.162 Y106.710 E2.42763
G1 X99.463 Y107.069 E2.44154
G1 X99.692 Y107.484 E2.45561
G1 X99.837 Y107.944 E2.46993
G1 X99.887 Y108.434 E2.48456
G1 X99.842 Y108.903 E2.49855
G1 X99.707 Y109.351 E2.51245
G1 X99.489 Y109.765 E2.52635
G1 X99.195 Y110.130 E2.54025
G1 X98.836 Y110.431 E2.55416
G1 X98.421 Y110.660 E2.56823
G1 X97.962 Y110.805 E2.58255
G1 X97.471 Y110.855 E2.59718
G1 X97.003 Y110.810 E2.61117
G1 X96.554 Y110.676 E2.62507
G1 X96.140 Y110.457 E2.63897
G1 X95.775 Y110.164 E2.65287
G1 X95.474 Y109.805 E2.66678
G1 X95.246 Y109.390 E2.68085
G1 X95.100 Y108.930 E2.69516
G1 X95.050 Y108.439 E2.70980
G1 X95.095 Y107.971 E2.72379
G1 X95.230 Y107.522 E2.73769
G1 X95.448 Y107.108 E2.75159
G1 X95.704 Y106.790 E2.76370
G1 X95.998 Y106.995 F6000.000
G1 X96.303 Y106.738 E2.77555 F1500.000
G1 X96.657 Y106.544 E2.78753
G1 X97.048 Y106.420 E2.79972
G1 X97.441 Y106.379 E2.81144 F1500.000
G1 X97.862 Y106.414 E2.82397
G1 X98.247 Y106.530 E2.83593
G1 X98.600 Y106.716 E2.84777
G1 X98.911 Y106.966 E2.85960
G1 X99.167 Y107.272 E2.87145
G1 X99.362 Y107.625 E2.88343
G1 X99.485 Y108.016 E2.89562
G1 X99.528 Y108.435 E2.90811
G1 X99.490 Y108.834 E2.92000
G1 X99.375 Y109.215 E2.93184
G1 X99.190 Y109.568 E2.94368
G1 X98.939 Y109.879 E2.95552
G1 X98.634 Y110.135 E2.96736
G1 X98.280 Y110.330 E2.97934
G1 X97.889 Y110.453 E2.99153
G1 X97.470 Y110.497 E3.00402
G1 X97.072 Y110.458 E3.01591
G1 X96.690 Y110.343 E3.02775
G1 X96.337 Y110.158 E3.03959
G1 X96.027 Y109.907 E3.05143
G1 X95.770 Y109.602 E3.06328
G1 X95.575 Y109.248 E3.07525
G1 X95.452 Y108.857 E3.08744
G1 X95.409 Y108.438 E3.09994
G1 X95.447 Y108.040 E3.11182
G1 X95.562 Y107.658 E3.12366
G1 X95.748 Y107.305 E3.13550
G1 X95.960 Y107.041 E3.14556
G1 X96.254 Y107.246 F6000.000
G1 X96.506 Y107.034 E3.15534 F1500.000
G1 X96.798 Y106.873 E3.16523
G1 X97.121 Y106.772 E3.17528
G1 X97.445 Y106.738 E3.18494 F1500.000
G1 X97.795 Y106.767 E3.19538
G1 X98.112 Y106.862 E3.20520
G1 X98.403 Y107.015 E3.21497
G1 X98.659 Y107.222 E3.22475
G1 X98.871 Y107.474 E3.23453
G1 X99.032 Y107.766 E3.24442
G1 X99.134 Y108.089 E3.25447
G1 X99.170 Y108.436 E3.26483
G1 X99.138 Y108.764 E3.27462
G1 X99.043 Y109.080 E3.28440
G1 X98.890 Y109.371 E3.29418
G1 X98.683 Y109.628 E3.30395
G1 X98.431 Y109.839 E3.31373
G1 X98.139 Y110.000 E3.32362
G1 X97.816 Y110.102 E3.33368
G1 X97.469 Y110.138 E3.34403
G1 X97.141 Y110.106 E3.35383
G1 X96.825 Y110.011 E3.36360
G1 X96.534 Y109.858 E3.37338
G1 X96.278 Y109.651 E3.38316
G1 X96.066 Y109.399 E3.39294
G1 X95.905 Y109.107 E3.40283
G1 X95.803 Y108.784 E3.41288
G1 X95.768 Y108.437 E3.42324
G1 X95.799 Y108.109 E3.43303
G1 X95.894 Y107.794 E3.44281
G1 X96.047 Y107.502 E3.45258
G1 X96.216 Y107.293 E3.46058
G1 X96.176 Y106.926 F6000.000
G1 X97.003 Y104.029 F6000.000
G1 X96.554 Y103.895 E3.47448 F1500.000
G1 X96.140 Y103.676 E3.48838
G1 X95.775 Y103.383 E3.50228
G1 X95.474 Y103.024 E3.51620
G1 X95.246 Y102.609 E3.53026
G1 X95.100 Y102.149 E3.54458
G1 X95.050 Y101.658 E3.55922
G1 X95.095 Y101.190 E3.57320
G1 X95.230 Y100.741 E3.58710
G1 X95.448 Y100.327 E3.60100
G1 X95.742 Y99.962 E3.61490
G1 X96.101 Y99.661 E3.62882
G1 X96.516 Y99.433 E3.64288
G1 X96.975 Y99.288 E3.65720
G1 X97.438 Y99.240 E3.67099 F1500.000
G1 X97.928 Y99.281 E3.68561
G1 X98.383 Y99.417 E3.69971
G1 X98.797 Y99.635 E3.71361
G1 X99.162 Y99.929 E3.72751
G1 X99.463 Y100.288 E3.74142
G1 X99.692 Y100.703 E3.75549
G1 X99.837 Y101.162 E3.76980
G1 X99.887 Y101.653 E3.78444
G1 X99.842 Y102.122 E3.79842
G1 X99.707 Y102.570 E3.81233
G1 X99.489 Y102.984 E3.82623
G1 X99.195 Y103.349 E3.84013
G1 X98.836 Y103.650 E3.85404
G1 X98.421 Y103.879 E3.86811
G1 X97.962 Y104.024 E3.88242
G1 X97.471 Y104.074 E3.89706
G1 X97.062 Y104.035 E3.90926
G1 X97.072 Y103.677 F6000.000
G1 X96.690 Y103.562 E3.92110 F1500.000
G1 X96.337 Y103.377 E3.93294
G1 X96.027 Y103.126 E3.94478
G1 X95.770 Y102.821 E3.95663
G1 X95.575 Y102.467 E3.96860
G1 X95.452 Y102.076 E3.98079
G1 X95.409 Y101.657 E3.99329
G1 X95.447 Y101.259 E4.00517
G1 X95.562 Y100.877 E4.01701
G1 X95.748 Y100.524 E4.02885
G1 X95.998 Y100.214 E4.04069
G1 X96.303 Y99.957 E4.05254
G1 X96.657 Y99.762 E4.06452
G1 X97.048 Y99.639 E4.07670
G1 X97.441 Y99.598 E4.08843 F1500.000
G1 X97.862 Y99.633 E4.10096
G1 X98.247 Y99.749 E4.11291
G1 X98.600 Y99.935 E4.12475
G1 X98.911 Y100.185 E4.13659
G1 X99.167 Y100.491 E4.14844
G1 X99.362 Y100.844 E4.16041
G1 X99.485 Y101.235 E4.17260
G1 X99.528 Y101.654 E4.18510
G1 X99.490 Y102.052 E4.19699
G1 X99.375 Y102.434 E4.20882
G1 X99.190 Y102.787 E4.22066
G1 X98.939 Y103.098 E4.23250
G1 X98.634 Y103.354 E4.24435
G1 X98.280 Y103.549 E4.25633
G1 X97.889 Y103.672 E4.26851
G1 X97.470 Y103.715 E4.28101
G1 X97.131 Y103.683 E4.29112
G1 X97.141 Y103.325 F6000.000
G1 X96.825 Y103.230 E4.30089 F1500.000
G1 X96.534 Y103.077 E4.31067
G1 X96.278 Y102.870 E4.32044
G1 X96.066 Y102.618 E4.33022
G1 X95.905 Y102.326 E4.34011
G1 X95.803 Y102.003 E4.35017
G1 X95.768 Y101.656 E4.36052
G1 X95.799 Y101.328 E4.37032
G1 X95.894 Y101.012 E4.38010
G1 X96.047 Y100.721 E4.38987
G1 X96.254 Y100.465 E4.39965
G1 X96.506 Y100.253 E4.40943
G1 X96.798 Y100.092 E4.41932
G1 X97.121 Y99.990 E4.42937
G1 X97.445 Y99.957 E4.43904 F1500.000
G1 X97.795 Y99.986 E4.44947
G1 X98.112 Y100.081 E4.45929
G1 X98.403 Y100.234 E4.46906
G1 X98.659 Y100.441 E4.47884
G1 X98.871 Y100.693 E4.48862
G1 X99.032 Y100.985 E4.49851
G1 X99.134 Y101.308 E4.50856
G1 X99.170 Y101.655 E4.51892
G1 X99.138 Y101.983 E4.52871
G1 X99.043 Y102.299 E4.53849
G1 X98.890 Y102.590 E4.54827
G1 X98.683 Y102.846 E4.55804
G1 X98.431 Y103.058 E4.56782
G1 X98.139 Y103.219 E4.57771
G1 X97.816 Y103.321 E4.58777
G1 X97.469 Y103.357 E4.59812
G1 X97.201 Y103.331 E4.60614
G1 X96.916 Y103.566 F6000.000
G1 X90.616 Y103.323 F6000.000
G1 X91.054 Y103.676 E4.62285 F1500.000
G1 X91.468 Y103.895 E4.63675
G1 X91.917 Y104.029 E4.65065
G1 X92.386 Y104.074 E4.66464
G1 X92.876 Y104.024 E4.67927
G1 X93.336 Y103.879 E4.69359
G1 X93.751 Y103.650 E4.70765
G1 X94.110 Y103.349 E4.72157
G1 X94.404 Y102.984 E4.73547
G1 X94.622 Y102.570 E4.74937
G1 X94.756 Y102.122 E4.76327
G1 X94.801 Y101.653 E4.77725
G1 X94.751 Y101.162 E4.79189
G1 X94.606 Y100.703 E4.80621
G1 X94.377 Y100.288 E4.82027
G1 X94.076 Y99.929 E4.83419
G1 X93.711 Y99.635 E4.84809
G1 X93.297 Y99.417 E4.86199
G1 X92.843 Y99.281 E4.87608
G1 X92.352 Y99.240 E4.89070
G1 X91.890 Y99.288 E4.90450
G1 X91.430 Y99.433 E4.91881
G1 X91.015 Y99.661 E4.93288
G1 X90.616 Y99.996 E4.94834
G1 X90.616 Y98.115 E5.00418
G1 X104.386 Y98.115 E5.41301
G1 X104.386 Y100.040 E5.47016
G1 X103.883 Y99.635 E5.48933
G1 X103.469 Y99.417 E5.50323
G1 X103.014 Y99.281 E5.51732
G1 X102.523 Y99.240 E5.53194
G1 X102.061 Y99.288 E5.54574
G1 X101.601 Y99.433 E5.56005
G1 X101.186 Y99.661 E5.57412
G1 X100.827 Y99.962 E5.58804
G1 X100.534 Y100.327 E5.60194
G1 X100.315 Y100.741 E5.61584
G1 X100.181 Y101.190 E5.62974
G1 X100.136 Y101.658 E5.64372
G1 X100.186 Y102.149 E5.65836
G1 X100.331 Y102.609 E5.67267
G1 X100.560 Y103.024 E5.68674
G1 X100.861 Y103.383 E5.70065
G1 X101.226 Y103.676 E5.71456
G1 X101.640 Y103.895 E5.72846
G1 X102.088 Y104.029 E5.74236
G1 X102.557 Y104.074 E5.75634
G1 X103.047 Y104.024 E5.77098
G1 X103.507 Y103.879 E5.78529
G1 X103.922 Y103.650 E5.79936
G1 X104.386 Y103.261 E5.81732
G1 X104.386 Y106.821 E5.92302
G1 X103.883 Y106.416 E5.94218
G1 X103.469 Y106.198 E5.95609
G1 X103.014 Y106.062 E5.97018
G1 X102.523 Y106.021 E5.98480
G1 X102.061 Y106.069 E5.99859
G1 X101.601 Y106.214 E6.01291
G1 X101.186 Y106.442 E6.02698
G1 X100.827 Y106.744 E6.04089
G1 X100.534 Y107.108 E6.05479
G1 X100.315 Y107.522 E6.06869
G1 X100.181 Y107.971 E6.08259
G1 X100.136 Y108.439 E6.09658
G1 X100.186 Y108.930 E6.11121
G1 X100.331 Y109.390 E6.12553
G1 X100.560 Y109.805 E6.13960
G1 X100.861 Y110.164 E6.15351
G1 X101.226 Y110.457 E6.16741
G1 X101.640 Y110.676 E6.18131
G1 X102.088 Y110.810 E6.19521
G1 X102.557 Y110.855 E6.20919
G1 X103.047 Y110.805 E6.22383
G1 X103.507 Y110.660 E6.23815
G1 X103.922 Y110.431 E6.25221
G1 X104.386 Y110.042 E6.27017
G1 X104.386 Y111.885 E6.32488
G1 X90.615 Y111.886 E6.73375
G1 X90.615 Y110.104 E6.78665
G1 X91.054 Y110.457 E6.80339
G1 X91.468 Y110.676 E6.81729
G1 X91.917 Y110.810 E6.83119
G1 X92.386 Y110.855 E6.84517
G1 X92.876 Y110.805 E6.85981
G1 X93.336 Y110.660 E6.87412
G1 X93.751 Y110.431 E6.88819
G1 X94.110 Y110.130 E6.90211
G1 X94.404 Y109.765 E6.91601
G1 X94.622 Y109.351 E6.92991
G1 X94.756 Y108.903 E6.94381
G1 X94.801 Y108.434 E6.95779
G1 X94.751 Y107.944 E6.97243
G1 X94.606 Y107.484 E6.98674
G1 X94.377 Y107.069 E7.00081
G1 X94.076 Y106.710 E7.01473
G1 X93.711 Y106.416 E7.02863
G1 X93.297 Y106.198 E7.04253
G1 X92.843 Y106.062 E7.05662
G1 X92.352 Y106.021 E7.07124
G1 X91.890 Y106.069 E7.08504
G1 X91.430 Y106.214 E7.09935
G1 X91.015 Y106.442 E7.11342
G1 X90.616 Y106.777 E7.12890
G1 X90.616 Y103.383 E7.22968
G1 X90.259 Y102.339 F6000.000
G1 X90.440 Y102.311 E7.23513 F1500.000
G1 X90.490 Y102.467 E7.23999
G1 X90.684 Y102.821 E7.25196
G1 X90.941 Y103.126 E7.26381
G1 X91.251 Y103.377 E7.27565
G1 X91.604 Y103.562 E7.28749
G1 X91.986 Y103.677 E7.29933
G1 X92.384 Y103.715 E7.31122
G1 X92.803 Y103.672 E7.32371
G1 X93.194 Y103.549 E7.33590
G1 X93.548 Y103.354 E7.34788
G1 X93.853 Y103.098 E7.35972
G1 X94.104 Y102.787 E7.37156
G1 X94.290 Y102.434 E7.38340
G1 X94.404 Y102.052 E7.39524
G1 X94.443 Y101.654 E7.40713
G1 X94.399 Y101.235 E7.41962
G1 X94.276 Y100.844 E7.43181
G1 X94.081 Y100.491 E7.44379
G1 X93.825 Y100.185 E7.45563
G1 X93.514 Y99.935 E7.46747
G1 X93.162 Y99.749 E7.47931
G1 X92.776 Y99.633 E7.49127
G1 X92.355 Y99.598 E7.50379
G1 X91.962 Y99.639 E7.51552
G1 X91.571 Y99.762 E7.52771
G1 X91.218 Y99.957 E7.53969
G1 X90.912 Y100.214 E7.55153
G1 X90.662 Y100.524 E7.56337
G1 X90.476 Y100.877 E7.57521
G1 X90.442 Y100.990 E7.57871
G1 X90.259 Y100.963 E7.58421
G1 X90.259 Y97.758 E7.67938
G1 X104.743 Y97.758 E8.10941
G1 X104.743 Y101.176 E8.21089
G1 X104.561 Y101.204 E8.21635
G1 X104.447 Y100.844 E8.22755
G1 X104.253 Y100.491 E8.23953
G1 X103.996 Y100.185 E8.25138
G1 X103.686 Y99.935 E8.26322
G1 X103.333 Y99.749 E8.27506
G1 X102.947 Y99.633 E8.28701
G1 X102.527 Y99.598 E8.29954
G1 X102.134 Y99.639 E8.31127
G1 X101.743 Y99.762 E8.32345
G1 X101.389 Y99.957 E8.33543
G1 X101.084 Y100.214 E8.34728
G1 X100.833 Y100.524 E8.35912
G1 X100.648 Y100.877 E8.37096
G1 X100.533 Y101.259 E8.38279
G1 X100.494 Y101.657 E8.39468
G1 X100.538 Y102.076 E8.40718
G1 X100.661 Y102.467 E8.41936
G1 X100.856 Y102.821 E8.43134
G1 X101.112 Y103.126 E8.44319
G1 X101.423 Y103.377 E8.45503
G1 X101.776 Y103.562 E8.46687
G1 X102.157 Y103.677 E8.47871
G1 X102.556 Y103.715 E8.49059
G1 X102.975 Y103.672 E8.50309
G1 X103.366 Y103.549 E8.51528
G1 X103.719 Y103.354 E8.52725
G1 X104.025 Y103.098 E8.53910
G1 X104.275 Y102.787 E8.55094
G1 X104.461 Y102.434 E8.56278
G1 X104.559 Y102.106 E8.57296
G1 X104.743 Y102.133 E8.57846
G1 X104.743 Y107.957 E8.75139
G1 X104.561 Y107.985 E8.75684
G1 X104.447 Y107.625 E8.76805
G1 X104.253 Y107.272 E8.78003
G1 X103.996 Y106.966 E8.79188
G1 X103.686 Y106.716 E8.80372
G1 X103.333 Y106.530 E8.81555
G1 X102.947 Y106.414 E8.82751
G1 X102.527 Y106.379 E8.84004
G1 X102.134 Y106.420 E8.85177
G1 X101.743 Y106.544 E8.86395
G1 X101.389 Y106.738 E8.87593
G1 X101.084 Y106.995 E8.88778
G1 X100.833 Y107.305 E8.89961
G1 X100.648 Y107.658 E8.91145
G1 X100.533 Y108.040 E8.92329
G1 X100.494 Y108.438 E8.93518
G1 X100.538 Y108.857 E8.94768
G1 X100.661 Y109.248 E8.95986
G1 X100.856 Y109.602 E8.97184
G1 X101.112 Y109.907 E8.98369
G1 X101.423 Y110.158 E8.99553
G1 X101.776 Y110.343 E9.00736
G1 X102.157 Y110.458 E9.01920
G1 X102.556 Y110.497 E9.03109
G1 X102.975 Y110.453 E9.04359
G1 X103.366 Y110.330 E9.05577
G1 X103.719 Y110.135 E9.06775
G1 X104.025 Y109.879 E9.07960
G1 X104.275 Y109.568 E9.09144
G1 X104.461 Y109.215 E9.10328
G1 X104.559 Y108.887 E9.11346
G1 X104.743 Y108.914 E9.11896
