; generated by Slic3r 1.2.9 on 2016-12-22 at 21:47:16

; external perimeters extrusion width = 0.40mm
; perimeters extrusion width = 0.68mm
; infill extrusion width = 1.28mm
; solid infill extrusion width = 0.68mm
; top infill extrusion width = 0.68mm

M107
M190 S65 ; set bed temperature
M104 S200 ; set temperature
G28 ; home all axes
G1 Z5 F5000 ; lift nozzle

M109 S200 ; wait for temperature to be reached
G21 ; set units to millimeters
G90 ; use absolute coordinates
M82 ; use absolute distances for extrusion
G92 E0
G1 Z0.250 F7800.000
G1 E-2.00000 F2400.00000
G92 E0
G1 X85.490 Y92.449 F7800.000
G1 E2.00000 F2400.00000
G1 X86.860 Y91.501 E2.07728 F1500.000
G1 X88.160 Y90.981 E2.14223
G1 X89.108 Y90.786 E2.18714
G1 X90.097 Y90.723 E2.23312
G1 X104.903 Y90.723 E2.91999
G1 X105.814 Y90.776 E2.96235 F1500.000
G1 X106.266 Y90.846 E2.98356
G1 X106.708 Y90.945 E3.00456
G1 X108.115 Y91.488 E3.07453
G1 X109.412 Y92.362 E3.14711
G1 X110.137 Y93.086 E3.19465
G1 X111.065 Y94.491 E3.27273
G1 X111.109 Y94.583 E3.27749
G1 X111.639 Y96.165 E3.35488
G1 X111.710 Y96.579 E3.37435
G1 X111.776 Y97.457 E3.41521
G1 X111.776 Y112.543 E4.11510
G1 X111.708 Y113.432 E4.15644
G1 X111.637 Y113.844 E4.17586
G1 X111.100 Y115.437 E4.25385
G1 X111.055 Y115.529 E4.25862
G1 X110.124 Y116.929 E4.33657
G1 X109.397 Y117.651 E4.38411
G1 X108.021 Y118.560 E4.46061
G1 X106.701 Y119.057 E4.52608
G1 X106.266 Y119.154 E4.54674
G1 X105.814 Y119.224 E4.56795
G1 X104.903 Y119.277 E4.61031
G1 X90.140 Y119.277 E5.29519
G1 X89.108 Y119.214 E5.34316
G1 X88.167 Y119.020 E5.38774
G1 X86.793 Y118.464 E5.45652
G1 X85.564 Y117.616 E5.52575
G1 X84.822 Y116.868 E5.57466
G1 X83.875 Y115.384 E5.65632
G1 X83.357 Y113.811 E5.73316
G1 X83.272 Y113.294 E5.75746
G1 X83.223 Y112.499 E5.79441
G1 X83.223 Y97.461 E6.49209
G1 X83.271 Y96.718 E6.52662
G1 X83.355 Y96.198 E6.55104
G1 X83.865 Y94.635 E6.62731
G1 X84.810 Y93.147 E6.70907
G1 X85.448 Y92.492 E6.75153
G1 E4.75153 F2400.00000
G92 E0
G1 X103.805 Y109.663 F7800.000
G1 E2.00000 F2400.00000
G1 X103.545 Y109.881 E2.01573 F1500.000
G1 X103.245 Y110.046 E2.03164
G1 X102.912 Y110.151 E2.04782
G1 X102.555 Y110.188 E2.06447
G1 X102.217 Y110.155 E2.08023
G1 X101.892 Y110.058 E2.09596
G1 X101.592 Y109.900 E2.11169
G1 X101.328 Y109.687 E2.12741
G1 X101.110 Y109.427 E2.14314
G1 X100.945 Y109.127 E2.15905
G1 X100.840 Y108.794 E2.17523
G1 X100.803 Y108.437 E2.19188
G1 X100.836 Y108.099 E2.20764
G1 X100.933 Y107.775 E2.22337
G1 X101.091 Y107.475 E2.23910
G1 X101.304 Y107.211 E2.25482
G1 X101.564 Y106.993 E2.27056
G1 X101.864 Y106.827 E2.28647
G1 X102.197 Y106.722 E2.30264
G1 X102.524 Y106.688 E2.31792 F1500.000
G1 X102.890 Y106.718 E2.33493
G1 X103.216 Y106.816 E2.35076
G1 X103.516 Y106.973 E2.36649
G1 X103.780 Y107.186 E2.38221
G1 X103.998 Y107.446 E2.39794
G1 X104.164 Y107.746 E2.41385
G1 X104.282 Y108.122 E2.43214
G1 X104.305 Y108.440 E2.44691
G1 X104.273 Y108.774 E2.46249
G1 X104.175 Y109.099 E2.47822
G1 X104.018 Y109.399 E2.49394
G1 X103.842 Y109.616 E2.50689
G1 X103.885 Y109.992 F7800.000
G1 E0.50689 F2400.00000
G92 E0
G1 X102.912 Y103.370 F7800.000
G1 E2.00000 F2400.00000
G1 X102.555 Y103.407 E2.01665 F1500.000
G1 X102.217 Y103.374 E2.03241
G1 X101.892 Y103.277 E2.04814
G1 X101.592 Y103.119 E2.06386
G1 X101.328 Y102.906 E2.07959
G1 X101.110 Y102.646 E2.09532
G1 X100.945 Y102.346 E2.11123
G1 X100.840 Y102.013 E2.12741
G1 X100.803 Y101.656 E2.14406
G1 X100.836 Y101.318 E2.15982
G1 X100.933 Y100.993 E2.17555
G1 X101.091 Y100.694 E2.19128
G1 X101.304 Y100.430 E2.20700
G1 X101.564 Y100.212 E2.22274
G1 X101.864 Y100.046 E2.23865
G1 X102.197 Y99.941 E2.25482
G1 X102.524 Y99.907 E2.27010 F1500.000
G1 X102.890 Y99.937 E2.28711
G1 X103.216 Y100.034 E2.30294
G1 X103.516 Y100.192 E2.31866
G1 X103.780 Y100.405 E2.33439
G1 X103.998 Y100.665 E2.35012
G1 X104.164 Y100.965 E2.36603
G1 X104.269 Y101.298 E2.38221
G1 X104.306 Y101.655 E2.39886
G1 X104.273 Y101.993 E2.41462
G1 X104.175 Y102.318 E2.43035
G1 X104.018 Y102.618 E2.44608
G1 X103.805 Y102.882 E2.46180
G1 X103.545 Y103.100 E2.47754
G1 X103.245 Y103.265 E2.49345
G1 X102.969 Y103.352 E2.50684
G1 X102.788 Y103.707 F7800.000
G1 X99.008 Y106.866 F7800.000
G1 X99.282 Y107.192 E2.52661 F1500.000
G1 X99.490 Y107.570 E2.54660
G1 X99.622 Y107.988 E2.56694
G1 X99.668 Y108.435 E2.58777
G1 X99.627 Y108.860 E2.60762
G1 X99.505 Y109.268 E2.62738
G1 X99.306 Y109.645 E2.64713
G1 X99.039 Y109.977 E2.66688
G1 X98.713 Y110.251 E2.68666
G1 X98.335 Y110.458 E2.70664
G1 X97.917 Y110.590 E2.72698
G1 X97.471 Y110.637 E2.74781
G1 X97.045 Y110.595 E2.76766
G1 X96.637 Y110.473 E2.78742
G1 X96.260 Y110.275 E2.80717
G1 X95.929 Y110.007 E2.82693
G1 X95.655 Y109.681 E2.84670
G1 X95.447 Y109.303 E2.86669
G1 X95.315 Y108.885 E2.88702
G1 X95.269 Y108.439 E2.90786
G1 X95.310 Y108.013 E2.92771
G1 X95.432 Y107.605 E2.94746
G1 X95.631 Y107.228 E2.96722
G1 X95.898 Y106.897 E2.98697
G1 X96.224 Y106.623 E3.00674
G1 X96.602 Y106.415 E3.02673
G1 X97.020 Y106.283 E3.04707
G1 X97.433 Y106.240 E3.06635 F1500.000
G1 X97.887 Y106.277 E3.08745
G1 X98.300 Y106.400 E3.10748
G1 X98.677 Y106.599 E3.12724
G1 X98.962 Y106.828 E3.14421
G1 X98.695 Y107.186 F7800.000
G1 X98.913 Y107.446 E3.15994 F1500.000
G1 X99.078 Y107.746 E3.17585
G1 X99.183 Y108.079 E3.19203
G1 X99.220 Y108.436 E3.20868
G1 X99.187 Y108.774 E3.22444
G1 X99.090 Y109.099 E3.24017
G1 X98.932 Y109.399 E3.25589
G1 X98.719 Y109.663 E3.27162
G1 X98.459 Y109.881 E3.28735
G1 X98.159 Y110.046 E3.30326
G1 X97.826 Y110.151 E3.31944
G1 X97.469 Y110.188 E3.33609
G1 X97.131 Y110.155 E3.35185
G1 X96.806 Y110.058 E3.36758
G1 X96.506 Y109.900 E3.38330
G1 X96.243 Y109.687 E3.39903
G1 X96.025 Y109.427 E3.41476
G1 X95.859 Y109.127 E3.43067
G1 X95.754 Y108.794 E3.44685
G1 X95.717 Y108.437 E3.46350
G1 X95.750 Y108.099 E3.47926
G1 X95.847 Y107.775 E3.49499
G1 X96.005 Y107.475 E3.51072
G1 X96.218 Y107.211 E3.52644
G1 X96.478 Y106.993 E3.54218
G1 X96.778 Y106.827 E3.55809
G1 X97.111 Y106.722 E3.57426
G1 X97.438 Y106.688 E3.58954 F1500.000
G1 X97.804 Y106.718 E3.60655
G1 X98.131 Y106.816 E3.62238
G1 X98.431 Y106.973 E3.63810
G1 X98.648 Y107.149 E3.65105
G1 X99.024 Y107.106 F7800.000
G1 X100.016 Y107.600 F7800.000
G1 X99.652 Y106.939 E3.68604 F1500.000
G1 X99.322 Y106.546 E3.70986
G1 X98.923 Y106.224 E3.73364
G1 X98.470 Y105.985 E3.75742
G1 X97.969 Y105.835 E3.78166
G1 X97.428 Y105.792 E3.80685
G1 X96.929 Y105.844 E3.83013
G1 X96.425 Y106.003 E3.85463
G1 X95.971 Y106.253 E3.87870
G1 X95.578 Y106.583 E3.90251
G1 X95.256 Y106.982 E3.92629
G1 X94.931 Y107.600 E3.95869
G1 X94.567 Y106.939 E3.99369
G1 X94.237 Y106.546 E4.01750
G1 X93.838 Y106.224 E4.04128
G1 X93.384 Y105.985 E4.06506
G1 X92.883 Y105.835 E4.08930
G1 X92.342 Y105.792 E4.11449
G1 X91.843 Y105.844 E4.13778
G1 X91.339 Y106.003 E4.16227
G1 X90.812 Y106.293 E4.19020
G1 X90.812 Y103.807 E4.30551
G1 X91.381 Y104.107 E4.33536
G1 X91.873 Y104.254 E4.35914
G1 X92.386 Y104.304 E4.38308
G1 X92.923 Y104.249 E4.40809
G1 X93.426 Y104.090 E4.43259
G1 X93.881 Y103.840 E4.45666
G1 X94.274 Y103.510 E4.48047
G1 X94.595 Y103.110 E4.50425
G1 X94.921 Y102.493 E4.53665
G1 X95.285 Y103.153 E4.57165
G1 X95.615 Y103.547 E4.59546
G1 X96.014 Y103.868 E4.61924
G1 X96.467 Y104.107 E4.64302
G1 X96.958 Y104.254 E4.66680
G1 X97.472 Y104.304 E4.69075
G1 X98.008 Y104.249 E4.71576
G1 X98.512 Y104.090 E4.74025
G1 X98.966 Y103.840 E4.76432
G1 X99.359 Y103.510 E4.78813
G1 X99.681 Y103.110 E4.81192
G1 X100.007 Y102.493 E4.84431
G1 X100.370 Y103.153 E4.87931
G1 X100.700 Y103.547 E4.90312
G1 X101.099 Y103.868 E4.92690
G1 X101.553 Y104.107 E4.95068
G1 X102.044 Y104.254 E4.97447
G1 X102.558 Y104.304 E4.99841
G1 X103.094 Y104.249 E5.02342
G1 X103.598 Y104.090 E5.04792
G1 X104.187 Y103.765 E5.07916
G1 X104.188 Y106.318 E5.19760
G1 X103.556 Y105.985 E5.23073
G1 X103.055 Y105.835 E5.25498
G1 X102.514 Y105.792 E5.28017
G1 X102.015 Y105.844 E5.30345
G1 X101.511 Y106.003 E5.32794
G1 X101.057 Y106.253 E5.35201
G1 X100.663 Y106.583 E5.37582
G1 X100.342 Y106.982 E5.39961
G1 X100.044 Y107.547 E5.42922
G1 X98.335 Y103.677 F7800.000
G1 X97.917 Y103.809 E5.44956 F1500.000
G1 X97.471 Y103.855 E5.47039
G1 X97.045 Y103.814 E5.49024
G1 X96.637 Y103.692 E5.50999
G1 X96.260 Y103.494 E5.52975
G1 X95.929 Y103.226 E5.54950
G1 X95.655 Y102.900 E5.56927
G1 X95.447 Y102.522 E5.58926
G1 X95.315 Y102.104 E5.60960
G1 X95.269 Y101.658 E5.63043
G1 X95.310 Y101.232 E5.65028
G1 X95.432 Y100.824 E5.67004
G1 X95.631 Y100.447 E5.68979
G1 X95.898 Y100.116 E5.70955
G1 X96.224 Y99.842 E5.72932
G1 X96.602 Y99.634 E5.74931
G1 X97.020 Y99.502 E5.76964
G1 X97.433 Y99.459 E5.78892 F1500.000
G1 X97.887 Y99.495 E5.81002
G1 X98.300 Y99.619 E5.83006
G1 X98.677 Y99.818 E5.84981
G1 X99.008 Y100.085 E5.86957
G1 X99.282 Y100.411 E5.88934
G1 X99.490 Y100.789 E5.90933
G1 X99.622 Y101.207 E5.92966
G1 X99.668 Y101.654 E5.95050
G1 X99.627 Y102.079 E5.97035
G1 X99.505 Y102.487 E5.99010
G1 X99.306 Y102.864 E6.00986
G1 X99.039 Y103.196 E6.02961
G1 X98.713 Y103.470 E6.04938
G1 X98.388 Y103.648 E6.06659
G1 X98.159 Y103.265 F7800.000
G1 X97.826 Y103.370 E6.08277 F1500.000
G1 X97.469 Y103.407 E6.09941
G1 X97.131 Y103.374 E6.11518
G1 X96.806 Y103.277 E6.13090
G1 X96.506 Y103.119 E6.14663
G1 X96.243 Y102.906 E6.16236
G1 X96.025 Y102.646 E6.17809
G1 X95.859 Y102.346 E6.19400
G1 X95.754 Y102.013 E6.21018
G1 X95.717 Y101.656 E6.22683
G1 X95.750 Y101.318 E6.24259
G1 X95.847 Y100.993 E6.25831
G1 X96.005 Y100.694 E6.27404
G1 X96.218 Y100.430 E6.28977
G1 X96.478 Y100.212 E6.30550
G1 X96.778 Y100.046 E6.32141
G1 X97.111 Y99.941 E6.33759
G1 X97.438 Y99.907 E6.35286 F1500.000
G1 X97.804 Y99.937 E6.36988
G1 X98.131 Y100.034 E6.38570
G1 X98.431 Y100.192 E6.40143
G1 X98.695 Y100.405 E6.41716
G1 X98.913 Y100.665 E6.43289
G1 X99.078 Y100.965 E6.44880
G1 X99.183 Y101.298 E6.46498
G1 X99.220 Y101.655 E6.48163
G1 X99.187 Y101.993 E6.49739
G1 X99.090 Y102.318 E6.51311
G1 X98.932 Y102.618 E6.52884
G1 X98.719 Y102.882 E6.54457
G1 X98.459 Y103.100 E6.56030
G1 X98.211 Y103.236 E6.57343
G1 X98.106 Y103.610 F7800.000
G1 X100.016 Y100.819 F7800.000
G1 X99.652 Y100.158 E6.60843 F1500.000
G1 X99.322 Y99.765 E6.63224
G1 X98.923 Y99.443 E6.65602
G1 X98.470 Y99.204 E6.67980
G1 X97.969 Y99.054 E6.70404
G1 X97.428 Y99.011 E6.72923
G1 X96.929 Y99.063 E6.75251
G1 X96.425 Y99.221 E6.77701
G1 X95.971 Y99.472 E6.80108
G1 X95.578 Y99.802 E6.82489
G1 X95.256 Y100.201 E6.84867
G1 X94.931 Y100.819 E6.88107
G1 X94.567 Y100.158 E6.91607
G1 X94.237 Y99.765 E6.93988
G1 X93.838 Y99.443 E6.96366
G1 X93.384 Y99.204 E6.98744
G1 X92.883 Y99.054 E7.01168
G1 X92.342 Y99.011 E7.03687
G1 X91.843 Y99.063 E7.06016
G1 X91.339 Y99.221 E7.08465
G1 X90.812 Y99.512 E7.11258
G1 X90.812 Y98.313 E7.16820
G1 X104.187 Y98.313 E7.78870
G1 X104.187 Y99.537 E7.84547
G1 X103.556 Y99.204 E7.87859
G1 X103.055 Y99.054 E7.90283
G1 X102.514 Y99.011 E7.92802
G1 X102.015 Y99.063 E7.95130
G1 X101.511 Y99.221 E7.97580
G1 X101.057 Y99.472 E7.99987
G1 X100.663 Y99.802 E8.02368
G1 X100.342 Y100.201 E8.04746
G1 X100.044 Y100.766 E8.07707
G1 X100.007 Y109.274 F7800.000
G1 X100.370 Y109.934 E8.11207 F1500.000
G1 X100.700 Y110.328 E8.13588
G1 X101.099 Y110.649 E8.15966
G1 X101.553 Y110.888 E8.18344
G1 X102.044 Y111.035 E8.20723
G1 X102.558 Y111.085 E8.23117
G1 X103.094 Y111.030 E8.25618
G1 X103.598 Y110.871 E8.28068
G1 X104.188 Y110.546 E8.31194
G1 X104.188 Y111.688 E8.36493
G1 X90.812 Y111.688 E8.98547
G1 X90.812 Y110.588 E9.03648
G1 X91.381 Y110.888 E9.06633
G1 X91.873 Y111.035 E9.09011
G1 X92.386 Y111.085 E9.11405
G1 X92.923 Y111.030 E9.13907
G1 X93.426 Y110.871 E9.16356
G1 X93.881 Y110.621 E9.18763
G1 X94.274 Y110.291 E9.21144
G1 X94.595 Y109.892 E9.23522
G1 X94.921 Y109.274 E9.26762
G1 X95.285 Y109.934 E9.30262
G1 X95.615 Y110.328 E9.32643
G1 X96.014 Y110.649 E9.35021
G1 X96.467 Y110.888 E9.37399
G1 X96.958 Y111.035 E9.39778
G1 X97.472 Y111.085 E9.42172
G1 X98.008 Y111.030 E9.44673
G1 X98.512 Y110.871 E9.47123
G1 X98.966 Y110.621 E9.49530
G1 X99.359 Y110.291 E9.51911
G1 X99.681 Y109.892 E9.54289
G1 X99.979 Y109.327 E9.57250
G1 E7.57250 F2400.00000
G92 E0
G1 X104.634 Y109.630 F7800.000
G1 E2.00000 F2400.00000
G1 X104.634 Y112.134 E2.11619 F1500.000
G1 X90.366 Y112.134 E2.77815
G1 X90.366 Y109.439 E2.90319
G1 X90.843 Y110.007 E2.93761
G1 X91.174 Y110.275 E2.95736
G1 X91.551 Y110.473 E2.97711
G1 X91.959 Y110.595 E2.99687
G1 X92.385 Y110.637 E3.01672
G1 X92.831 Y110.590 E3.03755
G1 X93.250 Y110.458 E3.05789
G1 X93.627 Y110.251 E3.07788
G1 X93.953 Y109.977 E3.09765
G1 X94.221 Y109.645 E3.11740
G1 X94.419 Y109.268 E3.13716
G1 X94.541 Y108.860 E3.15691
G1 X94.583 Y108.435 E3.17676
G1 X94.536 Y107.988 E3.19759
G1 X94.405 Y107.570 E3.21793
G1 X94.197 Y107.192 E3.23792
G1 X93.923 Y106.866 E3.25769
G1 X93.591 Y106.599 E3.27745
G1 X93.214 Y106.400 E3.29720
G1 X92.801 Y106.277 E3.31723
G1 X92.347 Y106.240 E3.33834
G1 X91.934 Y106.283 E3.35762
G1 X91.516 Y106.415 E3.37795
G1 X91.139 Y106.623 E3.39794
G1 X90.812 Y106.897 E3.41771
G1 X90.544 Y107.229 E3.43749
G1 X90.366 Y107.166 E3.44628
G1 X90.366 Y102.658 E3.65540
G1 X90.843 Y103.226 E3.68982
G1 X91.174 Y103.494 E3.70957
G1 X91.551 Y103.692 E3.72932
G1 X91.959 Y103.814 E3.74908
G1 X92.385 Y103.855 E3.76893
G1 X92.831 Y103.809 E3.78976
G1 X93.250 Y103.677 E3.81010
G1 X93.627 Y103.470 E3.83009
G1 X93.953 Y103.196 E3.84986
G1 X94.221 Y102.864 E3.86961
G1 X94.419 Y102.487 E3.88937
G1 X94.541 Y102.079 E3.90912
G1 X94.583 Y101.654 E3.92897
G1 X94.536 Y101.207 E3.94980
G1 X94.405 Y100.789 E3.97014
G1 X94.197 Y100.411 E3.99013
G1 X93.923 Y100.085 E4.00990
G1 X93.591 Y99.818 E4.02966
G1 X93.214 Y99.619 E4.04941
G1 X92.801 Y99.495 E4.06945
G1 X92.347 Y99.459 E4.09055
G1 X91.934 Y99.502 E4.10983
G1 X91.516 Y99.634 E4.13016
G1 X91.139 Y99.842 E4.15015
G1 X90.812 Y100.116 E4.16992
G1 X90.544 Y100.448 E4.18970
G1 X90.366 Y100.385 E4.19849
G1 X90.366 Y97.867 E4.31531
G1 X104.633 Y97.867 E4.97722
G1 X104.634 Y100.476 E5.09829
G1 X104.432 Y100.528 E5.10792
G1 X104.368 Y100.411 E5.11410
G1 X104.094 Y100.085 E5.13387
G1 X103.763 Y99.818 E5.15362
G1 X103.386 Y99.619 E5.17338
G1 X102.972 Y99.495 E5.19341
G1 X102.519 Y99.459 E5.21451
G1 X102.106 Y99.502 E5.23379
G1 X101.688 Y99.634 E5.25413
G1 X101.310 Y99.842 E5.27412
G1 X100.984 Y100.116 E5.29389
G1 X100.716 Y100.447 E5.31364
G1 X100.518 Y100.824 E5.33340
G1 X100.396 Y101.232 E5.35315
G1 X100.354 Y101.658 E5.37300
G1 X100.401 Y102.104 E5.39384
G1 X100.533 Y102.522 E5.41417
G1 X100.740 Y102.900 E5.43416
G1 X101.014 Y103.226 E5.45393
G1 X101.346 Y103.494 E5.47369
G1 X101.723 Y103.692 E5.49344
G1 X102.131 Y103.814 E5.51320
G1 X102.556 Y103.855 E5.53305
G1 X103.003 Y103.809 E5.55388
G1 X103.421 Y103.677 E5.57422
G1 X103.799 Y103.470 E5.59420
G1 X104.125 Y103.196 E5.61398
G1 X104.455 Y102.786 E5.63837
G1 X104.634 Y102.849 E5.64716
G1 X104.634 Y107.258 E5.85170
G1 X104.433 Y107.310 E5.86134
G1 X104.368 Y107.192 E5.86755
G1 X104.094 Y106.866 E5.88732
G1 X103.763 Y106.599 E5.90708
G1 X103.386 Y106.400 E5.92683
G1 X102.972 Y106.277 E5.94687
G1 X102.519 Y106.240 E5.96797
G1 X102.106 Y106.283 E5.98725
G1 X101.688 Y106.415 E6.00758
G1 X101.310 Y106.623 E6.02757
G1 X100.984 Y106.897 E6.04734
G1 X100.716 Y107.228 E6.06710
G1 X100.518 Y107.605 E6.08685
G1 X100.396 Y108.013 E6.10661
G1 X100.354 Y108.439 E6.12646
G1 X100.401 Y108.885 E6.14729
G1 X100.533 Y109.303 E6.16763
G1 X100.740 Y109.681 E6.18762
G1 X101.014 Y110.007 E6.20739
G1 X101.346 Y110.275 E6.22714
G1 X101.723 Y110.473 E6.24690
G1 X102.131 Y110.595 E6.26665
G1 X102.556 Y110.637 E6.28650
G1 X103.003 Y110.590 E6.30733
G1 X103.421 Y110.458 E6.32767
G1 X103.799 Y110.251 E6.34766
G1 X104.125 Y109.977 E6.36743
G1 X104.456 Y109.567 E6.39186
G1 X104.578 Y109.610 E6.39787
G1 E4.39787 F2400.00000
G92 E0
G1 X93.846 Y102.618 F7800.000
G1 E2.00000 F2400.00000
G1 X93.633 Y102.882 E2.01573 F1500.000
G1 X93.373 Y103.100 E2.03146
G1 X93.073 Y103.265 E2.04737
G1 X92.740 Y103.370 E2.06355
G1 X92.383 Y103.407 E2.08020
G1 X92.045 Y103.374 E2.09596
G1 X91.721 Y103.277 E2.11168
G1 X91.421 Y103.119 E2.12741
G1 X91.157 Y102.906 E2.14314
G1 X90.939 Y102.646 E2.15887
G1 X90.773 Y102.346 E2.17478
G1 X90.668 Y102.013 E2.19096
