; Generated with MatterSlice 1.0
; filamentDiameter = 1.75
; extrusionWidth = 0.4
; firstLayerExtrusionWidth = 0.4
; layerThickness = 0.1
; firstLayerThickness = 0.4
; automatic settings before start_gcode
G21 ; set units to millimeters
M107 ; fan off
M190 S70 ; wait for bed temperature to be reached
M104 T0 S200 ; start heating extruder 1
T0 ; set the active extruder to 0
; settings from start_gcode
G28 ; home all axes
G1 Z5 F5000 ; lift nozzle
; automatic settings after start_gcode
M109 T0 S200 ; wait for extruder 1 to reach temperature
T0 ; set the active extruder to 0
G90 ; use absolute coordinates
G92 E0 ; reset the expected extruder position
M82 ; use absolute distance for extrusion
; Layer count: 157
; Layer Change GCode
; LAYER:0
G4 P0
M107
G0 F7800 X110.121 Y86.327 Z0.4
; TYPE:SKIRT
G1 F1800 E0
G1 F1080 X112.167 Y87.691 E0.16357
G1 X113.474 Y89.517 E0.31295
G1 X114.095 Y91.524 E0.4527
G1 X114.099 Y108.177 E1.56046
G1 X113.716 Y109.909 E1.67846
G1 X112.53 Y111.968 E1.83652
G1 X110.621 Y113.4 E1.99526
G1 X108.592 Y114.093 E2.13789
G1 X91.799 Y114.099 E3.25496
G1 X89.743 Y113.628 E3.39527
G1 X87.812 Y112.256 E3.55284
G1 X86.5 Y110.472 E3.70015
G1 X85.908 Y108.414 E3.8426
G1 X85.901 Y92.678 E4.88937
G1 X85.968 Y90.817 E5.01324
G1 X87.238 Y88.311 E5.20012
G1 X89.227 Y86.645 E5.37271
G1 X91.394 Y85.916 E5.5248
G1 X93.048 Y85.901 E5.63483
G1 X108.168 Y85.901 E6.64062
G1 X110.121 Y86.327 E6.77359
G1 F1800 E5.77359
G0 F7800 X92.523 Y107.699
; TYPE:WALL-OUTER
G1 F1800 E6.77359
G1 F1080 X92.523 Y107.699 E6.77359
G1 X92.413 Y107.674 E6.78109
G1 X92.334 Y107.601 E6.78825
G1 X92.308 Y107.512 E6.79441
G1 X92.301 Y92.796 E7.77333
G1 X92.313 Y92.453 E7.79616
G1 X92.353 Y92.374 E7.80205
G1 X92.408 Y92.328 E7.80682
G1 X92.471 Y92.307 E7.81123
G1 X107.48 Y92.301 E8.80964
G1 X107.577 Y92.322 E8.81624
G1 X107.667 Y92.399 E8.82412
G1 X107.695 Y92.491 E8.83051
G1 X107.699 Y107.48 E9.82759
G1 X107.68 Y107.566 E9.83345
G1 X107.64 Y107.636 E9.83881
G1 X107.529 Y107.693 E9.84711
G1 X92.523 Y107.699 E10.84531
G0 F7800 X92.708 Y107.299
; TYPE:WALL-INNER
G1 F1080 X92.708 Y107.299 E10.84531
G1 X92.705 Y92.705 E11.81611
G1 X107.295 Y92.701 E12.78664
G1 X107.299 Y107.293 E13.7573
G1 X92.708 Y107.299 E14.7279
G0 F7800 X93.108 Y106.899
G0 X93.108 Y106.899
G1 F1080 X93.108 Y105.53 E14.81897
G0 F7800 X93.307 Y105.529
G1 F1080 X93.107 Y105.197 E14.84475
G0 F7800 X93.506 Y105.529
G1 F1080 X93.937 Y105.755 E14.87712
G1 X94.401 Y105.894 E14.90934
G1 X94.887 Y105.941 E14.94182
G1 X95.393 Y105.888 E14.97567
G1 X95.87 Y105.739 E15.00891
G1 X96.301 Y105.501 E15.04166
G1 X96.671 Y105.189 E15.07385
G1 X96.976 Y104.813 E15.10606
G1 X97.202 Y104.382 E15.13843
G1 X97.341 Y103.918 E15.17065
G1 X97.388 Y103.434 E15.203
G1 X97.337 Y102.926 E15.23696
G1 X97.185 Y102.448 E15.27033
G1 X96.948 Y102.02 E15.30287
G1 X96.636 Y101.648 E15.33517
G1 X96.258 Y101.343 E15.36748
G1 X95.831 Y101.118 E15.39958
G1 X95.367 Y100.978 E15.43182
G1 X94.879 Y100.931 E15.46444
G1 X94.371 Y100.984 E15.49841
G1 X93.897 Y101.134 E15.53148
G1 X93.468 Y101.37 E15.56405
G0 F7800 X93.286 Y101.37
G1 F1080 X93.105 Y101.674 E15.58759
G0 F7800 X93.105 Y101.371
G1 F1080 X93.104 Y98.414 E15.78429
G1 X93.506 Y98.748 E15.81906
G1 X93.935 Y98.975 E15.85134
G1 X94.401 Y99.114 E15.88369
G1 X94.887 Y99.161 E15.91617
G1 X95.393 Y99.108 E15.95001
G1 X95.87 Y98.959 E15.98326
G1 X96.301 Y98.721 E16.01601
G1 X96.671 Y98.409 E16.0482
G1 X96.976 Y98.033 E16.08041
G1 X97.202 Y97.602 E16.11278
G1 X97.341 Y97.138 E16.145
G1 X97.388 Y96.654 E16.17735
G1 X97.337 Y96.146 E16.21131
G1 X97.186 Y95.669 E16.24459
G1 X96.948 Y95.238 E16.27734
G1 X96.636 Y94.867 E16.30959
G1 X96.26 Y94.564 E16.34171
G1 X95.831 Y94.337 E16.374
G1 X95.365 Y94.198 E16.40635
G1 X94.879 Y94.151 E16.43882
G1 X94.371 Y94.204 E16.4728
G1 X93.897 Y94.354 E16.50587
G1 X93.468 Y94.59 E16.53844
G0 F7800 X93.285 Y94.59
G1 F1080 X93.102 Y94.897 E16.56222
G0 F7800 X93.102 Y94.591
G1 F1080 X93.101 Y93.101 E16.66133
G1 X106.895 Y93.101 E17.57891
G1 X106.895 Y94.866 E17.69632
G0 F7800 X106.851 Y94.866
G1 F1080 X106.896 Y94.972 E17.70398
G0 F7800 X106.807 Y94.867
G1 F1080 X106.431 Y94.564 E17.7361
G1 X106.002 Y94.337 E17.76839
G1 X105.536 Y94.198 E17.80074
G1 X105.05 Y94.151 E17.83322
G1 X104.543 Y94.204 E17.86713
G1 X104.067 Y94.354 E17.90033
G1 X103.637 Y94.59 E17.93295
G1 X103.266 Y94.903 E17.96524
G1 X102.961 Y95.279 E17.99745
G1 X102.735 Y95.71 E18.02982
G1 X102.596 Y96.174 E18.06204
G1 X102.549 Y96.66 E18.09452
G1 X102.602 Y97.166 E18.12837
G1 X102.751 Y97.643 E18.16161
G1 X102.989 Y98.074 E18.19436
G1 X103.301 Y98.445 E18.2266
G1 X103.677 Y98.748 E18.25873
G1 X104.106 Y98.975 E18.29101
G1 X104.572 Y99.114 E18.32336
G1 X105.058 Y99.161 E18.35584
G1 X105.564 Y99.108 E18.38968
G1 X106.04 Y98.959 E18.42286
G1 X106.472 Y98.721 E18.45567
G1 X106.843 Y98.409 E18.48792
G0 F7800 X106.87 Y98.409
G1 F1080 X106.897 Y98.342 E18.49272
G0 F7800 X106.897 Y98.409
G1 F1080 X106.897 Y101.648 E18.70818
G0 F7800 X106.852 Y101.648
G1 F1080 X106.897 Y101.756 E18.71596
G0 F7800 X106.807 Y101.648
G1 F1080 X106.429 Y101.343 E18.74827
G1 X106.002 Y101.118 E18.78038
G1 X105.538 Y100.978 E18.81262
G1 X105.05 Y100.931 E18.84523
G1 X104.543 Y100.984 E18.87914
G1 X104.067 Y101.134 E18.91234
G1 X103.637 Y101.37 E18.94497
G1 X103.266 Y101.683 E18.97726
G1 X102.961 Y102.059 E19.00946
G1 X102.735 Y102.49 E19.04184
G1 X102.596 Y102.954 E19.07406
G1 X102.549 Y103.44 E19.10654
G1 X102.602 Y103.946 E19.14038
G1 X102.751 Y104.423 E19.17362
G1 X102.989 Y104.854 E19.20637
G1 X103.301 Y105.224 E19.23857
G1 X103.677 Y105.529 E19.27077
G1 X104.108 Y105.755 E19.30315
G1 X104.572 Y105.894 E19.33537
G1 X105.058 Y105.941 E19.36785
G1 X105.564 Y105.888 E19.40169
G1 X106.04 Y105.739 E19.43487
G1 X106.472 Y105.501 E19.46768
G1 X106.843 Y105.189 E19.49992
G0 F7800 X106.87 Y105.188
G1 F1080 X106.898 Y105.12 E19.50482
G0 F7800 X106.898 Y105.188
G1 F1080 X106.899 Y106.893 E19.61823
G1 X93.108 Y106.899 E20.53561
G0 F7800 X94.856 Y105.435
G0 X94.856 Y105.435
G0 X94.884 Y105.137
; TYPE:WALL-OUTER
G1 F1080 X94.884 Y105.137 E20.53561
G1 X95.231 Y105.101 E20.55882
G1 X95.554 Y105 E20.58133
G1 X95.846 Y104.839 E20.60351
G1 X96.097 Y104.627 E20.62537
G1 X96.305 Y104.371 E20.64731
G1 X96.458 Y104.079 E20.66924
G1 X96.552 Y103.764 E20.69111
G1 X96.584 Y103.436 E20.71303
G1 X96.549 Y103.088 E20.73629
G1 X96.447 Y102.766 E20.75876
G1 X96.286 Y102.474 E20.78094
G1 X96.074 Y102.222 E20.80285
G1 X95.817 Y102.015 E20.8248
G1 X95.526 Y101.862 E20.84667
G1 X95.211 Y101.767 E20.86856
G1 X94.882 Y101.735 E20.89054
G1 X94.535 Y101.771 E20.91375
G1 X94.213 Y101.873 E20.93622
G1 X93.922 Y102.033 E20.95831
G1 X93.669 Y102.245 E20.98027
G1 X93.462 Y102.502 E21.00222
G1 X93.309 Y102.793 E21.02409
G1 X93.214 Y103.108 E21.04597
G1 X93.182 Y103.437 E21.06796
G1 X93.218 Y103.784 E21.09117
G1 X93.32 Y104.107 E21.1137
G1 X93.48 Y104.399 E21.13585
G1 X93.692 Y104.65 E21.15771
G1 X93.948 Y104.858 E21.17965
G1 X94.24 Y105.011 E21.20158
G1 X94.555 Y105.105 E21.22344
G1 X94.884 Y105.137 E21.24543
G0 F7800 X94.885 Y105.539
; TYPE:WALL-INNER
G1 F1080 X94.885 Y105.539 E21.24543
G1 X95.312 Y105.495 E21.27399
G1 X95.712 Y105.37 E21.30186
G1 X96.074 Y105.17 E21.32937
G1 X96.384 Y104.908 E21.35637
G1 X96.641 Y104.592 E21.38347
G1 X96.83 Y104.23 E21.41063
G1 X96.947 Y103.841 E21.43765
G1 X96.986 Y103.435 E21.46479
G1 X96.943 Y103.007 E21.4934
G1 X96.816 Y102.607 E21.52132
G1 X96.617 Y102.247 E21.54868
G1 X96.355 Y101.935 E21.57578
G1 X96.038 Y101.679 E21.60289
G1 X95.678 Y101.49 E21.62993
G1 X95.289 Y101.373 E21.65695
G1 X94.881 Y101.333 E21.68422
G1 X94.453 Y101.378 E21.71285
G1 X94.055 Y101.504 E21.74062
G1 X93.695 Y101.701 E21.76792
G1 X93.382 Y101.964 E21.79512
G1 X93.126 Y102.281 E21.82222
G1 X92.937 Y102.641 E21.84927
G1 X92.82 Y103.03 E21.87629
G1 X92.78 Y103.438 E21.90356
G1 X92.825 Y103.866 E21.93219
G1 X92.951 Y104.265 E21.96002
G1 X93.149 Y104.626 E21.98741
G1 X93.411 Y104.937 E22.01446
G1 X93.727 Y105.194 E22.04155
G1 X94.089 Y105.383 E22.06872
G1 X94.478 Y105.5 E22.09574
G1 X94.885 Y105.539 E22.12294
G0 F7800 X98.614 Y105.461
G0 X99.014 Y105.453
G0 X99.942 Y105.435
G0 X99.942 Y105.435
G0 X99.97 Y105.137
; TYPE:WALL-OUTER
G1 F1080 X99.97 Y105.137 E22.12294
G1 X100.316 Y105.101 E22.14608
G1 X100.638 Y105 E22.16853
G1 X100.931 Y104.839 E22.19077
G1 X101.183 Y104.627 E22.21267
G1 X101.389 Y104.371 E22.23453
G1 X101.543 Y104.079 E22.25649
G1 X101.637 Y103.764 E22.27836
G1 X101.669 Y103.435 E22.30034
G1 X101.633 Y103.088 E22.32355
G1 X101.532 Y102.766 E22.346
G1 X101.371 Y102.474 E22.36818
G1 X101.159 Y102.222 E22.39009
G1 X100.902 Y102.015 E22.41204
G1 X100.611 Y101.862 E22.43391
G1 X100.296 Y101.767 E22.45579
G1 X99.968 Y101.735 E22.47772
G1 X99.621 Y101.771 E22.50092
G1 X99.299 Y101.873 E22.52339
G1 X99.006 Y102.033 E22.5456
G1 X98.754 Y102.245 E22.5675
G1 X98.548 Y102.501 E22.58936
G1 X98.394 Y102.793 E22.61132
G1 X98.3 Y103.108 E22.63319
G1 X98.268 Y103.437 E22.65518
G1 X98.304 Y103.784 E22.67838
G1 X98.406 Y104.107 E22.70092
G1 X98.566 Y104.399 E22.72306
G1 X98.778 Y104.65 E22.74492
G1 X99.034 Y104.858 E22.76686
G1 X99.326 Y105.011 E22.78879
G1 X99.641 Y105.105 E22.81066
G1 X99.97 Y105.137 E22.83265
G0 F7800 X99.971 Y105.539
; TYPE:WALL-INNER
G1 F1080 X99.971 Y105.539 E22.83265
G1 X100.397 Y105.495 E22.86113
G1 X100.796 Y105.37 E22.88895
G1 X101.158 Y105.17 E22.91646
G1 X101.47 Y104.908 E22.94356
G1 X101.724 Y104.592 E22.97053
G1 X101.915 Y104.231 E22.9977
G1 X102.032 Y103.841 E23.02478
G1 X102.071 Y103.434 E23.05198
G1 X102.027 Y103.007 E23.08053
G1 X101.901 Y102.608 E23.10837
G1 X101.702 Y102.247 E23.13579
G1 X101.44 Y101.935 E23.16289
G1 X101.123 Y101.679 E23.18999
G1 X100.763 Y101.49 E23.21704
G1 X100.374 Y101.373 E23.24406
G1 X99.967 Y101.333 E23.27127
G1 X99.539 Y101.378 E23.2999
G1 X99.141 Y101.504 E23.32767
G1 X98.779 Y101.701 E23.35508
G1 X98.467 Y101.964 E23.38222
G1 X98.213 Y102.28 E23.40919
G1 X98.022 Y102.641 E23.43636
G1 X97.905 Y103.031 E23.46345
G1 X97.866 Y103.438 E23.49064
G1 X97.911 Y103.866 E23.51927
G1 X98.037 Y104.265 E23.54711
G1 X98.235 Y104.626 E23.57449
G1 X98.497 Y104.937 E23.60154
G1 X98.813 Y105.194 E23.62864
G1 X99.175 Y105.383 E23.6558
G1 X99.564 Y105.5 E23.68283
G1 X99.971 Y105.539 E23.71002
G0 F7800 X99.973 Y105.941
G1 F1080 X99.973 Y105.941 E23.71002
G1 X100.479 Y105.888 E23.74387
G1 X100.954 Y105.739 E23.77698
G1 X101.386 Y105.501 E23.80979
G1 X101.757 Y105.189 E23.84204
G1 X102.06 Y104.813 E23.87416
G1 X102.287 Y104.384 E23.90645
G1 X102.426 Y103.918 E23.93879
G1 X102.473 Y103.432 E23.97127
G1 X102.42 Y102.926 E24.00512
G1 X102.271 Y102.45 E24.0383
G1 X102.033 Y102.02 E24.07099
G1 X101.721 Y101.648 E24.10328
G1 X101.343 Y101.343 E24.13559
G1 X100.916 Y101.118 E24.1677
G1 X100.452 Y100.978 E24.19994
G1 X99.966 Y100.931 E24.23242
G1 X99.457 Y100.984 E24.26646
G1 X98.983 Y101.134 E24.29953
G1 X98.552 Y101.37 E24.33222
G1 X98.18 Y101.683 E24.36456
G1 X97.877 Y102.059 E24.39668
G1 X97.65 Y102.488 E24.42897
G1 X97.511 Y102.954 E24.46132
G1 X97.464 Y103.44 E24.4938
G1 X97.517 Y103.947 E24.52771
G1 X97.667 Y104.423 E24.5609
G1 X97.903 Y104.853 E24.59353
G1 X98.216 Y105.224 E24.62582
G1 X98.592 Y105.529 E24.65803
G1 X99.023 Y105.755 E24.6904
G1 X99.487 Y105.894 E24.72262
G1 X99.973 Y105.941 E24.7551
G0 F7800 X104.797 Y105.457
G0 X105.195 Y105.417
G0 X105.027 Y105.435
G0 X105.027 Y105.435
G0 X105.055 Y105.137
; TYPE:WALL-OUTER
G1 F1080 X105.055 Y105.137 E24.7551
G1 X105.402 Y105.101 E24.77831
G1 X105.724 Y105 E24.80075
G1 X106.017 Y104.839 E24.82299
G1 X106.269 Y104.627 E24.8449
G1 X106.475 Y104.37 E24.86681
G1 X106.628 Y104.079 E24.88868
G1 X106.723 Y103.764 E24.91057
G1 X106.755 Y103.435 E24.93255
G1 X106.719 Y103.088 E24.95576
G1 X106.617 Y102.766 E24.97823
G1 X106.457 Y102.475 E25.00032
G1 X106.245 Y102.222 E25.02228
G1 X105.988 Y102.015 E25.04423
G1 X105.697 Y101.862 E25.0661
G1 X105.382 Y101.767 E25.08798
G1 X105.053 Y101.735 E25.10997
G1 X104.706 Y101.771 E25.13318
G1 X104.383 Y101.873 E25.15571
G1 X104.091 Y102.033 E25.17786
G1 X103.84 Y102.245 E25.19971
G1 X103.632 Y102.501 E25.22166
G1 X103.479 Y102.793 E25.24359
G1 X103.385 Y103.108 E25.26545
G1 X103.353 Y103.437 E25.28744
G1 X103.389 Y103.784 E25.31065
G1 X103.49 Y104.107 E25.33316
G1 X103.651 Y104.399 E25.35534
G1 X103.863 Y104.65 E25.3772
G1 X104.119 Y104.858 E25.39914
G1 X104.411 Y105.011 E25.42107
G1 X104.726 Y105.105 E25.44293
G1 X105.055 Y105.137 E25.46492
G0 F7800 X105.056 Y105.539
; TYPE:WALL-INNER
G1 F1080 X105.056 Y105.539 E25.46492
G1 X105.483 Y105.495 E25.49348
G1 X105.882 Y105.37 E25.52129
G1 X106.244 Y105.17 E25.5488
G1 X106.556 Y104.908 E25.5759
G1 X106.811 Y104.591 E25.60296
G1 X107 Y104.231 E25.63001
G1 X107.117 Y103.842 E25.65703
G1 X107.157 Y103.434 E25.6843
G1 X107.112 Y103.006 E25.71293
G1 X106.986 Y102.608 E25.7407
G1 X106.789 Y102.248 E25.768
G1 X106.526 Y101.935 E25.79519
G1 X106.209 Y101.679 E25.8223
G1 X105.849 Y101.49 E25.84935
G1 X105.46 Y101.373 E25.87637
G1 X105.052 Y101.333 E25.90364
G1 X104.624 Y101.378 E25.93227
G1 X104.225 Y101.504 E25.9601
G1 X103.864 Y101.702 E25.98749
G1 X103.553 Y101.964 E26.01454
G1 X103.296 Y102.28 E26.04163
G1 X103.107 Y102.642 E26.0688
G1 X102.99 Y103.031 E26.09582
G1 X102.951 Y103.438 E26.12302
G1 X102.995 Y103.865 E26.15157
G1 X103.12 Y104.265 E26.17945
G1 X103.32 Y104.627 E26.20696
G1 X103.582 Y104.937 E26.23396
G1 X103.898 Y105.194 E26.26105
G1 X104.26 Y105.383 E26.28822
G1 X104.649 Y105.5 E26.31524
G1 X105.056 Y105.539 E26.34244
G0 F7800 X105.055 Y105.537
G0 X105.482 Y105.493
G0 X105.881 Y105.368
G0 X106.243 Y105.168
G0 X106.554 Y104.907
G0 X106.81 Y104.59
G0 X106.999 Y104.23
G0 X107.116 Y103.841
G0 X107.156 Y103.435
G0 X107.111 Y103.007
G0 X106.984 Y102.609
G0 X106.788 Y102.249
G0 X106.525 Y101.936
G0 X106.208 Y101.68
G0 X105.848 Y101.491
G0 X105.459 Y101.374
G0 X105.037 Y101.332
G0 X105.026 Y98.759
G0 X105.025 Y98.359
G0 X105.027 Y98.655
G0 X105.027 Y98.655
G0 X105.055 Y98.357
; TYPE:WALL-OUTER
G1 F1080 X105.055 Y98.357 E26.34244
G1 X105.402 Y98.321 E26.36564
G1 X105.724 Y98.22 E26.38809
G1 X106.017 Y98.059 E26.41033
G1 X106.269 Y97.847 E26.43224
G1 X106.475 Y97.59 E26.45415
G1 X106.628 Y97.299 E26.47602
G1 X106.723 Y96.984 E26.4979
G1 X106.755 Y96.655 E26.51989
G1 X106.719 Y96.308 E26.5431
G1 X106.617 Y95.986 E26.56557
G1 X106.457 Y95.693 E26.58777
G1 X106.245 Y95.441 E26.60968
G1 X105.989 Y95.235 E26.63154
G1 X105.697 Y95.081 E26.6535
G1 X105.382 Y94.987 E26.67536
G1 X105.053 Y94.955 E26.69735
G1 X104.706 Y94.991 E26.72056
G1 X104.383 Y95.093 E26.74309
G1 X104.091 Y95.253 E26.76524
G1 X103.84 Y95.465 E26.7871
G1 X103.632 Y95.721 E26.80904
G1 X103.479 Y96.013 E26.83097
G1 X103.385 Y96.328 E26.85283
G1 X103.353 Y96.657 E26.87482
G1 X103.389 Y97.004 E26.89803
G1 X103.49 Y97.327 E26.92054
G1 X103.651 Y97.619 E26.94272
G1 X103.863 Y97.871 E26.96463
G1 X104.119 Y98.077 E26.98648
G1 X104.411 Y98.231 E27.00844
G1 X104.726 Y98.325 E27.03031
G1 X105.055 Y98.357 E27.0523
G0 F7800 X105.056 Y98.759
; TYPE:WALL-INNER
G1 F1080 X105.056 Y98.759 E27.0523
G1 X105.483 Y98.715 E27.08085
G1 X105.882 Y98.59 E27.10867
G1 X106.244 Y98.39 E27.13618
G1 X106.556 Y98.128 E27.16328
G1 X106.811 Y97.811 E27.19034
G1 X107 Y97.451 E27.21739
G1 X107.117 Y97.062 E27.24441
G1 X107.157 Y96.654 E27.27168
G1 X107.112 Y96.226 E27.30031
G1 X106.986 Y95.828 E27.32808
G1 X106.789 Y95.466 E27.3555
G1 X106.526 Y95.154 E27.38264
G1 X106.21 Y94.9 E27.40961
G1 X105.849 Y94.709 E27.43678
G1 X105.459 Y94.592 E27.46386
G1 X105.052 Y94.553 E27.49106
G1 X104.624 Y94.598 E27.51969
G1 X104.225 Y94.724 E27.54752
G1 X103.864 Y94.922 E27.57491
G1 X103.553 Y95.184 E27.60196
G1 X103.296 Y95.5 E27.62905
G1 X103.107 Y95.862 E27.65622
G1 X102.99 Y96.251 E27.68324
G1 X102.951 Y96.658 E27.71044
G1 X102.995 Y97.085 E27.73899
G1 X103.12 Y97.485 E27.76687
G1 X103.32 Y97.847 E27.79438
G1 X103.582 Y98.158 E27.82143
G1 X103.898 Y98.412 E27.8484
G1 X104.259 Y98.603 E27.87557
G1 X104.649 Y98.72 E27.90265
G1 X105.056 Y98.759 E27.92985
G0 F7800 X101.402 Y98.684
G0 X101.002 Y98.675
G0 X99.942 Y98.655
G0 X99.942 Y98.655
G0 X99.97 Y98.357
; TYPE:WALL-OUTER
G1 F1080 X99.97 Y98.357 E27.92985
G1 X100.316 Y98.321 E27.95299
G1 X100.638 Y98.22 E27.97544
G1 X100.931 Y98.059 E27.99768
G1 X101.183 Y97.847 E28.01959
G1 X101.389 Y97.591 E28.04144
G1 X101.543 Y97.299 E28.0634
G1 X101.637 Y96.984 E28.08527
G1 X101.669 Y96.655 E28.10726
G1 X101.633 Y96.308 E28.13046
G1 X101.532 Y95.986 E28.15291
G1 X101.371 Y95.693 E28.17515
G1 X101.159 Y95.441 E28.19706
G1 X100.903 Y95.235 E28.21892
G1 X100.611 Y95.081 E28.24088
G1 X100.296 Y94.987 E28.26274
G1 X99.968 Y94.955 E28.28467
G1 X99.621 Y94.991 E28.30787
G1 X99.299 Y95.093 E28.33034
G1 X99.006 Y95.253 E28.35255
G1 X98.754 Y95.465 E28.37445
G1 X98.548 Y95.721 E28.39631
G1 X98.394 Y96.013 E28.41827
G1 X98.3 Y96.328 E28.44014
G1 X98.268 Y96.657 E28.46213
G1 X98.304 Y97.004 E28.48533
G1 X98.406 Y97.327 E28.50787
G1 X98.566 Y97.619 E28.53001
G1 X98.778 Y97.871 E28.55192
G1 X99.034 Y98.077 E28.57378
G1 X99.326 Y98.231 E28.59574
G1 X99.641 Y98.325 E28.6176
G1 X99.97 Y98.357 E28.63959
G0 F7800 X99.971 Y98.759
; TYPE:WALL-INNER
G1 F1080 X99.971 Y98.759 E28.63959
G1 X100.397 Y98.715 E28.66808
G1 X100.796 Y98.59 E28.6959
G1 X101.158 Y98.39 E28.72341
G1 X101.47 Y98.128 E28.75051
G1 X101.724 Y97.812 E28.77748
G1 X101.915 Y97.451 E28.80464
G1 X102.032 Y97.061 E28.83173
G1 X102.071 Y96.654 E28.85893
G1 X102.027 Y96.227 E28.88748
G1 X101.902 Y95.828 E28.9153
G1 X101.702 Y95.466 E28.94281
G1 X101.44 Y95.154 E28.96991
G1 X101.124 Y94.9 E28.99688
G1 X100.763 Y94.709 E29.02405
G1 X100.373 Y94.592 E29.05113
G1 X99.967 Y94.553 E29.07826
G1 X99.539 Y94.598 E29.10689
G1 X99.141 Y94.724 E29.13466
G1 X98.779 Y94.921 E29.16207
G1 X98.467 Y95.184 E29.18922
G1 X98.213 Y95.5 E29.21619
G1 X98.022 Y95.861 E29.24336
G1 X97.905 Y96.251 E29.27044
G1 X97.866 Y96.658 E29.29764
G1 X97.911 Y97.086 E29.32627
G1 X98.037 Y97.485 E29.3541
G1 X98.235 Y97.846 E29.38149
G1 X98.497 Y98.158 E29.40859
G1 X98.813 Y98.412 E29.43556
G1 X99.174 Y98.603 E29.46273
G1 X99.564 Y98.72 E29.48981
G1 X99.971 Y98.759 E29.51701
G0 F7800 X99.973 Y99.161
G1 F1080 X99.973 Y99.161 E29.51701
G1 X100.479 Y99.108 E29.55085
G1 X100.954 Y98.959 E29.58397
G1 X101.386 Y98.721 E29.61678
G1 X101.757 Y98.409 E29.64902
G1 X102.06 Y98.033 E29.68115
G1 X102.287 Y97.604 E29.71343
G1 X102.426 Y97.138 E29.74578
G1 X102.473 Y96.652 E29.77826
G1 X102.42 Y96.146 E29.8121
G1 X102.271 Y95.67 E29.84528
G1 X102.033 Y95.238 E29.87809
G1 X101.721 Y94.867 E29.91034
G1 X101.345 Y94.564 E29.94246
G1 X100.916 Y94.337 E29.97475
G1 X100.45 Y94.198 E30.00709
G1 X99.966 Y94.151 E30.03944
G1 X99.457 Y94.204 E30.07348
G1 X98.983 Y94.354 E30.10655
G1 X98.552 Y94.59 E30.13924
G1 X98.18 Y94.903 E30.17158
G1 X97.877 Y95.279 E30.2037
G1 X97.65 Y95.708 E30.23599
G1 X97.511 Y96.174 E30.26834
G1 X97.464 Y96.66 E30.30082
G1 X97.517 Y97.167 E30.33473
G1 X97.667 Y97.643 E30.36792
G1 X97.903 Y98.073 E30.40055
G1 X98.216 Y98.445 E30.43289
G1 X98.592 Y98.748 E30.46501
G1 X99.021 Y98.975 E30.4973
G1 X99.487 Y99.114 E30.52965
G1 X99.973 Y99.161 E30.56213
G0 F7800 X95.222 Y98.69
G0 X94.824 Y98.651
G0 X94.856 Y98.655
G0 X94.856 Y98.655
G0 X94.884 Y98.357
; TYPE:WALL-OUTER
G1 F1080 X94.884 Y98.357 E30.56213
G1 X95.231 Y98.321 E30.58534
G1 X95.554 Y98.22 E30.60785
G1 X95.846 Y98.059 E30.63003
G1 X96.097 Y97.847 E30.65188
G1 X96.305 Y97.591 E30.67382
G1 X96.458 Y97.299 E30.69575
G1 X96.552 Y96.984 E30.71762
G1 X96.584 Y96.656 E30.73954
G1 X96.549 Y96.308 E30.76281
G1 X96.447 Y95.986 E30.78528
G1 X96.286 Y95.693 E30.80752
G1 X96.074 Y95.441 E30.82942
G1 X95.818 Y95.235 E30.85128
G1 X95.526 Y95.081 E30.87324
G1 X95.211 Y94.987 E30.89511
G1 X94.882 Y94.955 E30.9171
G1 X94.535 Y94.991 E30.9403
G1 X94.213 Y95.093 E30.96277
G1 X93.922 Y95.253 E30.98486
G1 X93.669 Y95.465 E31.00682
G1 X93.462 Y95.722 E31.02877
G1 X93.309 Y96.013 E31.05064
G1 X93.214 Y96.328 E31.07253
G1 X93.182 Y96.657 E31.09451
G1 X93.218 Y97.004 E31.11772
G1 X93.32 Y97.327 E31.14025
G1 X93.48 Y97.619 E31.1624
G1 X93.692 Y97.871 E31.18431
G1 X93.948 Y98.077 E31.20616
G1 X94.24 Y98.231 E31.22812
G1 X94.555 Y98.325 E31.24999
G1 X94.884 Y98.357 E31.27198
G0 F7800 X94.885 Y98.759
; TYPE:WALL-INNER
G1 F1080 X94.885 Y98.759 E31.27198
G1 X95.312 Y98.715 E31.30053
G1 X95.712 Y98.59 E31.32841
G1 X96.074 Y98.39 E31.35592
G1 X96.384 Y98.128 E31.38292
G1 X96.641 Y97.812 E31.41002
G1 X96.83 Y97.45 E31.43718
G1 X96.947 Y97.061 E31.4642
G1 X96.986 Y96.655 E31.49133
G1 X96.943 Y96.227 E31.51995
G1 X96.816 Y95.827 E31.54787
G1 X96.617 Y95.466 E31.57529
G1 X96.355 Y95.154 E31.60239
G1 X96.039 Y94.9 E31.62936
G1 X95.678 Y94.709 E31.65653
G1 X95.288 Y94.592 E31.68361
G1 X94.881 Y94.553 E31.71081
G1 X94.453 Y94.598 E31.73944
G1 X94.055 Y94.724 E31.76721
G1 X93.695 Y94.921 E31.7945
G1 X93.382 Y95.184 E31.8217
G1 X93.126 Y95.501 E31.8488
G1 X92.937 Y95.861 E31.87585
G1 X92.82 Y96.25 E31.90287
G1 X92.78 Y96.658 E31.93014
G1 X92.825 Y97.086 E31.95877
G1 X92.951 Y97.485 E31.9866
G1 X93.149 Y97.846 E32.01399
G1 X93.411 Y98.158 E32.04109
G1 X93.727 Y98.412 E32.06806
G1 X94.088 Y98.603 E32.09523
G1 X94.478 Y98.72 E32.12232
G1 X94.885 Y98.759 E32.14951
G0 F7800 X92.943 Y98.131
G0 X92.943 Y98.131
; TYPE:FILL
G1 F1080 X92.903 Y97.888 E32.15549
G0 F7800 X92.901 Y97.663
G0 X92.781 Y96.657
G0 X92.901 Y95.69
G0 X92.902 Y95.444
G0 X92.902 Y95.444
G1 F1080 X92.93 Y95.217 E32.15949
G0 F7800 X93.365 Y95.255
G0 X93.383 Y95.185
G0 X93.696 Y94.922
G0 X94.056 Y94.726
G0 X94.454 Y94.599
G0 X94.882 Y94.554
G0 X95.287 Y94.594
G0 X95.677 Y94.71
G0 X96.038 Y94.9
G0 X96.354 Y95.156
G0 X96.601 Y95.539
G0 X97.417 Y95.611
G0 X97.417 Y95.611
G1 F1080 X97.408 Y95.709 E32.16116
G0 F7800 X97.443 Y97.602
G0 X97.443 Y97.602
G1 F1080 X97.435 Y97.7 E32.16282
G0 F7800 X97.417 Y102.39
G0 X97.417 Y102.39
G1 F1080 X97.408 Y102.489 E32.16453
G0 F7800 X97.443 Y104.382
G0 X97.443 Y104.382
G1 F1080 X97.435 Y104.48 E32.16619
G0 F7800 X96.621 Y104.558
G0 X96.64 Y104.591
G0 X96.383 Y104.907
G0 X96.073 Y105.168
G0 X95.711 Y105.368
G0 X95.311 Y105.493
G0 X94.884 Y105.538
G0 X94.479 Y105.498
G0 X94.089 Y105.382
G0 X93.728 Y105.193
G0 X93.417 Y104.865
G0 X92.945 Y104.911
G0 X92.945 Y104.911
G1 F1080 X92.907 Y104.671 E32.17185
G0 F7800 X92.906 Y104.402
G0 X92.781 Y103.437
G0 X92.904 Y102.509
G0 X92.905 Y102.221
G0 X92.905 Y102.221
G1 F1080 X92.931 Y101.997 E32.17556
G0 F7800 X93.383 Y102.019
G0 X93.383 Y101.965
G0 X93.696 Y101.702
G0 X94.056 Y101.506
G0 X94.454 Y101.379
G0 X94.882 Y101.334
G0 X95.288 Y101.374
G0 X95.677 Y101.491
G0 X96.037 Y101.68
G0 X96.529 Y102.181
G0 X98.268 Y102.271
G0 X98.469 Y101.966
G0 X98.78 Y101.702
G0 X99.142 Y101.505
G0 X99.54 Y101.379
G0 X99.968 Y101.334
G0 X100.373 Y101.374
G0 X100.762 Y101.491
G0 X101.122 Y101.68
G0 X101.439 Y101.936
G0 X101.803 Y102.453
G0 X102.493 Y102.49
G0 X102.493 Y102.49
G1 F1080 X102.502 Y102.392 E32.17722
G0 F7800 X102.528 Y104.383
G0 X102.528 Y104.383
G1 F1080 X102.519 Y104.481 E32.17889
G0 F7800 X103.374 Y104.59
G0 X103.583 Y104.936
G0 X103.899 Y105.193
G0 X104.26 Y105.382
G0 X104.65 Y105.498
G0 X105.055 Y105.538
G0 X105.482 Y105.493
G0 X105.881 Y105.368
G0 X106.243 Y105.168
G0 X106.385 Y104.979
G0 X106.899 Y105.047
G0 X106.899 Y105.047
G1 F1080 X107.068 Y104.643 E32.20372
G1 X107.038 Y104.874 E32.21248
G0 F7800 X107.024 Y104.265
G0 X107.156 Y103.435
G0 X106.993 Y102.8
G0 X106.898 Y98.267
G0 X106.898 Y98.267
G1 F1080 X107.066 Y97.864 E32.23731
G1 X107.037 Y98.094 E32.24587
G0 F7800 X106.571 Y98.053
G0 X106.554 Y98.127
G0 X106.243 Y98.388
G0 X105.881 Y98.588
G0 X105.482 Y98.713
G0 X105.055 Y98.758
G0 X104.65 Y98.718
G0 X104.26 Y98.602
G0 X103.899 Y98.412
G0 X103.584 Y98.156
G0 X103.334 Y97.771
G0 X102.519 Y97.701
G0 X102.519 Y97.701
G1 F1080 X102.528 Y97.603 E32.24754
G0 F7800 X102.493 Y95.71
G0 X102.493 Y95.71
G1 F1080 X102.502 Y95.613 E32.24917
G0 F7800 X102.596 Y95.242
; TYPE:BOTTOM-FILL
G1 F1080 X100.795 Y93.441 E32.4186
G0 F7800 X100.709 Y93.921
G1 F1080 X100.134 Y93.628 E32.46367
G1 X99.588 Y93.648 E32.49902
G1 X99.079 Y93.705 E32.53812
G1 X98.531 Y93.44 E32.57861
G0 F7800 X97.966 Y93.44
G1 F1080 X98.665 Y94.139 E32.64436
G0 F7800 X98.309 Y94.349
G1 F1080 X97.4 Y93.44 E32.72988
G0 F7800 X96.834 Y93.44
G1 F1080 X98.002 Y94.608 E32.83976
G0 F7800 X97.737 Y94.909
G1 F1080 X96.269 Y93.44 E32.9779
G0 F7800 X95.703 Y93.44
G1 F1080 X97.508 Y95.245 E33.14771
G0 F7800 X95.615 Y93.918
G0 X95.615 Y93.918
G1 F1080 X95.042 Y93.628 E33.19256
G1 X94.496 Y93.648 E33.22791
G1 X93.989 Y93.706 E33.26703
G1 X93.44 Y93.723 E33.31709
G1 X93.576 Y94.142 E33.34639
G0 F7800 X93.549 Y95.1
G0 X93.127 Y95.502
G0 X92.938 Y95.862
G0 X92.821 Y96.251
G0 X92.781 Y96.657
G0 X92.826 Y97.085
G0 X92.952 Y97.484
G0 X93.149 Y97.845
G0 X93.413 Y98.156
G0 X93.467 Y98.15
G0 X93.443 Y99.1
G0 X93.443 Y99.1
G1 F1080 X94.938 Y100.595 E33.48703
G0 F7800 X94.414 Y100.636
G1 F1080 X93.444 Y99.666 E33.57828
G0 F7800 X93.444 Y100.233
G1 F1080 X93.966 Y100.754 E33.62734
G0 F7800 X93.57 Y100.924
G1 F1080 X93.445 Y100.799 E33.6391
G0 F7800 X94.359 Y99.45
G0 X94.359 Y99.45
G1 F1080 X95.601 Y100.692 E33.75594
G0 F7800 X95.477 Y99.436
G1 F1080 X97.734 Y101.693 E33.96826
G0 F7800 X97.997 Y101.392
G1 F1080 X95.908 Y99.302 E34.16483
G0 F7800 X96.287 Y99.115
G1 F1080 X98.304 Y101.133 E34.35463
G0 F7800 X98.659 Y100.922
G1 F1080 X96.626 Y98.889 E34.54588
G0 F7800 X96.93 Y98.627
G1 F1080 X99.056 Y100.753 E34.74588
G0 F7800 X99.505 Y100.636
G1 F1080 X97.184 Y98.315 E34.96422
G0 F7800 X97.523 Y98.089
G1 F1080 X97.409 Y97.975 E34.97495
G0 F7800 X98.537 Y99.103
G0 X98.537 Y99.103
G1 F1080 X100.029 Y100.595 E35.11531
G0 F7800 X100.696 Y100.696
G1 F1080 X99.451 Y99.451 E35.23243
G0 F7800 X100.059 Y99.493
G1 F1080 X102.592 Y102.027 E35.47077
G0 F7800 X102.821 Y101.69
G1 F1080 X100.567 Y99.436 E35.68281
G0 F7800 X100.998 Y99.301
G1 F1080 X103.086 Y101.389 E35.87923
G0 F7800 X103.393 Y101.131
G1 F1080 X101.376 Y99.113 E36.06903
G0 F7800 X101.715 Y98.886
G1 F1080 X103.748 Y100.92 E36.26033
G0 F7800 X104.146 Y100.752
G1 F1080 X102.018 Y98.624 E36.46052
G0 F7800 X102.27 Y98.311
G1 F1080 X104.596 Y100.636 E36.67929
G0 F7800 X105.122 Y100.597
G1 F1080 X103.639 Y99.113 E36.81884
G0 F7800 X104.543 Y99.452
G1 F1080 X105.79 Y100.699 E36.93615
G0 F7800 X106.556 Y100.899
G1 F1080 X105.149 Y99.492 E37.06852
G0 F7800 X105.657 Y99.434
G1 F1080 X106.556 Y100.333 E37.15309
G0 F7800 X106.556 Y99.767
G1 F1080 X106.276 Y99.205 E37.19705
G1 X106.556 Y99.202 E37.21568
G0 F7800 X102.599 Y98.074
G0 X102.599 Y98.074
G1 F1080 X102.501 Y97.976 E37.22489
G0 F7800 X102.825 Y94.905
G0 X102.825 Y94.905
G1 F1080 X101.36 Y93.441 E37.36267
G0 F7800 X101.926 Y93.441
G1 F1080 X103.091 Y94.605 E37.47221
G0 F7800 X103.398 Y94.347
G1 F1080 X102.492 Y93.441 E37.55745
G0 F7800 X103.057 Y93.441
G1 F1080 X103.754 Y94.137 E37.62297
G0 F7800 X104.151 Y93.969
G1 F1080 X103.623 Y93.441 E37.67264
G0 F7800 X104.189 Y93.441
G1 F1080 X104.679 Y93.648 E37.71156
G1 X105.225 Y93.629 E37.7469
G1 X105.802 Y93.922 E37.78995
G0 F7800 X105.886 Y93.441
G1 F1080 X106.555 Y94.11 E37.85289
G0 F7800 X106.553 Y93.543
G1 F1080 X106.452 Y93.441 E37.86244
G0 F7800 X105.982 Y94.781
G0 X106.209 Y94.9
G0 X106.524 Y95.156
G0 X106.788 Y95.467
G0 X106.985 Y95.829
G0 X107.111 Y96.227
G0 X107.156 Y96.655
G0 X107.116 Y97.061
G0 X106.999 Y97.45
G0 X106.81 Y97.81
G0 X106.554 Y98.127
G0 X106.243 Y98.388
G0 X105.881 Y98.588
G0 X105.482 Y98.713
G0 X105.055 Y98.758
G0 X104.607 Y98.708
G0 X103.874 Y100.805
G0 X103.108 Y102.642
G0 X102.96 Y103.415
G0 X102.492 Y104.755
G0 X102.492 Y104.755
G1 F1080 X102.613 Y104.875 E37.87377
G0 F7800 X102.267 Y105.095
G1 F1080 X103.725 Y106.553 E38.01093
G0 F7800 X104.29 Y106.553
G1 F1080 X103.62 Y105.883 E38.07396
G0 F7800 X103.159 Y106.553
G1 F1080 X102.015 Y105.409 E38.18158
G0 F7800 X101.71 Y105.67
G1 F1080 X102.594 Y106.553 E38.2647
G0 F7800 X102.029 Y106.554
G1 F1080 X101.37 Y105.896 E38.32664
G0 F7800 X100.992 Y106.083
G1 F1080 X101.18 Y106.554 E38.37092
G1 X100.446 Y106.386 E38.40248
G1 X99.908 Y106.414 E38.42891
G1 X99.441 Y106.229 E38.46232
G0 F7800 X99.201 Y106.555
G1 F1080 X98.521 Y105.875 E38.52629
G0 F7800 X98.636 Y106.556
G1 F1080 X97.179 Y105.099 E38.66335
G0 F7800 X96.926 Y105.411
G1 F1080 X98.07 Y106.556 E38.77102
G0 F7800 X97.505 Y106.556
G1 F1080 X96.622 Y105.673 E38.85409
G0 F7800 X96.282 Y105.899
G1 F1080 X96.94 Y106.556 E38.91594
G0 F7800 X96.374 Y106.556
G1 F1080 X95.686 Y106.152 E38.96026
G1 X95.526 Y106.557 E38.99205
G1 X94.819 Y106.415 E39.01855
G1 X94.349 Y106.229 E39.05218
G0 F7800 X94.113 Y106.558
G1 F1080 X93.446 Y105.892 E39.11488
G0 F7800 X93.448 Y106.459
G1 F1080 X93.547 Y106.558 E39.12419
G0 F7800 X97.401 Y104.755
G0 X97.401 Y104.755
G1 F1080 X97.535 Y104.889 E39.1368
G0 F7800 X97.505 Y102.031
G0 X97.505 Y102.031
G1 F1080 X94.967 Y99.492 E39.3756
G0 F7800 X98.47 Y101.959
G0 X98.469 Y101.966
G0 X98.78 Y101.702
G0 X99.142 Y101.505
G0 X99.54 Y101.379
G0 X99.968 Y101.334
G0 X100.373 Y101.374
G0 X100.762 Y101.491
G0 X101.122 Y101.68
G0 X101.439 Y101.936
G0 X101.7 Y102.248
G0 X101.9 Y102.609
G0 X102.025 Y103.008
G0 X102.07 Y103.435
G0 X102.03 Y103.84
G0 X101.866 Y104.351
G0 X104.533 Y106.23
G0 X104.533 Y106.23
G1 F1080 X104.998 Y106.413 E39.40594
G1 X105.535 Y106.384 E39.43223
G1 X106.033 Y106.316 E39.46382
G1 X106.554 Y106.271 E39.50818
G1 X106.459 Y105.894 E39.53404
; Layer Change GCode
; LAYER:1
G4 P0
M106 S89
G0 F7800 X92.57 Y107.496 Z0.5
G0 X92.57 Y107.496
G0 X92.547 Y107.796
G0 X92.547 Y107.796
G0 X93.013 Y106.996
; TYPE:WALL-INNER
G0 X93.01 Y93.004
G1 F1026 X106.987 Y93.004 E39.76648
G1 X106.987 Y94.866 E39.79744
G0 F7800 X106.897 Y94.866
G1 F1026 X106.988 Y95.082 E39.80134
G0 F7800 X106.807 Y94.867
G1 F1026 X106.431 Y94.564 E39.80937
G1 X106.002 Y94.337 E39.81744
G1 X105.536 Y94.198 E39.82553
G1 X105.05 Y94.151 E39.83365
G1 X104.543 Y94.204 E39.84213
G1 X104.067 Y94.354 E39.85043
G1 X103.637 Y94.59 E39.85858
G1 X103.266 Y94.903 E39.86666
G1 X102.961 Y95.279 E39.87471
G1 X102.735 Y95.71 E39.8828
G1 X102.596 Y96.174 E39.89086
G1 X102.549 Y96.66 E39.89898
G1 X102.602 Y97.166 E39.90744
G1 X102.751 Y97.643 E39.91575
G1 X102.989 Y98.074 E39.92393
G1 X103.301 Y98.445 E39.932
G1 X103.677 Y98.748 E39.94003
G1 X104.106 Y98.975 E39.9481
G1 X104.572 Y99.114 E39.95618
G1 X105.058 Y99.161 E39.9643
G1 X105.564 Y99.108 E39.97277
G1 X106.04 Y98.959 E39.98106
G1 X106.472 Y98.721 E39.98926
G1 X106.843 Y98.409 E39.99732
G0 F7800 X106.915 Y98.408
G1 F1026 X106.988 Y98.229 E40.00054
G0 F7800 X106.988 Y98.408
G1 F1026 X106.988 Y101.647 E40.0544
G0 F7800 X106.897 Y101.647
G1 F1026 X106.989 Y101.865 E40.05834
G0 F7800 X106.807 Y101.648
G1 F1026 X106.429 Y101.343 E40.06642
G1 X106.002 Y101.118 E40.07444
G1 X105.538 Y100.978 E40.0825
G1 X105.05 Y100.931 E40.09066
G1 X104.543 Y100.984 E40.09913
G1 X104.067 Y101.134 E40.10743
G1 X103.637 Y101.37 E40.11559
G1 X103.266 Y101.683 E40.12366
G1 X102.961 Y102.059 E40.13171
G1 X102.735 Y102.49 E40.13981
G1 X102.596 Y102.954 E40.14786
G1 X102.549 Y103.44 E40.15598
G1 X102.602 Y103.946 E40.16444
G1 X102.751 Y104.423 E40.17275
G1 X102.989 Y104.854 E40.18094
G1 X103.301 Y105.224 E40.18899
G1 X103.677 Y105.529 E40.19704
G1 X104.108 Y105.755 E40.20513
G1 X104.572 Y105.894 E40.21319
G1 X105.058 Y105.941 E40.22131
G1 X105.564 Y105.888 E40.22977
G1 X106.04 Y105.739 E40.23806
G1 X106.472 Y105.501 E40.24627
G1 X106.843 Y105.189 E40.25433
G0 F7800 X106.916 Y105.188
G1 F1026 X106.989 Y105.007 E40.25757
G0 F7800 X106.989 Y105.188
G1 F1026 X106.99 Y106.991 E40.28756
G1 X93.013 Y106.996 E40.52
G1 X93.013 Y105.224 E40.54947
G0 F7800 X93.071 Y105.224
G1 F1026 X93.013 Y105.085 E40.55197
G0 F7800 X93.13 Y105.224
G1 F1026 X93.506 Y105.529 E40.56002
G1 X93.937 Y105.755 E40.56811
G1 X94.401 Y105.894 E40.57617
G1 X94.887 Y105.941 E40.58429
G1 X95.393 Y105.888 E40.59275
G1 X95.87 Y105.739 E40.60106
G1 X96.301 Y105.501 E40.60925
G1 X96.671 Y105.189 E40.6173
G1 X96.976 Y104.813 E40.62535
G1 X97.202 Y104.382 E40.63344
G1 X97.341 Y103.918 E40.6415
G1 X97.388 Y103.434 E40.64958
G1 X97.337 Y102.926 E40.65807
G1 X97.185 Y102.448 E40.66642
G1 X96.948 Y102.02 E40.67455
G1 X96.636 Y101.648 E40.68263
G1 X96.258 Y101.343 E40.6907
G1 X95.831 Y101.118 E40.69873
G1 X95.367 Y100.978 E40.70679
G1 X94.879 Y100.931 E40.71494
G1 X94.371 Y100.984 E40.72344
G1 X93.897 Y101.134 E40.7317
G1 X93.468 Y101.37 E40.73985
G1 X93.095 Y101.683 E40.74795
G0 F7800 X93.053 Y101.683
G1 F1026 X93.012 Y101.786 E40.74979
G0 F7800 X93.012 Y101.684
G1 F1026 X93.012 Y98.446 E40.80364
G0 F7800 X93.071 Y98.445
G1 F1026 X93.011 Y98.304 E40.80619
G0 F7800 X93.13 Y98.445
G1 F1026 X93.506 Y98.748 E40.81422
G1 X93.935 Y98.975 E40.82229
G1 X94.401 Y99.114 E40.83037
G1 X94.887 Y99.161 E40.83849
G1 X95.393 Y99.108 E40.84695
G1 X95.87 Y98.959 E40.85527
G1 X96.301 Y98.721 E40.86345
G1 X96.671 Y98.409 E40.8715
G1 X96.976 Y98.033 E40.87955
G1 X97.202 Y97.602 E40.88765
G1 X97.341 Y97.138 E40.8957
G1 X97.388 Y96.654 E40.90379
G1 X97.337 Y96.146 E40.91228
G1 X97.186 Y95.669 E40.9206
G1 X96.948 Y95.238 E40.92879
G1 X96.636 Y94.867 E40.93685
G1 X96.26 Y94.564 E40.94488
G1 X95.831 Y94.337 E40.95295
G1 X95.365 Y94.198 E40.96104
G1 X94.879 Y94.151 E40.96916
G1 X94.371 Y94.204 E40.97765
G1 X93.897 Y94.354 E40.98592
G1 X93.468 Y94.59 E40.99406
G1 X93.095 Y94.903 E41.00216
G0 F7800 X93.053 Y94.903
G1 F1026 X93.011 Y95.008 E41.00404
G0 F7800 X93.011 Y94.904
G1 F1026 X93.01 Y93.004 E41.03564
G0 F7800 X92.613 Y107.396
G1 F1026 X92.613 Y107.396 E41.03564
G1 X92.61 Y92.608 E41.28156
G1 X93.083 Y92.603 E41.28943
G1 X107.387 Y92.604 E41.52731
G1 X107.39 Y107.391 E41.77321
G1 X92.613 Y107.396 E42.01896
G0 F7800 X92.547 Y107.796
; TYPE:WALL-OUTER
G1 F718.2 X92.547 Y107.796 E42.01896
G1 X92.375 Y107.765 E42.02186
G1 X92.32 Y107.731 E42.02294
G1 X92.24 Y107.634 E42.02503
G1 X92.213 Y107.553 E42.02645
G1 X92.21 Y92.465 E42.27736
G1 X92.239 Y92.365 E42.2791
G1 X92.284 Y92.303 E42.28037
G1 X92.38 Y92.233 E42.28235
G1 X92.483 Y92.209 E42.2841
G1 X93.079 Y92.203 E42.29402
G1 X107.459 Y92.204 E42.53316
G1 X107.611 Y92.229 E42.53572
G1 X107.681 Y92.269 E42.53706
G1 X107.76 Y92.366 E42.53914
G1 X107.787 Y92.447 E42.54056
G1 X107.79 Y107.533 E42.79144
G1 X107.755 Y107.645 E42.79339
G1 X107.715 Y107.698 E42.7945
G1 X107.626 Y107.762 E42.79632
G1 X107.514 Y107.791 E42.79824
G1 X92.547 Y107.796 E43.04715
G0 F7800 X92.57 Y107.496
G0 X97.903 Y104.853
G0 X97.903 Y104.853
; TYPE:WALL-INNER
G1 F1026 X97.903 Y104.853 E43.04715
G1 X98.216 Y105.224 E43.05522
G1 X98.592 Y105.529 E43.06327
G1 X99.023 Y105.755 E43.07136
G1 X99.487 Y105.894 E43.07942
G1 X99.973 Y105.941 E43.08754
G1 X100.479 Y105.888 E43.096
G1 X100.954 Y105.739 E43.10428
G1 X101.386 Y105.501 E43.11248
G1 X101.757 Y105.189 E43.12054
G1 X102.06 Y104.813 E43.12857
G1 X102.287 Y104.384 E43.13664
G1 X102.426 Y103.918 E43.14473
G1 X102.473 Y103.432 E43.15285
G1 X102.42 Y102.926 E43.16131
G1 X102.271 Y102.45 E43.16961
G1 X102.033 Y102.02 E43.17778
G1 X101.721 Y101.648 E43.18585
G1 X101.343 Y101.343 E43.19393
G1 X100.916 Y101.118 E43.20196
G1 X100.452 Y100.978 E43.21002
G1 X99.966 Y100.931 E43.21814
G1 X99.457 Y100.984 E43.22665
G1 X98.983 Y101.134 E43.23492
G1 X98.552 Y101.37 E43.24309
G1 X98.18 Y101.683 E43.25117
G1 X97.877 Y102.059 E43.2592
G1 X97.65 Y102.488 E43.26727
G1 X97.511 Y102.954 E43.27536
G1 X97.464 Y103.44 E43.28348
G1 X97.517 Y103.947 E43.29196
G1 X97.667 Y104.423 E43.30026
G1 X97.903 Y104.853 E43.30842
G0 F7800 X98.235 Y104.626
G1 F1026 X98.235 Y104.626 E43.30842
G1 X98.497 Y104.937 E43.31518
G1 X98.813 Y105.194 E43.32195
G1 X99.175 Y105.383 E43.32874
G1 X99.564 Y105.5 E43.3355
G1 X99.971 Y105.539 E43.3423
G1 X100.397 Y105.495 E43.34942
G1 X100.796 Y105.37 E43.35637
G1 X101.158 Y105.17 E43.36325
G1 X101.47 Y104.908 E43.37003
G1 X101.724 Y104.592 E43.37677
G1 X101.915 Y104.231 E43.38356
G1 X102.032 Y103.841 E43.39033
G1 X102.071 Y103.434 E43.39713
G1 X102.027 Y103.007 E43.40427
G1 X101.901 Y102.608 E43.41123
G1 X101.702 Y102.247 E43.41808
G1 X101.44 Y101.935 E43.42486
G1 X101.123 Y101.679 E43.43163
G1 X100.763 Y101.49 E43.4384
G1 X100.374 Y101.373 E43.44515
G1 X99.967 Y101.333 E43.45195
G1 X99.539 Y101.378 E43.45911
G1 X99.141 Y101.504 E43.46605
G1 X98.779 Y101.701 E43.47291
G1 X98.467 Y101.964 E43.47969
G1 X98.213 Y102.28 E43.48643
G1 X98.022 Y102.641 E43.49323
G1 X97.905 Y103.031 E43.5
G1 X97.866 Y103.438 E43.5068
G1 X97.911 Y103.866 E43.51395
G1 X98.037 Y104.265 E43.52091
G1 X98.235 Y104.626 E43.52776
G0 F7800 X98.525 Y104.763
G0 X98.814 Y105.193
G0 X99.175 Y105.382
G0 X99.565 Y105.498
G0 X99.971 Y105.538
G0 X99.96 Y105.443
G0 X99.942 Y105.435
G0 X99.942 Y105.435
G0 X99.97 Y105.137
; TYPE:WALL-OUTER
G1 F718.2 X99.97 Y105.137 E43.52776
G1 X100.316 Y105.101 E43.53354
G1 X100.638 Y105 E43.53916
G1 X100.931 Y104.839 E43.54472
G1 X101.183 Y104.627 E43.55019
G1 X101.389 Y104.371 E43.55566
G1 X101.543 Y104.079 E43.56115
G1 X101.637 Y103.764 E43.56661
G1 X101.669 Y103.435 E43.57211
G1 X101.633 Y103.088 E43.57791
G1 X101.532 Y102.766 E43.58353
G1 X101.371 Y102.474 E43.58907
G1 X101.159 Y102.222 E43.59455
G1 X100.902 Y102.015 E43.60003
G1 X100.611 Y101.862 E43.6055
G1 X100.296 Y101.767 E43.61097
G1 X99.968 Y101.735 E43.61645
G1 X99.621 Y101.771 E43.62226
G1 X99.299 Y101.873 E43.62787
G1 X99.006 Y102.033 E43.63342
G1 X98.754 Y102.245 E43.6389
G1 X98.548 Y102.501 E43.64437
G1 X98.394 Y102.793 E43.64986
G1 X98.3 Y103.108 E43.65532
G1 X98.268 Y103.437 E43.66082
G1 X98.304 Y103.784 E43.66662
G1 X98.406 Y104.107 E43.67225
G1 X98.566 Y104.399 E43.67779
G1 X98.778 Y104.65 E43.68326
G1 X99.034 Y104.858 E43.68874
G1 X99.326 Y105.011 E43.69422
G1 X99.641 Y105.105 E43.69969
G1 X99.97 Y105.137 E43.70519
G0 F7800 X99.942 Y105.435
G0 X99.94 Y105.54
G0 X100.396 Y105.493
G0 X100.795 Y105.368
G0 X101.157 Y105.168
G0 X101.468 Y104.907
G0 X101.724 Y104.591
G0 X101.914 Y104.23
G0 X102.03 Y103.84
G0 X102.07 Y103.435
G0 X102.025 Y103.008
G0 X101.9 Y102.609
G0 X101.7 Y102.248
G0 X101.439 Y101.936
G0 X101.122 Y101.68
G0 X100.762 Y101.491
G0 X100.373 Y101.374
G0 X99.961 Y101.333
G0 X99.973 Y99.161
G0 X99.973 Y99.161
; TYPE:WALL-INNER
G1 F1026 X99.973 Y99.161 E43.70519
G1 X100.479 Y99.108 E43.71365
G1 X100.954 Y98.959 E43.72193
G1 X101.386 Y98.721 E43.73013
G1 X101.757 Y98.409 E43.73819
G1 X102.06 Y98.033 E43.74622
G1 X102.287 Y97.604 E43.75429
G1 X102.426 Y97.138 E43.76238
G1 X102.473 Y96.652 E43.7705
G1 X102.42 Y96.146 E43.77896
G1 X102.271 Y95.67 E43.78725
G1 X102.033 Y95.238 E43.79546
G1 X101.721 Y94.867 E43.80352
G1 X101.345 Y94.564 E43.81155
G1 X100.916 Y94.337 E43.81962
G1 X100.45 Y94.198 E43.82771
G1 X99.966 Y94.151 E43.83579
G1 X99.457 Y94.204 E43.8443
G1 X98.983 Y94.354 E43.85257
G1 X98.552 Y94.59 E43.86074
G1 X98.18 Y94.903 E43.86883
G1 X97.877 Y95.279 E43.87686
G1 X97.65 Y95.708 E43.88493
G1 X97.511 Y96.174 E43.89302
G1 X97.464 Y96.66 E43.90114
G1 X97.517 Y97.167 E43.90962
G1 X97.667 Y97.643 E43.91792
G1 X97.903 Y98.073 E43.92607
G1 X98.216 Y98.445 E43.93416
G1 X98.592 Y98.748 E43.94219
G1 X99.021 Y98.975 E43.95026
G1 X99.487 Y99.114 E43.95835
G1 X99.973 Y99.161 E43.96647
G0 F7800 X99.971 Y98.759
G1 F1026 X99.971 Y98.759 E43.96647
G1 X100.397 Y98.715 E43.97359
G1 X100.796 Y98.59 E43.98054
G1 X101.158 Y98.39 E43.98742
G1 X101.47 Y98.128 E43.99419
G1 X101.724 Y97.812 E44.00094
G1 X101.915 Y97.451 E44.00773
G1 X102.032 Y97.061 E44.0145
G1 X102.071 Y96.654 E44.0213
G1 X102.027 Y96.227 E44.02844
G1 X101.902 Y95.828 E44.03539
G1 X101.702 Y95.466 E44.04227
G1 X101.44 Y95.154 E44.04904
G1 X101.124 Y94.9 E44.05579
G1 X100.763 Y94.709 E44.06258
G1 X100.373 Y94.592 E44.06935
G1 X99.967 Y94.553 E44.07613
G1 X99.539 Y94.598 E44.08329
G1 X99.141 Y94.724 E44.09023
G1 X98.779 Y94.921 E44.09709
G1 X98.467 Y95.184 E44.10387
G1 X98.213 Y95.5 E44.11061
G1 X98.022 Y95.861 E44.11741
G1 X97.905 Y96.251 E44.12418
G1 X97.866 Y96.658 E44.13098
G1 X97.911 Y97.086 E44.13813
G1 X98.037 Y97.485 E44.14509
G1 X98.235 Y97.846 E44.15194
G1 X98.497 Y98.158 E44.15872
G1 X98.813 Y98.412 E44.16546
G1 X99.174 Y98.603 E44.17225
G1 X99.564 Y98.72 E44.17902
G1 X99.971 Y98.759 E44.18582
G0 F7800 X99.97 Y98.357
; TYPE:WALL-OUTER
G1 F718.2 X99.97 Y98.357 E44.18582
G1 X100.316 Y98.321 E44.19161
G1 X100.638 Y98.22 E44.19722
G1 X100.931 Y98.059 E44.20278
G1 X101.183 Y97.847 E44.20825
G1 X101.389 Y97.591 E44.21372
G1 X101.543 Y97.299 E44.21921
G1 X101.637 Y96.984 E44.22468
G1 X101.669 Y96.655 E44.23017
G1 X101.633 Y96.308 E44.23597
G1 X101.532 Y95.986 E44.24159
G1 X101.371 Y95.693 E44.24715
G1 X101.159 Y95.441 E44.25262
G1 X100.903 Y95.235 E44.25809
G1 X100.611 Y95.081 E44.26358
G1 X100.296 Y94.987 E44.26904
G1 X99.968 Y94.955 E44.27452
G1 X99.621 Y94.991 E44.28033
G1 X99.299 Y95.093 E44.28594
G1 X99.006 Y95.253 E44.29149
G1 X98.754 Y95.465 E44.29697
G1 X98.548 Y95.721 E44.30244
G1 X98.394 Y96.013 E44.30793
G1 X98.3 Y96.328 E44.31339
G1 X98.268 Y96.657 E44.31889
G1 X98.304 Y97.004 E44.32469
G1 X98.406 Y97.327 E44.33032
G1 X98.566 Y97.619 E44.33586
G1 X98.778 Y97.871 E44.34134
G1 X99.034 Y98.077 E44.3468
G1 X99.326 Y98.231 E44.35229
G1 X99.641 Y98.325 E44.35776
G1 X99.97 Y98.357 E44.36326
G0 F7800 X99.942 Y98.655
G0 X99.781 Y98.592
G0 X99.565 Y98.718
G0 X99.175 Y98.602
G0 X98.849 Y98.231
G0 X96.83 Y97.45
G0 X96.83 Y97.45
; TYPE:WALL-INNER
G1 F1026 X96.83 Y97.45 E44.36326
G1 X96.947 Y97.061 E44.37001
G1 X96.986 Y96.655 E44.37679
G1 X96.943 Y96.227 E44.38395
G1 X96.816 Y95.827 E44.39093
G1 X96.617 Y95.466 E44.39778
G1 X96.355 Y95.154 E44.40456
G1 X96.039 Y94.9 E44.4113
G1 X95.678 Y94.709 E44.41809
G1 X95.288 Y94.592 E44.42486
G1 X94.881 Y94.553 E44.43166
G1 X94.453 Y94.598 E44.43882
G1 X94.055 Y94.724 E44.44576
G1 X93.695 Y94.921 E44.45259
G1 X93.382 Y95.184 E44.45939
G1 X93.126 Y95.501 E44.46616
G1 X92.937 Y95.861 E44.47292
G1 X92.82 Y96.25 E44.47968
G1 X92.78 Y96.658 E44.4865
G1 X92.825 Y97.086 E44.49365
G1 X92.951 Y97.485 E44.50061
G1 X93.149 Y97.846 E44.50746
G1 X93.411 Y98.158 E44.51423
G1 X93.727 Y98.412 E44.52098
G1 X94.088 Y98.603 E44.52777
G1 X94.478 Y98.72 E44.53454
G1 X94.885 Y98.759 E44.54134
G1 X95.312 Y98.715 E44.54848
G1 X95.712 Y98.59 E44.55545
G1 X96.074 Y98.39 E44.56232
G1 X96.384 Y98.128 E44.56907
G1 X96.641 Y97.812 E44.57585
G1 X96.83 Y97.45 E44.58264
G0 F7800 X96.667 Y97.548
G0 X96.64 Y97.811
G0 X96.383 Y98.127
G0 X96.073 Y98.388
G0 X95.711 Y98.588
G0 X94.713 Y98.74
G0 X94.856 Y98.655
G0 X94.856 Y98.655
G0 X94.884 Y98.357
; TYPE:WALL-OUTER
G1 F718.2 X94.884 Y98.357 E44.58264
G1 X95.231 Y98.321 E44.58844
G1 X95.554 Y98.22 E44.59407
G1 X95.846 Y98.059 E44.59961
G1 X96.097 Y97.847 E44.60508
G1 X96.305 Y97.591 E44.61056
G1 X96.458 Y97.299 E44.61605
G1 X96.552 Y96.984 E44.62151
G1 X96.584 Y96.656 E44.62699
G1 X96.549 Y96.308 E44.63281
G1 X96.447 Y95.986 E44.63843
G1 X96.286 Y95.693 E44.64399
G1 X96.074 Y95.441 E44.64946
G1 X95.818 Y95.235 E44.65493
G1 X95.526 Y95.081 E44.66042
G1 X95.211 Y94.987 E44.66588
G1 X94.882 Y94.955 E44.67138
G1 X94.535 Y94.991 E44.67718
G1 X94.213 Y95.093 E44.6828
G1 X93.922 Y95.253 E44.68832
G1 X93.669 Y95.465 E44.69381
G1 X93.462 Y95.722 E44.6993
G1 X93.309 Y96.013 E44.70477
G1 X93.214 Y96.328 E44.71024
G1 X93.182 Y96.657 E44.71574
G1 X93.218 Y97.004 E44.72154
G1 X93.32 Y97.327 E44.72717
G1 X93.48 Y97.619 E44.73271
G1 X93.692 Y97.871 E44.73818
G1 X93.948 Y98.077 E44.74365
G1 X94.24 Y98.231 E44.74914
G1 X94.555 Y98.325 E44.7546
G1 X94.884 Y98.357 E44.7601
G0 F7800 X94.856 Y98.655
G0 X94.881 Y101.333
G0 X94.881 Y101.333
; TYPE:WALL-INNER
G1 F1026 X94.881 Y101.333 E44.7601
G1 X94.453 Y101.378 E44.76726
G1 X94.055 Y101.504 E44.7742
G1 X93.695 Y101.701 E44.78103
G1 X93.382 Y101.964 E44.78782
G1 X93.126 Y102.281 E44.7946
G1 X92.937 Y102.641 E44.80136
G1 X92.82 Y103.03 E44.80812
G1 X92.78 Y103.438 E44.81494
G1 X92.825 Y103.866 E44.82209
G1 X92.951 Y104.265 E44.82905
G1 X93.149 Y104.626 E44.8359
G1 X93.411 Y104.937 E44.84266
G1 X93.727 Y105.194 E44.84943
G1 X94.089 Y105.383 E44.85623
G1 X94.478 Y105.5 E44.86298
G1 X94.885 Y105.539 E44.86978
G1 X95.312 Y105.495 E44.87692
G1 X95.712 Y105.37 E44.88389
G1 X96.074 Y105.17 E44.89077
G1 X96.384 Y104.908 E44.89752
G1 X96.641 Y104.592 E44.90429
G1 X96.83 Y104.23 E44.91108
G1 X96.947 Y103.841 E44.91784
G1 X96.986 Y103.435 E44.92462
G1 X96.943 Y103.007 E44.93177
G1 X96.816 Y102.607 E44.93875
G1 X96.617 Y102.247 E44.94559
G1 X96.355 Y101.935 E44.95237
G1 X96.038 Y101.679 E44.95914
G1 X95.678 Y101.49 E44.96591
G1 X95.289 Y101.373 E44.97266
G1 X94.881 Y101.333 E44.97948
G0 F7800 X94.88 Y101.333
G0 X95.288 Y101.374
G0 X95.677 Y101.491
G0 X96.037 Y101.68
G0 X96.354 Y101.936
G0 X96.615 Y102.248
G0 X96.814 Y102.607
G0 X96.941 Y103.008
G0 X96.985 Y103.435
G0 X96.945 Y103.84
G0 X96.829 Y104.23
G0 X96.64 Y104.591
G0 X96.383 Y104.907
G0 X96.073 Y105.168
G0 X95.711 Y105.368
G0 X95.311 Y105.493
G0 X94.854 Y105.54
G0 X94.856 Y105.435
G0 X94.856 Y105.435
G0 X94.884 Y105.137
; TYPE:WALL-OUTER
G1 F718.2 X94.884 Y105.137 E44.97948
G1 X95.231 Y105.101 E44.98528
G1 X95.554 Y105 E44.99091
G1 X95.846 Y104.839 E44.99645
G1 X96.097 Y104.627 E45.00192
G1 X96.305 Y104.371 E45.0074
G1 X96.458 Y104.079 E45.01288
G1 X96.552 Y103.764 E45.01835
G1 X96.584 Y103.436 E45.02383
G1 X96.549 Y103.088 E45.02965
G1 X96.447 Y102.766 E45.03527
G1 X96.286 Y102.474 E45.04081
G1 X96.074 Y102.222 E45.04629
G1 X95.817 Y102.015 E45.05178
G1 X95.526 Y101.862 E45.05724
G1 X95.211 Y101.767 E45.06271
G1 X94.882 Y101.735 E45.06821
G1 X94.535 Y101.771 E45.07401
G1 X94.213 Y101.873 E45.07963
G1 X93.922 Y102.033 E45.08515
G1 X93.669 Y102.245 E45.09064
G1 X93.462 Y102.502 E45.09613
G1 X93.309 Y102.793 E45.1016
G1 X93.214 Y103.108 E45.10707
G1 X93.182 Y103.437 E45.11257
G1 X93.218 Y103.784 E45.11837
G1 X93.32 Y104.107 E45.124
G1 X93.48 Y104.399 E45.12954
G1 X93.692 Y104.65 E45.135
G1 X93.948 Y104.858 E45.14049
G1 X94.24 Y105.011 E45.14597
G1 X94.555 Y105.105 E45.15144
G1 X94.884 Y105.137 E45.15693
G0 F7800 X94.856 Y105.435
G0 X98.352 Y104.759
G0 X98.814 Y105.193
G0 X99.175 Y105.382
G0 X99.565 Y105.498
G0 X99.971 Y105.538
G0 X100.396 Y105.493
G0 X100.795 Y105.368
G0 X101.157 Y105.168
G0 X101.468 Y104.907
G0 X101.724 Y104.591
G0 X101.914 Y104.23
G0 X101.938 Y104.067
G0 X102.995 Y103.865
G0 X102.995 Y103.865
; TYPE:WALL-INNER
G1 F1026 X102.995 Y103.865 E45.15693
G1 X103.12 Y104.265 E45.1639
G1 X103.32 Y104.627 E45.17078
G1 X103.582 Y104.937 E45.17753
G1 X103.898 Y105.194 E45.1843
G1 X104.26 Y105.383 E45.19109
G1 X104.649 Y105.5 E45.19785
G1 X105.056 Y105.539 E45.20465
G1 X105.483 Y105.495 E45.21179
G1 X105.882 Y105.37 E45.21874
G1 X106.244 Y105.17 E45.22562
G1 X106.556 Y104.908 E45.23239
G1 X106.811 Y104.591 E45.23916
G1 X107 Y104.231 E45.24592
G1 X107.117 Y103.842 E45.25268
G1 X107.157 Y103.434 E45.2595
G1 X107.112 Y103.006 E45.26665
G1 X106.986 Y102.608 E45.27359
G1 X106.789 Y102.248 E45.28042
G1 X106.526 Y101.935 E45.28722
G1 X106.209 Y101.679 E45.29399
G1 X105.849 Y101.49 E45.30076
G1 X105.46 Y101.373 E45.30751
G1 X105.052 Y101.333 E45.31433
G1 X104.624 Y101.378 E45.32149
G1 X104.225 Y101.504 E45.32844
G1 X103.864 Y101.702 E45.33529
G1 X103.553 Y101.964 E45.34205
G1 X103.296 Y102.28 E45.34883
G1 X103.107 Y102.642 E45.35562
G1 X102.99 Y103.031 E45.36237
G1 X102.951 Y103.438 E45.36917
G1 X102.995 Y103.865 E45.37631
G0 F7800 X103.066 Y103.919
G0 X103.322 Y104.626
G0 X103.583 Y104.936
G0 X103.899 Y105.193
G0 X104.26 Y105.382
G0 X104.65 Y105.498
G0 X105.055 Y105.538
G0 X105.079 Y105.474
G0 X105.027 Y105.435
G0 X105.027 Y105.435
G0 X105.055 Y105.137
; TYPE:WALL-OUTER
G1 F718.2 X105.055 Y105.137 E45.37631
G1 X105.402 Y105.101 E45.38211
G1 X105.724 Y105 E45.38773
G1 X106.017 Y104.839 E45.39329
G1 X106.269 Y104.627 E45.39876
G1 X106.475 Y104.37 E45.40424
G1 X106.628 Y104.079 E45.40971
G1 X106.723 Y103.764 E45.41518
G1 X106.755 Y103.435 E45.42068
G1 X106.719 Y103.088 E45.42648
G1 X106.617 Y102.766 E45.43209
G1 X106.457 Y102.475 E45.43762
G1 X106.245 Y102.222 E45.44311
G1 X105.988 Y102.015 E45.44859
G1 X105.697 Y101.862 E45.45406
G1 X105.382 Y101.767 E45.45953
G1 X105.053 Y101.735 E45.46503
G1 X104.706 Y101.771 E45.47083
G1 X104.383 Y101.873 E45.47647
G1 X104.091 Y102.033 E45.482
G1 X103.84 Y102.245 E45.48747
G1 X103.632 Y102.501 E45.49295
G1 X103.479 Y102.793 E45.49843
G1 X103.385 Y103.108 E45.5039
G1 X103.353 Y103.437 E45.5094
G1 X103.389 Y103.784 E45.5152
G1 X103.49 Y104.107 E45.52083
G1 X103.651 Y104.399 E45.52637
G1 X103.863 Y104.65 E45.53184
G1 X104.119 Y104.858 E45.53732
G1 X104.411 Y105.011 E45.5428
G1 X104.726 Y105.105 E45.54827
G1 X105.055 Y105.137 E45.55377
G0 F7800 X105.027 Y105.435
G0 X105.026 Y105.539
G0 X105.482 Y105.493
G0 X105.881 Y105.368
G0 X106.243 Y105.168
G0 X106.554 Y104.907
G0 X106.81 Y104.59
G0 X106.999 Y104.23
G0 X107.116 Y103.841
G0 X107.156 Y103.435
G0 X107.111 Y103.007
G0 X106.984 Y102.609
G0 X106.788 Y102.249
G0 X106.525 Y101.936
G0 X106.208 Y101.68
G0 X105.848 Y101.491
G0 X105.459 Y101.374
G0 X105.044 Y101.333
G0 X105.056 Y98.759
G0 X105.056 Y98.759
; TYPE:WALL-INNER
G1 F1026 X105.056 Y98.759 E45.55377
G1 X105.483 Y98.715 E45.56091
G1 X105.882 Y98.59 E45.56786
G1 X106.244 Y98.39 E45.57474
G1 X106.556 Y98.128 E45.58151
G1 X106.811 Y97.811 E45.58828
G1 X107 Y97.451 E45.59504
G1 X107.117 Y97.062 E45.6018
G1 X107.157 Y96.654 E45.60861
G1 X107.112 Y96.226 E45.61577
G1 X106.986 Y95.828 E45.62271
G1 X106.789 Y95.466 E45.62957
G1 X106.526 Y95.154 E45.63635
G1 X106.21 Y94.9 E45.64309
G1 X105.849 Y94.709 E45.64989
G1 X105.459 Y94.592 E45.65666
G1 X105.052 Y94.553 E45.66346
G1 X104.624 Y94.598 E45.67061
G1 X104.225 Y94.724 E45.67757
G1 X103.864 Y94.922 E45.68442
G1 X103.553 Y95.184 E45.69118
G1 X103.296 Y95.5 E45.69796
G1 X103.107 Y95.862 E45.70475
G1 X102.99 Y96.251 E45.7115
G1 X102.951 Y96.658 E45.7183
G1 X102.995 Y97.085 E45.72544
G1 X103.12 Y97.485 E45.73241
G1 X103.32 Y97.847 E45.73929
G1 X103.582 Y98.158 E45.74605
G1 X103.898 Y98.412 E45.75279
G1 X104.259 Y98.603 E45.75958
G1 X104.649 Y98.72 E45.76636
G1 X105.056 Y98.759 E45.77316
G0 F7800 X105.055 Y98.357
; TYPE:WALL-OUTER
G1 F718.2 X105.055 Y98.357 E45.77316
G1 X105.402 Y98.321 E45.77896
G1 X105.724 Y98.22 E45.78457
G1 X106.017 Y98.059 E45.79013
G1 X106.269 Y97.847 E45.79561
G1 X106.475 Y97.59 E45.80108
G1 X106.628 Y97.299 E45.80655
G1 X106.723 Y96.984 E45.81202
G1 X106.755 Y96.655 E45.81752
G1 X106.719 Y96.308 E45.82332
G1 X106.617 Y95.986 E45.82894
G1 X106.457 Y95.693 E45.83449
G1 X106.245 Y95.441 E45.83997
G1 X105.989 Y95.235 E45.84543
G1 X105.697 Y95.081 E45.85092
G1 X105.382 Y94.987 E45.85639
G1 X105.053 Y94.955 E45.86188
G1 X104.706 Y94.991 E45.86769
G1 X104.383 Y95.093 E45.87332
G1 X104.091 Y95.253 E45.87886
G1 X103.84 Y95.465 E45.88432
G1 X103.632 Y95.721 E45.88981
G1 X103.479 Y96.013 E45.89529
G1 X103.385 Y96.328 E45.90075
G1 X103.353 Y96.657 E45.90625
G1 X103.389 Y97.004 E45.91205
G1 X103.49 Y97.327 E45.91768
G1 X103.651 Y97.619 E45.92323
G1 X103.863 Y97.871 E45.9287
G1 X104.119 Y98.077 E45.93417
G1 X104.411 Y98.231 E45.93966
G1 X104.726 Y98.325 E45.94512
G1 X105.055 Y98.357 E45.95062
G0 F7800 X105.301 Y99.476
; TYPE:FILL
G1 F2052 X103.971 Y100.806 E45.9819
G0 F7800 X104.719 Y100.624
G1 F2052 X106.023 Y99.32 E46.01257
G0 F7800 X106.647 Y99.262
G1 F2052 X105.295 Y100.614 E46.04437
G0 F7800 X105.779 Y100.695
G1 F2052 X106.647 Y99.827 E46.06478
G0 F7800 X106.647 Y100.392
G1 F2052 X106.201 Y100.839 E46.07528
G0 F7800 X106.572 Y101.034
G1 F2052 X106.648 Y100.957 E46.07708
G0 F7800 X104.74 Y99.471
G0 X104.74 Y99.471
G1 F2052 X102.338 Y101.873 E46.13357
G0 F7800 X102.088 Y101.558
G1 F2052 X104.268 Y99.378 E46.18484
G0 F7800 X103.854 Y99.226
G1 F2052 X101.802 Y101.278 E46.2331
G0 F7800 X101.483 Y101.032
G1 F2052 X103.484 Y99.031 E46.28016
G0 F7800 X103.171 Y98.777
G1 F2052 X101.112 Y100.837 E46.3286
G0 F7800 X100.689 Y100.694
G1 F2052 X102.893 Y98.49 E46.38043
G0 F7800 X102.651 Y98.166
G1 F2052 X100.206 Y100.612 E46.43795
G0 F7800 X99.628 Y100.624
G1 F2052 X100.929 Y99.323 E46.46854
G0 F7800 X100.209 Y99.477
G1 F2052 X98.876 Y100.81 E46.49989
G0 F7800 X99.179 Y99.376
G1 F2052 X97 Y101.554 E46.55113
G0 F7800 X96.714 Y101.275
G1 F2052 X98.765 Y99.224 E46.59937
G0 F7800 X98.397 Y99.026
G1 F2052 X96.394 Y101.029 E46.64647
G0 F7800 X96.023 Y100.834
G1 F2052 X98.084 Y98.774 E46.69493
G0 F7800 X97.807 Y98.485
G1 F2052 X95.6 Y100.692 E46.74684
G0 F7800 X95.115 Y100.612
G1 F2052 X97.564 Y98.162 E46.80445
G0 F7800 X97.435 Y97.7
G1 F2052 X97.443 Y97.602 E46.80486
G0 F7800 X97.408 Y95.709
G0 X97.408 Y95.709
G1 F2052 X97.417 Y95.611 E46.80528
G0 F7800 X97.25 Y95.082
G1 F2052 X98.989 Y93.343 E46.84618
G0 F7800 X98.424 Y93.343
G1 F2052 X96.997 Y94.769 E46.87973
G0 F7800 X96.71 Y94.491
G1 F2052 X97.858 Y93.343 E46.90673
G0 F7800 X97.292 Y93.343
G1 F2052 X96.388 Y94.247 E46.92799
G0 F7800 X96.018 Y94.052
G1 F2052 X96.727 Y93.343 E46.94466
G0 F7800 X96.161 Y93.343
G1 F2052 X95.593 Y93.911 E46.95802
G0 F7800 X95.107 Y93.831
G1 F2052 X95.595 Y93.343 E46.9695
G0 F7800 X95.03 Y93.343
G1 F2052 X94.527 Y93.845 E46.98132
G0 F7800 X94.464 Y93.343
G1 F2052 X93.77 Y94.037 E46.99764
G0 F7800 X93.35 Y93.891
G1 F2052 X93.898 Y93.343 E47.01053
G0 F7800 X98.865 Y94.033
G0 X98.865 Y94.033
G1 F2052 X99.555 Y93.343 E47.02675
G0 F7800 X99.618 Y93.845
G1 F2052 X100.12 Y93.343 E47.03856
G0 F7800 X100.197 Y93.832
G1 F2052 X100.686 Y93.343 E47.05006
G0 F7800 X101.252 Y93.343
G1 F2052 X100.682 Y93.913 E47.06347
G0 F7800 X101.107 Y94.054
G1 F2052 X101.817 Y93.343 E47.08018
G0 F7800 X102.383 Y93.343
G1 F2052 X101.477 Y94.249 E47.10148
G0 F7800 X101.798 Y94.494
G1 F2052 X102.949 Y93.343 E47.12855
G0 F7800 X103.514 Y93.343
G1 F2052 X102.085 Y94.773 E47.16217
G0 F7800 X102.337 Y95.086
G1 F2052 X104.08 Y93.343 E47.20317
G0 F7800 X104.646 Y93.343
G1 F2052 X103.959 Y94.03 E47.21932
G0 F7800 X104.71 Y93.845
G1 F2052 X105.211 Y93.343 E47.23112
G0 F7800 X105.288 Y93.833
G1 F2052 X105.777 Y93.343 E47.24263
G0 F7800 X106.343 Y93.343
G1 F2052 X105.772 Y93.914 E47.25606
G0 F7800 X106.196 Y94.055
G1 F2052 X106.646 Y93.606 E47.26663
G0 F7800 X106.647 Y94.171
G1 F2052 X106.566 Y94.251 E47.26852
G0 F7800 X105.252 Y94.691
G0 X105.053 Y94.554
G0 X104.625 Y94.599
G0 X104.226 Y94.725
G0 X103.865 Y94.922
G0 X103.726 Y95.202
G0 X102.502 Y95.613
G0 X102.502 Y95.613
G1 F2052 X102.493 Y95.71 E47.26893
G0 F7800 X102.528 Y97.603
G0 X102.528 Y97.603
G1 F2052 X102.519 Y97.701 E47.26935
G0 F7800 X99.65 Y99.47
G0 X99.65 Y99.47
G1 F2052 X97.252 Y101.868 E47.32575
G0 F7800 X97.417 Y102.39
G1 F2052 X97.408 Y102.489 E47.32617
G0 F7800 X97.443 Y104.382
G0 X97.443 Y104.382
G1 F2052 X97.435 Y104.48 E47.32659
G0 F7800 X97.568 Y104.947
G1 F2052 X95.861 Y106.654 E47.36674
G0 F7800 X95.846 Y106.102
G1 F2052 X95.295 Y106.654 E47.37971
G0 F7800 X95.127 Y106.256
G1 F2052 X94.648 Y106.452 E47.38905
G1 X94.129 Y106.405 E47.39856
G1 X93.474 Y106.494 E47.41026
G1 X93.682 Y106.004 E47.41912
G0 F7800 X96.427 Y106.653
G0 X96.427 Y106.653
G1 F2052 X97.811 Y105.269 E47.45167
G0 F7800 X98.089 Y105.557
G1 F2052 X96.993 Y106.653 E47.47744
G0 F7800 X97.558 Y106.653
G1 F2052 X98.4 Y105.811 E47.49725
G0 F7800 X98.771 Y106.006
G1 F2052 X98.125 Y106.652 E47.51244
G0 F7800 X98.69 Y106.652
G1 F2052 X99.185 Y106.157 E47.52408
G0 F7800 X99.658 Y106.25
G1 F2052 X99.539 Y106.652 E47.53353
G1 X100.303 Y106.453 E47.54285
G1 X100.94 Y106.099 E47.55497
G0 F7800 X100.954 Y106.652
G1 F2052 X102.654 Y104.951 E47.59496
G0 F7800 X102.898 Y105.273
G1 F2052 X101.52 Y106.652 E47.62738
G0 F7800 X102.086 Y106.651
G1 F2052 X103.177 Y105.56 E47.65304
G0 F7800 X103.489 Y105.814
G1 F2052 X102.652 Y106.651 E47.67273
G0 F7800 X103.217 Y106.651
G1 F2052 X103.86 Y106.008 E47.68785
G0 F7800 X104.275 Y106.159
G1 F2052 X103.783 Y106.651 E47.69942
G0 F7800 X104.349 Y106.65
G1 F2052 X104.832 Y106.45 E47.70881
G1 X105.395 Y106.452 E47.71808
G1 X106.034 Y106.097 E47.73023
G0 F7800 X106.047 Y106.65
G1 F2052 X106.648 Y106.049 E47.74437
G0 F7800 X106.65 Y106.613
G1 F2052 X106.613 Y106.65 E47.74524
G0 F7800 X102.519 Y104.481
G0 X102.519 Y104.481
G1 F2052 X102.528 Y104.383 E47.74566
G0 F7800 X102.493 Y102.49
G0 X102.493 Y102.49
G1 F2052 X102.502 Y102.392 E47.74607
G0 F7800 X95.836 Y99.325
G0 X95.836 Y99.325
G1 F2052 X94.537 Y100.624 E47.77662
G0 F7800 X93.782 Y100.813
G1 F2052 X95.118 Y99.477 E47.80804
G0 F7800 X94.56 Y99.469
G1 F2052 X93.352 Y100.677 E47.83645
G0 F7800 X93.351 Y100.112
G1 F2052 X94.089 Y99.374 E47.85381
G0 F7800 X93.676 Y99.222
G1 F2052 X93.35 Y99.547 E47.86146
; Layer Change GCode
; LAYER:2
G0 F7800 X93.265 Y102.254 Z0.6
G0 X92.938 Y102.642
G0 X92.821 Y103.031
G0 X92.781 Y103.437
G0 X92.826 Y103.865
G0 X92.952 Y104.264
G0 X93.196 Y104.509
G0 X93.107 Y107.398
G0 X93.094 Y107.798
G0 X93.105 Y107.5
G0 X93.105 Y107.5
G0 X93.111 Y107.8
G0 X93.111 Y107.8
G0 X93.01 Y106.998
; TYPE:WALL-INNER
G0 X93 Y93.002
G1 F1026 X106.99 Y93.002 E48.09412
G1 X106.991 Y94.866 E48.12512
G0 F7800 X106.899 Y94.866
G1 F1026 X106.992 Y95.087 E48.1291
G0 F7800 X106.807 Y94.867
G1 F1026 X106.431 Y94.564 E48.13713
G1 X106.002 Y94.337 E48.1452
G1 X105.536 Y94.198 E48.15329
G1 X105.05 Y94.151 E48.16141
G1 X104.543 Y94.204 E48.16989
G1 X104.067 Y94.354 E48.17819
G1 X103.637 Y94.59 E48.18635
G1 X103.266 Y94.903 E48.19442
G1 X102.961 Y95.279 E48.20247
G1 X102.735 Y95.71 E48.21056
G1 X102.596 Y96.174 E48.21862
G1 X102.549 Y96.66 E48.22674
G1 X102.602 Y97.166 E48.2352
G1 X102.751 Y97.643 E48.24351
G1 X102.989 Y98.074 E48.2517
G1 X103.301 Y98.445 E48.25976
G1 X103.677 Y98.748 E48.26779
G1 X104.106 Y98.975 E48.27586
G1 X104.572 Y99.114 E48.28395
G1 X105.058 Y99.161 E48.29207
G1 X105.564 Y99.108 E48.30053
G1 X106.04 Y98.959 E48.30882
G1 X106.472 Y98.721 E48.31703
G1 X106.843 Y98.409 E48.32509
G0 F7800 X106.918 Y98.408
G1 F1026 X106.994 Y98.221 E48.32844
G0 F7800 X106.994 Y98.408
G1 F1026 X106.996 Y101.647 E48.38231
G0 F7800 X106.901 Y101.647
G1 F1026 X106.997 Y101.874 E48.38641
G0 F7800 X106.807 Y101.648
G1 F1026 X106.429 Y101.343 E48.39448
G1 X106.002 Y101.118 E48.40251
G1 X105.538 Y100.978 E48.41057
G1 X105.05 Y100.931 E48.41872
G1 X104.543 Y100.984 E48.4272
G1 X104.067 Y101.134 E48.4355
G1 X103.637 Y101.37 E48.44366
G1 X103.266 Y101.683 E48.45173
G1 X102.961 Y102.059 E48.45978
G1 X102.735 Y102.49 E48.46787
G1 X102.596 Y102.954 E48.47593
G1 X102.549 Y103.44 E48.48405
G1 X102.602 Y103.946 E48.49251
G1 X102.751 Y104.423 E48.50082
G1 X102.989 Y104.854 E48.50901
G1 X103.301 Y105.224 E48.51706
G1 X103.677 Y105.529 E48.52511
G1 X104.108 Y105.755 E48.5332
G1 X104.572 Y105.894 E48.54126
G1 X105.058 Y105.941 E48.54938
G1 X105.564 Y105.888 E48.55784
G1 X106.04 Y105.739 E48.56613
G1 X106.472 Y105.501 E48.57434
G1 X106.843 Y105.189 E48.5824
G0 F7800 X106.921 Y105.189
G1 F1026 X106.999 Y104.995 E48.58587
G0 F7800 X106.999 Y105.189
G1 F1026 X106.998 Y106.99 E48.61582
G1 X93.01 Y106.998 E48.84845
G1 X93.009 Y105.225 E48.87793
G0 F7800 X93.069 Y105.224
G1 F1026 X93.008 Y105.08 E48.88053
G0 F7800 X93.13 Y105.224
G1 F1026 X93.506 Y105.529 E48.88858
G1 X93.937 Y105.755 E48.89668
G1 X94.401 Y105.894 E48.90473
G1 X94.887 Y105.941 E48.91285
G1 X95.393 Y105.888 E48.92131
G1 X95.87 Y105.739 E48.92962
G1 X96.301 Y105.501 E48.93781
G1 X96.671 Y105.189 E48.94586
G1 X96.976 Y104.813 E48.95391
G1 X97.202 Y104.382 E48.962
G1 X97.341 Y103.918 E48.97006
G1 X97.388 Y103.434 E48.97815
G1 X97.337 Y102.926 E48.98664
G1 X97.185 Y102.448 E48.99498
G1 X96.948 Y102.02 E49.00311
G1 X96.636 Y101.648 E49.01119
G1 X96.258 Y101.343 E49.01927
G1 X95.831 Y101.118 E49.02729
G1 X95.367 Y100.978 E49.03535
G1 X94.879 Y100.931 E49.04351
G1 X94.371 Y100.984 E49.052
G1 X93.897 Y101.134 E49.06027
G1 X93.468 Y101.37 E49.06841
G1 X93.095 Y101.683 E49.07651
G0 F7800 X93.05 Y101.683
G1 F1026 X93.006 Y101.793 E49.07848
G0 F7800 X93.006 Y101.684
G1 F1026 X93.005 Y98.446 E49.13233
G0 F7800 X93.067 Y98.445
G1 F1026 X93.004 Y98.295 E49.13503
G0 F7800 X93.13 Y98.445
G1 F1026 X93.506 Y98.748 E49.14306
G1 X93.935 Y98.975 E49.15113
G1 X94.401 Y99.114 E49.15922
G1 X94.887 Y99.161 E49.16734
G1 X95.393 Y99.108 E49.1758
G1 X95.87 Y98.959 E49.18411
G1 X96.301 Y98.721 E49.1923
G1 X96.671 Y98.409 E49.20035
G1 X96.976 Y98.033 E49.2084
G1 X97.202 Y97.602 E49.21649
G1 X97.341 Y97.138 E49.22455
G1 X97.388 Y96.654 E49.23263
G1 X97.337 Y96.146 E49.24113
G1 X97.186 Y95.669 E49.24945
G1 X96.948 Y95.238 E49.25763
G1 X96.636 Y94.867 E49.2657
G1 X96.26 Y94.564 E49.27373
G1 X95.831 Y94.337 E49.2818
G1 X95.365 Y94.198 E49.28988
G1 X94.879 Y94.151 E49.298
G1 X94.371 Y94.204 E49.3065
G1 X93.897 Y94.354 E49.31477
G1 X93.468 Y94.59 E49.32291
G1 X93.095 Y94.903 E49.33101
G0 F7800 X93.048 Y94.903
G1 F1026 X93.002 Y95.019 E49.33308
G0 F7800 X93.002 Y94.904
G1 F1026 X93 Y93.002 E49.36471
G0 F7800 X92.61 Y107.392
G1 F1026 X92.61 Y107.392 E49.36471
G1 X92.6 Y92.607 E49.61059
G1 X106.883 Y92.6 E49.84811
G1 X107.39 Y92.608 E49.85655
G1 X107.392 Y107.39 E50.10237
G1 X92.61 Y107.392 E50.3482
G0 F7800 X93.111 Y107.8
; TYPE:WALL-OUTER
G1 F718.2 X93.111 Y107.8 E50.3482
G1 X92.442 Y107.79 E50.35933
G1 X92.333 Y107.744 E50.36129
G1 X92.254 Y107.664 E50.36316
G1 X92.21 Y107.559 E50.36506
G1 X92.2 Y92.513 E50.61527
G1 X92.213 Y92.425 E50.61675
G1 X92.271 Y92.312 E50.61886
G1 X92.344 Y92.249 E50.62047
G1 X92.448 Y92.209 E50.62232
G1 X106.889 Y92.2 E50.86247
G1 X107.558 Y92.21 E50.8736
G1 X107.667 Y92.256 E50.87557
G1 X107.746 Y92.336 E50.87744
G1 X107.79 Y92.441 E50.87933
G1 X107.8 Y106.889 E51.1196
G1 X107.79 Y107.558 E51.13073
G1 X107.744 Y107.667 E51.1327
G1 X107.664 Y107.746 E51.13457
G1 X107.559 Y107.79 E51.13646
G1 X93.111 Y107.8 E51.37673
G0 F7800 X93.105 Y107.5
G0 X97.903 Y104.853
G0 X97.903 Y104.853
; TYPE:WALL-INNER
G1 F1026 X97.903 Y104.853 E51.37673
G1 X98.216 Y105.224 E51.3848
G1 X98.592 Y105.529 E51.39286
G1 X99.023 Y105.755 E51.40095
G1 X99.487 Y105.894 E51.409
G1 X99.973 Y105.941 E51.41712
G1 X100.479 Y105.888 E51.42558
G1 X100.954 Y105.739 E51.43386
G1 X101.386 Y105.501 E51.44207
G1 X101.757 Y105.189 E51.45013
G1 X102.06 Y104.813 E51.45816
G1 X102.287 Y104.384 E51.46623
G1 X102.426 Y103.918 E51.47432
G1 X102.473 Y103.432 E51.48244
G1 X102.42 Y102.926 E51.4909
G1 X102.271 Y102.45 E51.49919
G1 X102.033 Y102.02 E51.50736
G1 X101.721 Y101.648 E51.51544
G1 X101.343 Y101.343 E51.52352
G1 X100.916 Y101.118 E51.53154
G1 X100.452 Y100.978 E51.5396
G1 X99.966 Y100.931 E51.54772
G1 X99.457 Y100.984 E51.55623
G1 X98.983 Y101.134 E51.5645
G1 X98.552 Y101.37 E51.57267
G1 X98.18 Y101.683 E51.58076
G1 X97.877 Y102.059 E51.58879
G1 X97.65 Y102.488 E51.59686
G1 X97.511 Y102.954 E51.60495
G1 X97.464 Y103.44 E51.61307
G1 X97.517 Y103.947 E51.62154
G1 X97.667 Y104.423 E51.62984
G1 X97.903 Y104.853 E51.638
G0 F7800 X98.235 Y104.626
G1 F1026 X98.235 Y104.626 E51.638
G1 X98.497 Y104.937 E51.64476
G1 X98.813 Y105.194 E51.65154
G1 X99.175 Y105.383 E51.65833
G1 X99.564 Y105.5 E51.66508
G1 X99.971 Y105.539 E51.67188
G1 X100.397 Y105.495 E51.67901
G1 X100.796 Y105.37 E51.68596
G1 X101.158 Y105.17 E51.69284
G1 X101.47 Y104.908 E51.69961
G1 X101.724 Y104.592 E51.70635
G1 X101.915 Y104.231 E51.71315
G1 X102.032 Y103.841 E51.71992
G1 X102.071 Y103.434 E51.72672
G1 X102.027 Y103.007 E51.73386
G1 X101.901 Y102.608 E51.74081
G1 X101.702 Y102.247 E51.74767
G1 X101.44 Y101.935 E51.75444
G1 X101.123 Y101.679 E51.76122
G1 X100.763 Y101.49 E51.76798
G1 X100.374 Y101.373 E51.77474
G1 X99.967 Y101.333 E51.78154
G1 X99.539 Y101.378 E51.7887
G1 X99.141 Y101.504 E51.79564
G1 X98.779 Y101.701 E51.80249
G1 X98.467 Y101.964 E51.80928
G1 X98.213 Y102.28 E51.81602
G1 X98.022 Y102.641 E51.82281
G1 X97.905 Y103.031 E51.82958
G1 X97.866 Y103.438 E51.83638
G1 X97.911 Y103.866 E51.84354
G1 X98.037 Y104.265 E51.8505
G1 X98.235 Y104.626 E51.85735
G0 F7800 X98.525 Y104.763
G0 X98.814 Y105.193
G0 X99.175 Y105.382
G0 X99.565 Y105.498
G0 X99.971 Y105.538
G0 X99.96 Y105.443
G0 X99.942 Y105.435
G0 X99.942 Y105.435
G0 X99.97 Y105.137
; TYPE:WALL-OUTER
G1 F718.2 X99.97 Y105.137 E51.85735
G1 X100.316 Y105.101 E51.86313
G1 X100.638 Y105 E51.86874
G1 X100.931 Y104.839 E51.8743
G1 X101.183 Y104.627 E51.87978
G1 X101.389 Y104.371 E51.88524
G1 X101.543 Y104.079 E51.89073
G1 X101.637 Y103.764 E51.8962
G1 X101.669 Y103.435 E51.9017
G1 X101.633 Y103.088 E51.9075
G1 X101.532 Y102.766 E51.91311
G1 X101.371 Y102.474 E51.91866
G1 X101.159 Y102.222 E51.92413
G1 X100.902 Y102.015 E51.92962
G1 X100.611 Y101.862 E51.93509
G1 X100.296 Y101.767 E51.94056
G1 X99.968 Y101.735 E51.94604
G1 X99.621 Y101.771 E51.95184
G1 X99.299 Y101.873 E51.95746
G1 X99.006 Y102.033 E51.96301
G1 X98.754 Y102.245 E51.96849
G1 X98.548 Y102.501 E51.97395
G1 X98.394 Y102.793 E51.97944
G1 X98.3 Y103.108 E51.98491
G1 X98.268 Y103.437 E51.99041
G1 X98.304 Y103.784 E51.99621
G1 X98.406 Y104.107 E52.00184
G1 X98.566 Y104.399 E52.00738
G1 X98.778 Y104.65 E52.01284
G1 X99.034 Y104.858 E52.01833
G1 X99.326 Y105.011 E52.02381
G1 X99.641 Y105.105 E52.02928
G1 X99.97 Y105.137 E52.03477
G0 F7800 X99.942 Y105.435
G0 X99.94 Y105.54
G0 X100.396 Y105.493
G0 X100.795 Y105.368
G0 X101.157 Y105.168
G0 X101.468 Y104.907
G0 X101.724 Y104.591
G0 X101.914 Y104.23
G0 X102.03 Y103.84
G0 X102.07 Y103.435
G0 X102.025 Y103.008
G0 X101.9 Y102.609
G0 X101.7 Y102.248
G0 X101.439 Y101.936
G0 X101.122 Y101.68
G0 X100.762 Y101.491
G0 X100.373 Y101.374
G0 X99.961 Y101.333
G0 X99.973 Y99.161
G0 X99.973 Y99.161
; TYPE:WALL-INNER
G1 F1026 X99.973 Y99.161 E52.03477
G1 X100.479 Y99.108 E52.04323
G1 X100.954 Y98.959 E52.05151
G1 X101.386 Y98.721 E52.05971
G1 X101.757 Y98.409 E52.06778
G1 X102.06 Y98.033 E52.07581
G1 X102.287 Y97.604 E52.08388
G1 X102.426 Y97.138 E52.09196
G1 X102.473 Y96.652 E52.10008
G1 X102.42 Y96.146 E52.10855
G1 X102.271 Y95.67 E52.11684
G1 X102.033 Y95.238 E52.12504
G1 X101.721 Y94.867 E52.1331
G1 X101.345 Y94.564 E52.14113
G1 X100.916 Y94.337 E52.14921
G1 X100.45 Y94.198 E52.15729
G1 X99.966 Y94.151 E52.16538
G1 X99.457 Y94.204 E52.17389
G1 X98.983 Y94.354 E52.18216
G1 X98.552 Y94.59 E52.19033
G1 X98.18 Y94.903 E52.19842
G1 X97.877 Y95.279 E52.20645
G1 X97.65 Y95.708 E52.21452
G1 X97.511 Y96.174 E52.2226
G1 X97.464 Y96.66 E52.23072
G1 X97.517 Y97.167 E52.2392
G1 X97.667 Y97.643 E52.2475
G1 X97.903 Y98.073 E52.25566
G1 X98.216 Y98.445 E52.26374
G1 X98.592 Y98.748 E52.27177
G1 X99.021 Y98.975 E52.27985
G1 X99.487 Y99.114 E52.28793
G1 X99.973 Y99.161 E52.29605
G0 F7800 X99.971 Y98.759
G1 F1026 X99.971 Y98.759 E52.29605
G1 X100.397 Y98.715 E52.30317
G1 X100.796 Y98.59 E52.31013
G1 X101.158 Y98.39 E52.31701
G1 X101.47 Y98.128 E52.32378
G1 X101.724 Y97.812 E52.33052
G1 X101.915 Y97.451 E52.33731
G1 X102.032 Y97.061 E52.34409
G1 X102.071 Y96.654 E52.35089
G1 X102.027 Y96.227 E52.35802
G1 X101.902 Y95.828 E52.36498
G1 X101.702 Y95.466 E52.37186
G1 X101.44 Y95.154 E52.37863
G1 X101.124 Y94.9 E52.38537
G1 X100.763 Y94.709 E52.39217
G1 X100.373 Y94.592 E52.39894
G1 X99.967 Y94.553 E52.40572
G1 X99.539 Y94.598 E52.41288
G1 X99.141 Y94.724 E52.41982
G1 X98.779 Y94.921 E52.42667
G1 X98.467 Y95.184 E52.43346
G1 X98.213 Y95.5 E52.4402
G1 X98.022 Y95.861 E52.44699
G1 X97.905 Y96.251 E52.45376
G1 X97.866 Y96.658 E52.46056
G1 X97.911 Y97.086 E52.46772
G1 X98.037 Y97.485 E52.47468
G1 X98.235 Y97.846 E52.48153
G1 X98.497 Y98.158 E52.4883
G1 X98.813 Y98.412 E52.49504
G1 X99.174 Y98.603 E52.50184
G1 X99.564 Y98.72 E52.50861
G1 X99.971 Y98.759 E52.51541
G0 F7800 X99.97 Y98.357
; TYPE:WALL-OUTER
G1 F718.2 X99.97 Y98.357 E52.51541
G1 X100.316 Y98.321 E52.52119
G1 X100.638 Y98.22 E52.5268
G1 X100.931 Y98.059 E52.53236
G1 X101.183 Y97.847 E52.53784
G1 X101.389 Y97.591 E52.5433
G1 X101.543 Y97.299 E52.54879
G1 X101.637 Y96.984 E52.55426
G1 X101.669 Y96.655 E52.55976
G1 X101.633 Y96.308 E52.56556
G1 X101.532 Y95.986 E52.57117
G1 X101.371 Y95.693 E52.57673
G1 X101.159 Y95.441 E52.58221
G1 X100.903 Y95.235 E52.58767
G1 X100.611 Y95.081 E52.59316
G1 X100.296 Y94.987 E52.59863
G1 X99.968 Y94.955 E52.60411
G1 X99.621 Y94.991 E52.60991
G1 X99.299 Y95.093 E52.61553
G1 X99.006 Y95.253 E52.62108
G1 X98.754 Y95.465 E52.62656
G1 X98.548 Y95.721 E52.63202
G1 X98.394 Y96.013 E52.63751
G1 X98.3 Y96.328 E52.64298
G1 X98.268 Y96.657 E52.64848
G1 X98.304 Y97.004 E52.65428
G1 X98.406 Y97.327 E52.65991
G1 X98.566 Y97.619 E52.66545
G1 X98.778 Y97.871 E52.67092
G1 X99.034 Y98.077 E52.67639
G1 X99.326 Y98.231 E52.68188
G1 X99.641 Y98.325 E52.68734
G1 X99.97 Y98.357 E52.69284
G0 F7800 X99.942 Y98.655
G0 X99.781 Y98.592
G0 X99.565 Y98.718
G0 X99.175 Y98.602
G0 X98.849 Y98.231
G0 X96.83 Y97.45
G0 X96.83 Y97.45
; TYPE:WALL-INNER
G1 F1026 X96.83 Y97.45 E52.69284
G1 X96.947 Y97.061 E52.6996
G1 X96.986 Y96.655 E52.70638
G1 X96.943 Y96.227 E52.71353
G1 X96.816 Y95.827 E52.72051
G1 X96.617 Y95.466 E52.72737
G1 X96.355 Y95.154 E52.73414
G1 X96.039 Y94.9 E52.74089
G1 X95.678 Y94.709 E52.74768
G1 X95.288 Y94.592 E52.75445
G1 X94.881 Y94.553 E52.76125
G1 X94.453 Y94.598 E52.76841
G1 X94.055 Y94.724 E52.77535
G1 X93.695 Y94.921 E52.78217
G1 X93.382 Y95.184 E52.78897
G1 X93.126 Y95.501 E52.79575
G1 X92.937 Y95.861 E52.80251
G1 X92.82 Y96.25 E52.80926
G1 X92.78 Y96.658 E52.81608
G1 X92.825 Y97.086 E52.82324
G1 X92.951 Y97.485 E52.8302
G1 X93.149 Y97.846 E52.83704
G1 X93.411 Y98.158 E52.84382
G1 X93.727 Y98.412 E52.85056
G1 X94.088 Y98.603 E52.85735
G1 X94.478 Y98.72 E52.86413
G1 X94.885 Y98.759 E52.87092
G1 X95.312 Y98.715 E52.87806
G1 X95.712 Y98.59 E52.88503
G1 X96.074 Y98.39 E52.89191
G1 X96.384 Y98.128 E52.89866
G1 X96.641 Y97.812 E52.90543
G1 X96.83 Y97.45 E52.91223
G0 F7800 X96.667 Y97.548
G0 X96.64 Y97.811
G0 X96.383 Y98.127
G0 X96.073 Y98.388
G0 X95.711 Y98.588
G0 X94.713 Y98.74
G0 X94.856 Y98.655
G0 X94.856 Y98.655
G0 X94.884 Y98.357
; TYPE:WALL-OUTER
G1 F718.2 X94.884 Y98.357 E52.91223
G1 X95.231 Y98.321 E52.91803
G1 X95.554 Y98.22 E52.92365
G1 X95.846 Y98.059 E52.9292
G1 X96.097 Y97.847 E52.93466
G1 X96.305 Y97.591 E52.94015
G1 X96.458 Y97.299 E52.94563
G1 X96.552 Y96.984 E52.9511
G1 X96.584 Y96.656 E52.95658
G1 X96.549 Y96.308 E52.9624
G1 X96.447 Y95.986 E52.96801
G1 X96.286 Y95.693 E52.97357
G1 X96.074 Y95.441 E52.97905
G1 X95.818 Y95.235 E52.98451
G1 X95.526 Y95.081 E52.99
G1 X95.211 Y94.987 E52.99547
G1 X94.882 Y94.955 E53.00097
G1 X94.535 Y94.991 E53.00677
G1 X94.213 Y95.093 E53.01239
G1 X93.922 Y95.253 E53.01791
G1 X93.669 Y95.465 E53.0234
G1 X93.462 Y95.722 E53.02889
G1 X93.309 Y96.013 E53.03435
G1 X93.214 Y96.328 E53.03982
G1 X93.182 Y96.657 E53.04532
G1 X93.218 Y97.004 E53.05112
G1 X93.32 Y97.327 E53.05676
G1 X93.48 Y97.619 E53.06229
G1 X93.692 Y97.871 E53.06777
G1 X93.948 Y98.077 E53.07323
G1 X94.24 Y98.231 E53.07872
G1 X94.555 Y98.325 E53.08419
G1 X94.884 Y98.357 E53.08969
G0 F7800 X94.856 Y98.655
G0 X94.881 Y101.333
G0 X94.881 Y101.333
; TYPE:WALL-INNER
G1 F1026 X94.881 Y101.333 E53.08969
G1 X94.453 Y101.378 E53.09684
G1 X94.055 Y101.504 E53.10379
G1 X93.695 Y101.701 E53.11061
G1 X93.382 Y101.964 E53.11741
G1 X93.126 Y102.281 E53.12419
G1 X92.937 Y102.641 E53.13095
G1 X92.82 Y103.03 E53.1377
G1 X92.78 Y103.438 E53.14452
G1 X92.825 Y103.866 E53.15168
G1 X92.951 Y104.265 E53.15864
G1 X93.149 Y104.626 E53.16548
G1 X93.411 Y104.937 E53.17225
G1 X93.727 Y105.194 E53.17902
G1 X94.089 Y105.383 E53.18581
G1 X94.478 Y105.5 E53.19257
G1 X94.885 Y105.539 E53.19937
G1 X95.312 Y105.495 E53.20651
G1 X95.712 Y105.37 E53.21347
G1 X96.074 Y105.17 E53.22035
G1 X96.384 Y104.908 E53.2271
G1 X96.641 Y104.592 E53.23388
G1 X96.83 Y104.23 E53.24067
G1 X96.947 Y103.841 E53.24742
G1 X96.986 Y103.435 E53.25421
G1 X96.943 Y103.007 E53.26136
G1 X96.816 Y102.607 E53.26834
G1 X96.617 Y102.247 E53.27518
G1 X96.355 Y101.935 E53.28195
G1 X96.038 Y101.679 E53.28873
G1 X95.678 Y101.49 E53.29549
G1 X95.289 Y101.373 E53.30225
G1 X94.881 Y101.333 E53.30906
G0 F7800 X94.88 Y101.333
G0 X95.288 Y101.374
G0 X95.677 Y101.491
G0 X96.037 Y101.68
G0 X96.354 Y101.936
G0 X96.615 Y102.248
G0 X96.814 Y102.607
G0 X96.941 Y103.008
G0 X96.985 Y103.435
G0 X96.945 Y103.84
G0 X96.829 Y104.23
G0 X96.64 Y104.591
G0 X96.383 Y104.907
G0 X96.073 Y105.168
G0 X95.711 Y105.368
G0 X95.311 Y105.493
G0 X94.854 Y105.54
G0 X94.856 Y105.435
G0 X94.856 Y105.435
G0 X94.884 Y105.137
; TYPE:WALL-OUTER
G1 F718.2 X94.884 Y105.137 E53.30906
G1 X95.231 Y105.101 E53.31487
G1 X95.554 Y105 E53.32049
G1 X95.846 Y104.839 E53.32604
G1 X96.097 Y104.627 E53.3315
G1 X96.305 Y104.371 E53.33699
G1 X96.458 Y104.079 E53.34247
G1 X96.552 Y103.764 E53.34794
G1 X96.584 Y103.436 E53.35342
G1 X96.549 Y103.088 E53.35923
G1 X96.447 Y102.766 E53.36485
G1 X96.286 Y102.474 E53.3704
G1 X96.074 Y102.222 E53.37587
G1 X95.817 Y102.015 E53.38136
G1 X95.526 Y101.862 E53.38683
G1 X95.211 Y101.767 E53.3923
G1 X94.882 Y101.735 E53.3978
G1 X94.535 Y101.771 E53.4036
G1 X94.213 Y101.873 E53.40922
G1 X93.922 Y102.033 E53.41474
G1 X93.669 Y102.245 E53.42023
G1 X93.462 Y102.502 E53.42572
G1 X93.309 Y102.793 E53.43118
G1 X93.214 Y103.108 E53.43665
G1 X93.182 Y103.437 E53.44215
G1 X93.218 Y103.784 E53.44795
G1 X93.32 Y104.107 E53.45359
G1 X93.48 Y104.399 E53.45912
G1 X93.692 Y104.65 E53.46459
G1 X93.948 Y104.858 E53.47007
G1 X94.24 Y105.011 E53.47556
G1 X94.555 Y105.105 E53.48102
G1 X94.884 Y105.137 E53.48652
G0 F7800 X94.856 Y105.435
G0 X98.352 Y104.759
G0 X98.814 Y105.193
G0 X99.175 Y105.382
G0 X99.565 Y105.498
G0 X99.971 Y105.538
G0 X100.396 Y105.493
G0 X100.795 Y105.368
G0 X101.157 Y105.168
G0 X101.468 Y104.907
G0 X101.724 Y104.591
G0 X101.914 Y104.23
G0 X101.938 Y104.067
G0 X102.995 Y103.865
G0 X102.995 Y103.865
; TYPE:WALL-INNER
G1 F1026 X102.995 Y103.865 E53.48652
G1 X103.12 Y104.265 E53.49349
G1 X103.32 Y104.627 E53.50037
G1 X103.582 Y104.937 E53.50712
G1 X103.898 Y105.194 E53.51389
G1 X104.26 Y105.383 E53.52068
G1 X104.649 Y105.5 E53.52744
G1 X105.056 Y105.539 E53.53424
G1 X105.483 Y105.495 E53.54137
G1 X105.882 Y105.37 E53.54833
G1 X106.244 Y105.17 E53.55521
G1 X106.556 Y104.908 E53.56198
G1 X106.811 Y104.591 E53.56875
G1 X107 Y104.231 E53.57551
G1 X107.117 Y103.842 E53.58226
G1 X107.157 Y103.434 E53.58908
G1 X107.112 Y103.006 E53.59624
G1 X106.986 Y102.608 E53.60318
G1 X106.789 Y102.248 E53.61001
G1 X106.526 Y101.935 E53.6168
G1 X106.209 Y101.679 E53.62358
G1 X105.849 Y101.49 E53.63034
G1 X105.46 Y101.373 E53.6371
G1 X105.052 Y101.333 E53.64391
G1 X104.624 Y101.378 E53.65107
G1 X104.225 Y101.504 E53.65803
G1 X103.864 Y101.702 E53.66488
G1 X103.553 Y101.964 E53.67164
G1 X103.296 Y102.28 E53.67841
G1 X103.107 Y102.642 E53.6852
G1 X102.99 Y103.031 E53.69196
G1 X102.951 Y103.438 E53.69876
G1 X102.995 Y103.865 E53.7059
G0 F7800 X103.066 Y103.919
G0 X103.322 Y104.626
G0 X103.583 Y104.936
G0 X103.899 Y105.193
G0 X104.26 Y105.382
G0 X104.65 Y105.498
G0 X105.055 Y105.538
G0 X105.079 Y105.474
G0 X105.027 Y105.435
G0 X105.027 Y105.435
G0 X105.055 Y105.137
; TYPE:WALL-OUTER
G1 F718.2 X105.055 Y105.137 E53.7059
G1 X105.402 Y105.101 E53.7117
G1 X105.724 Y105 E53.71731
G1 X106.017 Y104.839 E53.72287
G1 X106.269 Y104.627 E53.72835
G1 X106.475 Y104.37 E53.73383
G1 X106.628 Y104.079 E53.73929
G1 X106.723 Y103.764 E53.74476
G1 X106.755 Y103.435 E53.75026
G1 X106.719 Y103.088 E53.75606
G1 X106.617 Y102.766 E53.76168
G1 X106.457 Y102.475 E53.7672
G1 X106.245 Y102.222 E53.77269
G1 X105.988 Y102.015 E53.77818
G1 X105.697 Y101.862 E53.78365
G1 X105.382 Y101.767 E53.78912
G1 X105.053 Y101.735 E53.79462
G1 X104.706 Y101.771 E53.80042
G1 X104.383 Y101.873 E53.80605
G1 X104.091 Y102.033 E53.81159
G1 X103.84 Y102.245 E53.81705
G1 X103.632 Y102.501 E53.82254
G1 X103.479 Y102.793 E53.82802
G1 X103.385 Y103.108 E53.83349
G1 X103.353 Y103.437 E53.83898
G1 X103.389 Y103.784 E53.84479
G1 X103.49 Y104.107 E53.85041
G1 X103.651 Y104.399 E53.85596
G1 X103.863 Y104.65 E53.86142
G1 X104.119 Y104.858 E53.86691
G1 X104.411 Y105.011 E53.87239
G1 X104.726 Y105.105 E53.87786
G1 X105.055 Y105.137 E53.88335
G0 F7800 X105.027 Y105.435
G0 X105.026 Y105.539
G0 X105.482 Y105.493
G0 X105.881 Y105.368
G0 X106.243 Y105.168
G0 X106.554 Y104.907
G0 X106.81 Y104.59
G0 X106.999 Y104.23
G0 X107.116 Y103.841
G0 X107.156 Y103.435
G0 X107.111 Y103.007
G0 X106.984 Y102.609
G0 X106.788 Y102.249
G0 X106.525 Y101.936
G0 X106.208 Y101.68
G0 X105.848 Y101.491
G0 X105.459 Y101.374
G0 X105.044 Y101.333
G0 X105.056 Y98.759
G0 X105.056 Y98.759
; TYPE:WALL-INNER
G1 F1026 X105.056 Y98.759 E53.88335
G1 X105.483 Y98.715 E53.89049
G1 X105.882 Y98.59 E53.89745
G1 X106.244 Y98.39 E53.90432
G1 X106.556 Y98.128 E53.9111
G1 X106.811 Y97.811 E53.91786
G1 X107 Y97.451 E53.92463
G1 X107.117 Y97.062 E53.93138
G1 X107.157 Y96.654 E53.9382
G1 X107.112 Y96.226 E53.94536
G1 X106.986 Y95.828 E53.9523
G1 X106.789 Y95.466 E53.95915
G1 X106.526 Y95.154 E53.96594
G1 X106.21 Y94.9 E53.97268
G1 X105.849 Y94.709 E53.97947
G1 X105.459 Y94.592 E53.98624
G1 X105.052 Y94.553 E53.99304
G1 X104.624 Y94.598 E54.0002
G1 X104.225 Y94.724 E54.00716
G1 X103.864 Y94.922 E54.01401
G1 X103.553 Y95.184 E54.02077
G1 X103.296 Y95.5 E54.02754
G1 X103.107 Y95.862 E54.03433
G1 X102.99 Y96.251 E54.04109
G1 X102.951 Y96.658 E54.04789
G1 X102.995 Y97.085 E54.05503
G1 X103.12 Y97.485 E54.062
G1 X103.32 Y97.847 E54.06887
G1 X103.582 Y98.158 E54.07564
G1 X103.898 Y98.412 E54.08238
G1 X104.259 Y98.603 E54.08917
G1 X104.649 Y98.72 E54.09594
G1 X105.056 Y98.759 E54.10274
G0 F7800 X105.055 Y98.357
; TYPE:WALL-OUTER
G1 F718.2 X105.055 Y98.357 E54.10274
G1 X105.402 Y98.321 E54.10854
G1 X105.724 Y98.22 E54.11416
G1 X106.017 Y98.059 E54.11971
G1 X106.269 Y97.847 E54.12519
G1 X106.475 Y97.59 E54.13067
G1 X106.628 Y97.299 E54.13614
G1 X106.723 Y96.984 E54.14161
G1 X106.755 Y96.655 E54.1471
G1 X106.719 Y96.308 E54.15291
G1 X106.617 Y95.986 E54.15852
G1 X106.457 Y95.693 E54.16408
G1 X106.245 Y95.441 E54.16955
G1 X105.989 Y95.235 E54.17502
G1 X105.697 Y95.081 E54.18051
G1 X105.382 Y94.987 E54.18597
G1 X105.053 Y94.955 E54.19147
G1 X104.706 Y94.991 E54.19727
G1 X104.383 Y95.093 E54.2029
G1 X104.091 Y95.253 E54.20844
G1 X103.84 Y95.465 E54.21391
G1 X103.632 Y95.721 E54.21939
G1 X103.479 Y96.013 E54.22487
G1 X103.385 Y96.328 E54.23034
G1 X103.353 Y96.657 E54.23584
G1 X103.389 Y97.004 E54.24164
G1 X103.49 Y97.327 E54.24727
G1 X103.651 Y97.619 E54.25281
G1 X103.863 Y97.871 E54.25829
G1 X104.119 Y98.077 E54.26375
G1 X104.411 Y98.231 E54.26924
G1 X104.726 Y98.325 E54.27471
G1 X105.055 Y98.357 E54.28021
G0 F7800 X105.149 Y99.492
; TYPE:FILL
G1 F2052 X106.655 Y100.998 E54.31563
G0 F7800 X106.655 Y100.432
G1 F2052 X105.657 Y99.434 E54.3391
G0 F7800 X106.088 Y99.3
G1 F2052 X106.655 Y99.866 E54.35242
G0 F7800 X106.654 Y99.3
G1 F2052 X106.465 Y99.111 E54.35687
G0 F7800 X105.79 Y100.699
G0 X105.79 Y100.699
G1 F2052 X104.543 Y99.452 E54.38619
G0 F7800 X103.639 Y99.113
G1 F2052 X105.122 Y100.597 E54.42108
G0 F7800 X104.596 Y100.636
G1 F2052 X102.27 Y98.311 E54.47577
G0 F7800 X102.018 Y98.624
G1 F2052 X104.146 Y100.752 E54.52582
G0 F7800 X103.748 Y100.92
G1 F2052 X101.715 Y98.886 E54.57365
G0 F7800 X101.376 Y99.113
G1 F2052 X103.393 Y101.131 E54.6211
G0 F7800 X103.086 Y101.389
G1 F2052 X100.998 Y99.301 E54.6702
G0 F7800 X100.567 Y99.436
G1 F2052 X102.821 Y101.69 E54.72321
G0 F7800 X102.592 Y102.027
G1 F2052 X100.059 Y99.493 E54.7828
G0 F7800 X99.451 Y99.451
G1 F2052 X100.696 Y100.696 E54.81208
G0 F7800 X100.029 Y100.595
G1 F2052 X98.537 Y99.103 E54.84717
G0 F7800 X97.523 Y98.089
G1 F2052 X97.422 Y97.837 E54.84984
G1 X97.443 Y97.602 E54.85084
G0 F7800 X97.184 Y98.315
G1 F2052 X99.505 Y100.636 E54.90543
G0 F7800 X99.056 Y100.753
G1 F2052 X96.93 Y98.627 E54.95543
G0 F7800 X96.626 Y98.889
G1 F2052 X98.659 Y100.922 E55.00324
G0 F7800 X98.304 Y101.133
G1 F2052 X96.287 Y99.115 E55.05069
G0 F7800 X95.908 Y99.302
G1 F2052 X97.997 Y101.392 E55.09983
G0 F7800 X97.734 Y101.693
G1 F2052 X95.477 Y99.436 E55.15291
G0 F7800 X94.967 Y99.492
G1 F2052 X97.505 Y102.031 E55.21262
G0 F7800 X97.417 Y102.39
G1 F2052 X97.408 Y102.489 E55.21304
G0 F7800 X97.443 Y104.382
G0 X97.443 Y104.382
G1 F2052 X97.418 Y104.617 E55.21467
G1 X97.535 Y104.889 E55.2196
G0 F7800 X97.179 Y105.099
G1 F2052 X98.735 Y106.655 E55.25619
G0 F7800 X99.3 Y106.654
G1 F2052 X98.521 Y105.875 E55.27451
G0 F7800 X98.169 Y106.655
G1 F2052 X96.926 Y105.411 E55.30376
G0 F7800 X96.622 Y105.673
G1 F2052 X97.604 Y106.655 E55.32685
G0 F7800 X97.039 Y106.655
G1 F2052 X96.282 Y105.899 E55.34464
G0 F7800 X95.902 Y106.085
G1 F2052 X96.473 Y106.655 E55.35806
G0 F7800 X95.908 Y106.656
G1 F2052 X95.471 Y106.219 E55.36834
G0 F7800 X95.342 Y106.656
G1 F2052 X94.96 Y106.273 E55.37733
G0 F7800 X94.777 Y106.657
G1 F2052 X94.349 Y106.229 E55.3874
G0 F7800 X94.212 Y106.657
G1 F2052 X93.425 Y105.87 E55.40591
G0 F7800 X93.349 Y106.36
G1 F2052 X93.647 Y106.657 E55.41291
G0 F7800 X93.624 Y105.05
G0 X93.412 Y104.936
G0 X93.149 Y104.625
G0 X92.952 Y104.264
G0 X92.826 Y103.865
G0 X92.781 Y103.437
G0 X92.821 Y103.031
G0 X92.938 Y102.642
G0 X93.127 Y102.282
G0 X93.582 Y101.83
G0 X93.571 Y100.925
G0 X93.571 Y100.925
G1 F2052 X93.345 Y100.699 E55.41822
G0 F7800 X93.345 Y100.133
G1 F2052 X93.966 Y100.754 E55.43283
G0 F7800 X94.414 Y100.636
G1 F2052 X93.344 Y99.566 E55.45799
G0 F7800 X93.439 Y99.096
G1 F2052 X94.938 Y100.595 E55.49324
G0 F7800 X95.601 Y100.692
G1 F2052 X94.359 Y99.45 E55.52245
G0 F7800 X94.978 Y98.689
G0 X95.311 Y98.713
G0 X95.711 Y98.588
G0 X96.073 Y98.388
G0 X96.383 Y98.127
G0 X96.64 Y97.811
G0 X96.829 Y97.45
G0 X96.945 Y97.06
G0 X96.985 Y96.655
G0 X96.895 Y96.337
G0 X97.408 Y95.709
G0 X97.408 Y95.709
G1 F2052 X97.417 Y95.611 E55.52287
G0 F7800 X97.508 Y95.245
G1 F2052 X95.604 Y93.341 E55.56765
G0 F7800 X95.038 Y93.341
G1 F2052 X95.615 Y93.918 E55.58122
G0 F7800 X94.948 Y93.816
G1 F2052 X94.473 Y93.341 E55.59239
G0 F7800 X94.422 Y93.857
G1 F2052 X93.907 Y93.341 E55.60452
G0 F7800 X93.341 Y93.341
G1 F2052 X93.973 Y93.973 E55.61938
G0 F7800 X93.576 Y94.142
G1 F2052 X93.34 Y93.906 E55.62493
G0 F7800 X96.17 Y93.341
G0 X96.17 Y93.341
G1 F2052 X97.737 Y94.909 E55.6618
G0 F7800 X98.002 Y94.608
G1 F2052 X96.735 Y93.34 E55.69161
G0 F7800 X97.3 Y93.34
G1 F2052 X98.309 Y94.349 E55.71534
G0 F7800 X98.665 Y94.139
G1 F2052 X97.866 Y93.34 E55.73413
G0 F7800 X98.432 Y93.34
G1 F2052 X99.062 Y93.97 E55.74894
G0 F7800 X99.513 Y93.856
G1 F2052 X98.997 Y93.34 E55.76108
G0 F7800 X99.563 Y93.34
G1 F2052 X100.039 Y93.816 E55.77227
G0 F7800 X100.129 Y93.34
G1 F2052 X100.709 Y93.921 E55.78593
G0 F7800 X100.694 Y93.34
G1 F2052 X102.596 Y95.242 E55.83066
G0 F7800 X102.502 Y95.613
G1 F2052 X102.493 Y95.71 E55.83107
G0 F7800 X102.825 Y94.905
G1 F2052 X101.26 Y93.34 E55.86787
G0 F7800 X101.826 Y93.34
G1 F2052 X103.091 Y94.605 E55.89762
G0 F7800 X103.398 Y94.347
G1 F2052 X102.391 Y93.34 E55.92131
G0 F7800 X102.957 Y93.34
G1 F2052 X103.754 Y94.137 E55.94005
G0 F7800 X104.151 Y93.969
G1 F2052 X103.522 Y93.34 E55.95485
G0 F7800 X104.088 Y93.34
G1 F2052 X104.603 Y93.855 E55.96696
G0 F7800 X104.653 Y93.34
G1 F2052 X105.131 Y93.817 E55.97819
G0 F7800 X105.219 Y93.34
G1 F2052 X105.802 Y93.923 E55.9919
G0 F7800 X105.785 Y93.34
G1 F2052 X106.65 Y94.205 E56.01224
G0 F7800 X106.649 Y93.638
G1 F2052 X106.35 Y93.34 E56.01926
G0 F7800 X105.213 Y94.606
G0 X105.053 Y94.554
G0 X104.625 Y94.599
G0 X104.226 Y94.725
G0 X103.865 Y94.922
G0 X103.554 Y95.185
G0 X103.297 Y95.501
G0 X103.108 Y95.862
G0 X102.992 Y96.252
G0 X102.952 Y96.657
G0 X103.041 Y97.029
G0 X102.528 Y97.603
G0 X102.528 Y97.603
G1 F2052 X102.51 Y97.838 E56.02089
G1 X102.599 Y98.074 E56.02508
G0 F7800 X102.502 Y102.392
G0 X102.502 Y102.392
G1 F2052 X102.493 Y102.49 E56.0255
G0 F7800 X102.528 Y104.383
G0 X102.528 Y104.383
G1 F2052 X102.505 Y104.618 E56.02713
G1 X102.613 Y104.875 E56.03176
G0 F7800 X102.267 Y105.095
G1 F2052 X103.823 Y106.651 E56.06836
G0 F7800 X104.388 Y106.651
G1 F2052 X103.62 Y105.883 E56.08642
G0 F7800 X103.258 Y106.652
G1 F2052 X102.015 Y105.409 E56.11565
G0 F7800 X101.71 Y105.67
G1 F2052 X102.692 Y106.652 E56.13875
G0 F7800 X102.127 Y106.652
G1 F2052 X101.37 Y105.896 E56.15654
G0 F7800 X100.992 Y106.083
G1 F2052 X101.561 Y106.652 E56.16992
G0 F7800 X100.996 Y106.653
G1 F2052 X100.561 Y106.218 E56.18015
G0 F7800 X100.431 Y106.653
G1 F2052 X100.05 Y106.273 E56.1891
G0 F7800 X99.866 Y106.654
G1 F2052 X99.441 Y106.229 E56.1991
G0 F7800 X104.533 Y106.23
G0 X104.533 Y106.23
G1 F2052 X104.953 Y106.65 E56.20897
G0 F7800 X105.141 Y106.273
G1 F2052 X105.519 Y106.65 E56.21785
G0 F7800 X105.65 Y106.216
G1 F2052 X106.084 Y106.65 E56.22806
G0 F7800 X106.65 Y106.65
G1 F2052 X106.082 Y106.082 E56.24142
G0 F7800 X106.46 Y105.894
G1 F2052 X106.657 Y106.092 E56.24606
G0 F7800 X106.731 Y105.604
G0 X107.116 Y103.841
G0 X107.129 Y103.006
G0 X107.196 Y102.569
G0 X107.196 Y102.569
G1 F2052 X107.183 Y102.331 E56.24688
; Layer Change GCode
; LAYER:3
G0 F7800 X106.887 Y102.434 Z0.7
G0 X106.788 Y102.249
G0 X106.525 Y101.936
G0 X106.208 Y101.68
G0 X105.848 Y101.491
G0 X105.459 Y101.374
G0 X105.053 Y101.334
G0 X104.625 Y101.379
G0 X104.226 Y101.505
G0 X103.865 Y101.702
G0 X103.554 Y101.965
G0 X103.297 Y102.281
G0 X103.108 Y102.642
G0 X102.992 Y103.032
G0 X102.952 Y103.437
G0 X102.997 Y103.864
G0 X102.978 Y103.812
G0 X101.885 Y104.197
G0 X101.914 Y104.23
G0 X101.724 Y104.591
G0 X101.468 Y104.907
G0 X101.157 Y105.168
G0 X100.795 Y105.368
G0 X100.396 Y105.493
G0 X99.971 Y105.538
G0 X99.565 Y105.498
G0 X98.952 Y105.23
G0 X92.517 Y107.498
G0 X92.517 Y107.498
G0 X92.439 Y107.791
G0 X92.439 Y107.791
G0 X93.009 Y107
; TYPE:WALL-INNER
G0 X93.009 Y107
G1 F1044 X93.009 Y105.225 E56.2764
G0 F7800 X93.069 Y105.224
G1 F1044 X93.008 Y105.079 E56.27902
G0 F7800 X93.13 Y105.224
G1 F1044 X93.506 Y105.529 E56.28707
G1 X93.937 Y105.755 E56.29516
G1 X94.401 Y105.894 E56.30322
G1 X94.887 Y105.941 E56.31134
G1 X95.393 Y105.888 E56.3198
G1 X95.87 Y105.739 E56.32811
G1 X96.301 Y105.501 E56.3363
G1 X96.671 Y105.189 E56.34435
G1 X96.976 Y104.813 E56.3524
G1 X97.202 Y104.382 E56.36049
G1 X97.341 Y103.918 E56.36855
G1 X97.385 Y103.461 E56.37618
G1 X97.338 Y102.932 E56.38501
G1 X97.185 Y102.448 E56.39346
G1 X96.948 Y102.02 E56.40159
G1 X96.636 Y101.648 E56.40967
G1 X96.258 Y101.343 E56.41774
G1 X95.831 Y101.118 E56.42577
G1 X95.367 Y100.978 E56.43383
G1 X94.879 Y100.931 E56.44198
G1 X94.371 Y100.984 E56.45048
G1 X93.897 Y101.134 E56.45874
G1 X93.468 Y101.37 E56.46689
G1 X93.095 Y101.683 E56.47498
G0 F7800 X93.05 Y101.683
G1 F1044 X93.006 Y101.794 E56.47697
G0 F7800 X93.006 Y101.684
G1 F1044 X93.004 Y98.446 E56.53082
G0 F7800 X93.067 Y98.445
G1 F1044 X93.003 Y98.295 E56.53353
G0 F7800 X93.13 Y98.445
G1 F1044 X93.506 Y98.748 E56.54156
G1 X93.935 Y98.975 E56.54963
G1 X94.401 Y99.114 E56.55772
G1 X94.887 Y99.161 E56.56584
G1 X95.393 Y99.108 E56.5743
G1 X95.87 Y98.959 E56.58261
G1 X96.301 Y98.721 E56.5908
G1 X96.671 Y98.409 E56.59885
G1 X96.976 Y98.033 E56.6069
G1 X97.202 Y97.602 E56.61499
G1 X97.341 Y97.138 E56.62305
G1 X97.385 Y96.681 E56.63068
G1 X97.338 Y96.152 E56.63951
G1 X97.186 Y95.669 E56.64793
G1 X96.948 Y95.238 E56.65612
G1 X96.636 Y94.867 E56.66418
G1 X96.26 Y94.564 E56.67221
G1 X95.831 Y94.337 E56.68029
G1 X95.365 Y94.198 E56.68837
G1 X94.879 Y94.151 E56.69649
G1 X94.371 Y94.204 E56.70499
G1 X93.897 Y94.354 E56.71325
G1 X93.468 Y94.59 E56.7214
G1 X93.095 Y94.903 E56.7295
G0 F7800 X93.048 Y94.903
G1 F1044 X93.002 Y95.019 E56.73157
G0 F7800 X93.002 Y94.904
G1 F1044 X93 Y93.002 E56.7632
G1 X106.991 Y93 E56.99587
G1 X106.992 Y94.866 E57.0269
G0 F7800 X106.899 Y94.866
G1 F1044 X106.993 Y95.088 E57.03091
G0 F7800 X106.807 Y94.867
G1 F1044 X106.431 Y94.564 E57.03894
G1 X106.002 Y94.337 E57.04701
G1 X105.536 Y94.198 E57.0551
G1 X105.05 Y94.151 E57.06322
G1 X104.543 Y94.204 E57.0717
G1 X104.067 Y94.354 E57.08
G1 X103.637 Y94.59 E57.08816
G1 X103.266 Y94.903 E57.09623
G1 X102.961 Y95.279 E57.10428
G1 X102.735 Y95.71 E57.11237
G1 X102.596 Y96.174 E57.12043
G1 X102.549 Y96.66 E57.12855
G1 X102.602 Y97.166 E57.13701
G1 X102.751 Y97.643 E57.14532
G1 X102.989 Y98.074 E57.15351
G1 X103.301 Y98.445 E57.16157
G1 X103.677 Y98.748 E57.1696
G1 X104.106 Y98.975 E57.17767
G1 X104.572 Y99.114 E57.18576
G1 X105.058 Y99.161 E57.19388
G1 X105.564 Y99.108 E57.20234
G1 X106.04 Y98.959 E57.21063
G1 X106.472 Y98.721 E57.21884
G1 X106.843 Y98.409 E57.2269
G0 F7800 X106.918 Y98.408
G1 F1044 X106.994 Y98.221 E57.23025
G0 F7800 X106.994 Y98.408
G1 F1044 X106.996 Y101.647 E57.28412
G0 F7800 X106.901 Y101.647
G1 F1044 X106.997 Y101.874 E57.28822
G0 F7800 X106.807 Y101.648
G1 F1044 X106.429 Y101.343 E57.29629
G1 X106.002 Y101.118 E57.30432
G1 X105.538 Y100.978 E57.31238
G1 X105.05 Y100.931 E57.32053
G1 X104.543 Y100.984 E57.32901
G1 X104.067 Y101.134 E57.33731
G1 X103.637 Y101.37 E57.34547
G1 X103.266 Y101.683 E57.35354
G1 X102.961 Y102.059 E57.36159
G1 X102.735 Y102.49 E57.36968
G1 X102.596 Y102.954 E57.37774
G1 X102.549 Y103.44 E57.38586
G1 X102.602 Y103.946 E57.39432
G1 X102.751 Y104.423 E57.40263
G1 X102.989 Y104.854 E57.41082
G1 X103.301 Y105.224 E57.41887
G1 X103.677 Y105.529 E57.42692
G1 X104.108 Y105.755 E57.43501
G1 X104.572 Y105.894 E57.44307
G1 X105.058 Y105.941 E57.45119
G1 X105.564 Y105.888 E57.45965
G1 X106.04 Y105.739 E57.46794
G1 X106.472 Y105.501 E57.47615
G1 X106.843 Y105.189 E57.48421
G0 F7800 X106.921 Y105.188
G1 F1044 X106.999 Y104.996 E57.48765
G0 F7800 X106.999 Y105.188
G1 F1044 X107 Y106.991 E57.51764
G1 X93.009 Y107 E57.75031
G0 F7800 X92.609 Y107.4
G1 F1044 X92.609 Y107.4 E57.75031
G1 X92.6 Y92.608 E57.9963
G1 X107.391 Y92.6 E58.24228
G1 X107.4 Y107.391 E58.48825
G1 X92.609 Y107.4 E58.73423
G0 F7800 X92.439 Y107.791
; TYPE:WALL-OUTER
G1 F730.8 X92.439 Y107.791 E58.73423
G1 X92.32 Y107.735 E58.73641
G1 X92.252 Y107.662 E58.73807
G1 X92.209 Y107.552 E58.74004
G1 X92.209 Y92.44 E58.99135
G1 X92.259 Y92.328 E58.99339
G1 X92.349 Y92.246 E58.99542
G1 X92.443 Y92.21 E58.99709
G1 X107.491 Y92.2 E59.24734
G1 X107.561 Y92.209 E59.24851
G1 X107.68 Y92.265 E59.2507
G1 X107.748 Y92.338 E59.25236
G1 X107.791 Y92.448 E59.25432
G1 X107.791 Y107.561 E59.50565
G1 X107.735 Y107.68 E59.50784
G1 X107.662 Y107.748 E59.5095
G1 X107.552 Y107.791 E59.51146
G1 X92.439 Y107.791 E59.76279
G0 F7800 X92.517 Y107.498
G0 X97.903 Y104.853
G0 X97.903 Y104.853
; TYPE:WALL-INNER
G1 F1044 X97.903 Y104.853 E59.76279
G1 X98.216 Y105.224 E59.77087
G1 X98.592 Y105.529 E59.77892
G1 X99.023 Y105.755 E59.78701
G1 X99.487 Y105.894 E59.79507
G1 X99.973 Y105.941 E59.80319
G1 X100.479 Y105.888 E59.81165
G1 X100.954 Y105.739 E59.81992
G1 X101.386 Y105.501 E59.82813
G1 X101.757 Y105.189 E59.83619
G1 X102.06 Y104.813 E59.84422
G1 X102.287 Y104.384 E59.85229
G1 X102.426 Y103.918 E59.86038
G1 X102.47 Y103.46 E59.86803
G1 X102.422 Y102.932 E59.87685
G1 X102.271 Y102.45 E59.88525
G1 X102.033 Y102.02 E59.89342
G1 X101.721 Y101.648 E59.90149
G1 X101.343 Y101.343 E59.90957
G1 X100.916 Y101.118 E59.9176
G1 X100.452 Y100.978 E59.92566
G1 X99.966 Y100.931 E59.93378
G1 X99.457 Y100.984 E59.94229
G1 X98.983 Y101.134 E59.95056
G1 X98.552 Y101.37 E59.95873
G1 X98.18 Y101.683 E59.96681
G1 X97.877 Y102.059 E59.97484
G1 X97.65 Y102.488 E59.98291
G1 X97.511 Y102.954 E59.991
G1 X97.464 Y103.44 E59.99912
G1 X97.517 Y103.947 E60.0076
G1 X97.667 Y104.423 E60.0159
G1 X97.903 Y104.853 E60.02406
G0 F7800 X98.235 Y104.626
G1 F1044 X98.235 Y104.626 E60.02406
G1 X98.497 Y104.937 E60.03082
G1 X98.813 Y105.194 E60.03759
G1 X99.175 Y105.383 E60.04438
G1 X99.564 Y105.5 E60.05114
G1 X99.971 Y105.539 E60.05794
G1 X100.397 Y105.495 E60.06506
G1 X100.796 Y105.37 E60.07201
G1 X101.158 Y105.17 E60.07889
G1 X101.47 Y104.908 E60.08567
G1 X101.724 Y104.592 E60.09241
G1 X101.915 Y104.231 E60.0992
G1 X102.032 Y103.841 E60.10597
G1 X102.069 Y103.459 E60.11235
G1 X102.028 Y103.011 E60.11984
G1 X101.901 Y102.608 E60.12686
G1 X101.702 Y102.247 E60.13372
G1 X101.44 Y101.935 E60.14049
G1 X101.123 Y101.679 E60.14727
G1 X100.763 Y101.49 E60.15403
G1 X100.374 Y101.373 E60.16079
G1 X99.967 Y101.333 E60.16759
G1 X99.539 Y101.378 E60.17474
G1 X99.141 Y101.504 E60.18169
G1 X98.779 Y101.701 E60.18854
G1 X98.467 Y101.964 E60.19533
G1 X98.213 Y102.28 E60.20207
G1 X98.022 Y102.641 E60.20886
G1 X97.905 Y103.031 E60.21563
G1 X97.866 Y103.438 E60.22243
G1 X97.911 Y103.866 E60.22959
G1 X98.037 Y104.265 E60.23655
G1 X98.235 Y104.626 E60.24339
G0 F7800 X98.525 Y104.763
G0 X98.814 Y105.193
G0 X99.175 Y105.382
G0 X99.565 Y105.498
G0 X99.971 Y105.538
G0 X99.96 Y105.443
G0 X99.942 Y105.435
G0 X99.942 Y105.435
G0 X99.97 Y105.137
; TYPE:WALL-OUTER
G1 F730.8 X99.97 Y105.137 E60.24339
G1 X100.316 Y105.101 E60.24918
G1 X100.638 Y105 E60.25479
G1 X100.931 Y104.839 E60.26035
G1 X101.183 Y104.627 E60.26583
G1 X101.389 Y104.371 E60.27129
G1 X101.543 Y104.079 E60.27678
G1 X101.637 Y103.764 E60.28225
G1 X101.667 Y103.458 E60.28736
G1 X101.633 Y103.09 E60.29351
G1 X101.532 Y102.766 E60.29915
G1 X101.371 Y102.474 E60.3047
G1 X101.159 Y102.222 E60.31017
G1 X100.902 Y102.015 E60.31566
G1 X100.611 Y101.862 E60.32113
G1 X100.296 Y101.767 E60.3266
G1 X99.968 Y101.735 E60.33208
G1 X99.621 Y101.771 E60.33788
G1 X99.299 Y101.873 E60.3435
G1 X99.006 Y102.033 E60.34905
G1 X98.754 Y102.245 E60.35453
G1 X98.548 Y102.501 E60.35999
G1 X98.394 Y102.793 E60.36548
G1 X98.3 Y103.108 E60.37095
G1 X98.268 Y103.437 E60.37645
G1 X98.304 Y103.784 E60.38225
G1 X98.406 Y104.107 E60.38788
G1 X98.566 Y104.399 E60.39342
G1 X98.778 Y104.65 E60.39888
G1 X99.034 Y104.858 E60.40437
G1 X99.326 Y105.011 E60.40985
G1 X99.641 Y105.105 E60.41532
G1 X99.97 Y105.137 E60.42081
G0 F7800 X99.942 Y105.435
G0 X99.94 Y105.54
G0 X100.396 Y105.493
G0 X100.795 Y105.368
G0 X101.157 Y105.168
G0 X101.468 Y104.907
G0 X101.724 Y104.591
G0 X101.914 Y104.23
G0 X102.03 Y103.84
G0 X102.068 Y103.458
G0 X102.026 Y103.011
G0 X101.9 Y102.609
G0 X101.7 Y102.248
G0 X101.439 Y101.936
G0 X101.122 Y101.68
G0 X100.762 Y101.491
G0 X100.373 Y101.374
G0 X99.961 Y101.333
G0 X99.973 Y99.161
G0 X99.973 Y99.161
; TYPE:WALL-INNER
G1 F1044 X99.973 Y99.161 E60.42081
G1 X100.479 Y99.108 E60.42927
G1 X100.954 Y98.959 E60.43755
G1 X101.386 Y98.721 E60.44576
G1 X101.757 Y98.409 E60.45382
G1 X102.06 Y98.033 E60.46185
G1 X102.287 Y97.604 E60.46992
G1 X102.426 Y97.138 E60.47801
G1 X102.47 Y96.68 E60.48566
G1 X102.422 Y96.152 E60.49447
G1 X102.271 Y95.67 E60.50287
G1 X102.033 Y95.238 E60.51108
G1 X101.721 Y94.867 E60.51914
G1 X101.345 Y94.564 E60.52717
G1 X100.916 Y94.337 E60.53524
G1 X100.45 Y94.198 E60.54333
G1 X99.966 Y94.151 E60.55141
G1 X99.457 Y94.204 E60.55992
G1 X98.983 Y94.354 E60.56819
G1 X98.552 Y94.59 E60.57636
G1 X98.18 Y94.903 E60.58445
G1 X97.877 Y95.279 E60.59248
G1 X97.65 Y95.708 E60.60055
G1 X97.511 Y96.174 E60.60864
G1 X97.464 Y96.66 E60.61676
G1 X97.517 Y97.167 E60.62523
G1 X97.667 Y97.643 E60.63353
G1 X97.903 Y98.073 E60.64169
G1 X98.216 Y98.445 E60.64978
G1 X98.592 Y98.748 E60.65781
G1 X99.021 Y98.975 E60.66588
G1 X99.487 Y99.114 E60.67397
G1 X99.973 Y99.161 E60.68209
G0 F7800 X99.971 Y98.759
G1 F1044 X99.971 Y98.759 E60.68209
G1 X100.397 Y98.715 E60.68921
G1 X100.796 Y98.59 E60.69616
G1 X101.158 Y98.39 E60.70304
G1 X101.47 Y98.128 E60.70981
G1 X101.724 Y97.812 E60.71656
G1 X101.915 Y97.451 E60.72335
G1 X102.032 Y97.061 E60.73012
G1 X102.069 Y96.679 E60.7365
G1 X102.028 Y96.231 E60.74398
G1 X101.902 Y95.828 E60.75101
G1 X101.702 Y95.466 E60.75788
G1 X101.44 Y95.154 E60.76466
G1 X101.124 Y94.9 E60.7714
G1 X100.763 Y94.709 E60.77819
G1 X100.373 Y94.592 E60.78496
G1 X99.967 Y94.553 E60.79175
G1 X99.539 Y94.598 E60.7989
G1 X99.141 Y94.724 E60.80585
G1 X98.779 Y94.921 E60.8127
G1 X98.467 Y95.184 E60.81949
G1 X98.213 Y95.5 E60.82623
G1 X98.022 Y95.861 E60.83302
G1 X97.905 Y96.251 E60.83979
G1 X97.866 Y96.658 E60.84659
G1 X97.911 Y97.086 E60.85375
G1 X98.037 Y97.485 E60.86071
G1 X98.235 Y97.846 E60.86755
G1 X98.497 Y98.158 E60.87433
G1 X98.813 Y98.412 E60.88107
G1 X99.174 Y98.603 E60.88786
G1 X99.564 Y98.72 E60.89463
G1 X99.971 Y98.759 E60.90143
G0 F7800 X99.97 Y98.357
; TYPE:WALL-OUTER
G1 F730.8 X99.97 Y98.357 E60.90143
G1 X100.316 Y98.321 E60.90722
G1 X100.638 Y98.22 E60.91283
G1 X100.931 Y98.059 E60.91839
G1 X101.183 Y97.847 E60.92387
G1 X101.389 Y97.591 E60.92933
G1 X101.543 Y97.299 E60.93482
G1 X101.637 Y96.984 E60.94029
G1 X101.667 Y96.678 E60.9454
G1 X101.633 Y96.31 E60.95155
G1 X101.532 Y95.986 E60.95719
G1 X101.371 Y95.693 E60.96275
G1 X101.159 Y95.441 E60.96823
G1 X100.903 Y95.235 E60.97369
G1 X100.611 Y95.081 E60.97918
G1 X100.296 Y94.987 E60.98465
G1 X99.968 Y94.955 E60.99013
G1 X99.621 Y94.991 E60.99593
G1 X99.299 Y95.093 E61.00155
G1 X99.006 Y95.253 E61.0071
G1 X98.754 Y95.465 E61.01258
G1 X98.548 Y95.721 E61.01804
G1 X98.394 Y96.013 E61.02353
G1 X98.3 Y96.328 E61.029
G1 X98.268 Y96.657 E61.0345
G1 X98.304 Y97.004 E61.0403
G1 X98.406 Y97.327 E61.04593
G1 X98.566 Y97.619 E61.05147
G1 X98.778 Y97.871 E61.05694
G1 X99.034 Y98.077 E61.06241
G1 X99.326 Y98.231 E61.0679
G1 X99.641 Y98.325 E61.07336
G1 X99.97 Y98.357 E61.07886
G0 F7800 X99.942 Y98.655
G0 X99.781 Y98.592
G0 X99.565 Y98.718
G0 X99.175 Y98.602
G0 X98.849 Y98.231
G0 X96.83 Y97.45
G0 X96.83 Y97.45
; TYPE:WALL-INNER
G1 F1044 X96.83 Y97.45 E61.07886
G1 X96.947 Y97.061 E61.08562
G1 X96.984 Y96.68 E61.09198
G1 X96.944 Y96.231 E61.09948
G1 X96.816 Y95.827 E61.10653
G1 X96.617 Y95.466 E61.11338
G1 X96.355 Y95.154 E61.12016
G1 X96.039 Y94.9 E61.1269
G1 X95.678 Y94.709 E61.13369
G1 X95.288 Y94.592 E61.14046
G1 X94.881 Y94.553 E61.14726
G1 X94.453 Y94.598 E61.15442
G1 X94.055 Y94.724 E61.16136
G1 X93.695 Y94.921 E61.16819
G1 X93.382 Y95.184 E61.17499
G1 X93.126 Y95.501 E61.18176
G1 X92.937 Y95.861 E61.18852
G1 X92.82 Y96.25 E61.19528
G1 X92.78 Y96.658 E61.2021
G1 X92.825 Y97.086 E61.20925
G1 X92.951 Y97.485 E61.21621
G1 X93.149 Y97.846 E61.22306
G1 X93.411 Y98.158 E61.22983
G1 X93.727 Y98.412 E61.23658
G1 X94.088 Y98.603 E61.24337
G1 X94.478 Y98.72 E61.25014
G1 X94.885 Y98.759 E61.25694
G1 X95.312 Y98.715 E61.26408
G1 X95.712 Y98.59 E61.27105
G1 X96.074 Y98.39 E61.27792
G1 X96.384 Y98.128 E61.28467
G1 X96.641 Y97.812 E61.29145
G1 X96.83 Y97.45 E61.29824
G0 F7800 X96.667 Y97.548
G0 X96.64 Y97.811
G0 X96.383 Y98.127
G0 X96.073 Y98.388
G0 X95.711 Y98.588
G0 X94.713 Y98.74
G0 X94.856 Y98.655
G0 X94.856 Y98.655
G0 X94.884 Y98.357
; TYPE:WALL-OUTER
G1 F730.8 X94.884 Y98.357 E61.29824
G1 X95.231 Y98.321 E61.30404
G1 X95.554 Y98.22 E61.30967
G1 X95.846 Y98.059 E61.31521
G1 X96.097 Y97.847 E61.32068
G1 X96.305 Y97.591 E61.32616
G1 X96.458 Y97.299 E61.33165
G1 X96.552 Y96.984 E61.33711
G1 X96.582 Y96.678 E61.34223
G1 X96.549 Y96.31 E61.34837
G1 X96.447 Y95.986 E61.35402
G1 X96.286 Y95.693 E61.35958
G1 X96.074 Y95.441 E61.36506
G1 X95.818 Y95.235 E61.37052
G1 X95.526 Y95.081 E61.37601
G1 X95.211 Y94.987 E61.38148
G1 X94.882 Y94.955 E61.38697
G1 X94.535 Y94.991 E61.39278
G1 X94.213 Y95.093 E61.39839
G1 X93.922 Y95.253 E61.40391
G1 X93.669 Y95.465 E61.4094
G1 X93.462 Y95.722 E61.41489
G1 X93.309 Y96.013 E61.42036
G1 X93.214 Y96.328 E61.42583
G1 X93.182 Y96.657 E61.43133
G1 X93.218 Y97.004 E61.43713
G1 X93.32 Y97.327 E61.44276
G1 X93.48 Y97.619 E61.4483
G1 X93.692 Y97.871 E61.45378
G1 X93.948 Y98.077 E61.45924
G1 X94.24 Y98.231 E61.46473
G1 X94.555 Y98.325 E61.4702
G1 X94.884 Y98.357 E61.47569
G0 F7800 X94.856 Y98.655
G0 X94.881 Y101.333
G0 X94.881 Y101.333
; TYPE:WALL-INNER
G1 F1044 X94.881 Y101.333 E61.47569
G1 X94.453 Y101.378 E61.48285
G1 X94.055 Y101.504 E61.48979
G1 X93.695 Y101.701 E61.49662
G1 X93.382 Y101.964 E61.50342
G1 X93.126 Y102.281 E61.51019
G1 X92.937 Y102.641 E61.51696
G1 X92.82 Y103.03 E61.52371
G1 X92.78 Y103.438 E61.53053
G1 X92.825 Y103.866 E61.53769
G1 X92.951 Y104.265 E61.54464
G1 X93.149 Y104.626 E61.55149
G1 X93.411 Y104.937 E61.55825
G1 X93.727 Y105.194 E61.56503
G1 X94.089 Y105.383 E61.57182
G1 X94.478 Y105.5 E61.57857
G1 X94.885 Y105.539 E61.58537
G1 X95.312 Y105.495 E61.59251
G1 X95.712 Y105.37 E61.59948
G1 X96.074 Y105.17 E61.60636
G1 X96.384 Y104.908 E61.61311
G1 X96.641 Y104.592 E61.61988
G1 X96.83 Y104.23 E61.62667
G1 X96.947 Y103.841 E61.63343
G1 X96.984 Y103.46 E61.63979
G1 X96.944 Y103.011 E61.64729
G1 X96.816 Y102.607 E61.65434
G1 X96.617 Y102.247 E61.66118
G1 X96.355 Y101.935 E61.66795
G1 X96.038 Y101.679 E61.67473
G1 X95.678 Y101.49 E61.68149
G1 X95.289 Y101.373 E61.68825
G1 X94.881 Y101.333 E61.69507
G0 F7800 X94.88 Y101.333
G0 X95.288 Y101.374
G0 X95.677 Y101.491
G0 X96.037 Y101.68
G0 X96.354 Y101.936
G0 X96.615 Y102.248
G0 X96.814 Y102.607
G0 X96.943 Y103.011
G0 X96.983 Y103.46
G0 X96.945 Y103.84
G0 X96.829 Y104.23
G0 X96.64 Y104.591
G0 X96.383 Y104.907
G0 X96.073 Y105.168
G0 X95.711 Y105.368
G0 X95.311 Y105.493
G0 X94.854 Y105.54
G0 X94.856 Y105.435
G0 X94.856 Y105.435
G0 X94.884 Y105.137
; TYPE:WALL-OUTER
G1 F730.8 X94.884 Y105.137 E61.69507
G1 X95.231 Y105.101 E61.70087
G1 X95.554 Y105 E61.7065
G1 X95.846 Y104.839 E61.71204
G1 X96.097 Y104.627 E61.7175
G1 X96.305 Y104.371 E61.72299
G1 X96.458 Y104.079 E61.72847
G1 X96.552 Y103.764 E61.73394
G1 X96.582 Y103.458 E61.73905
G1 X96.549 Y103.09 E61.7452
G1 X96.447 Y102.766 E61.75085
G1 X96.286 Y102.474 E61.75639
G1 X96.074 Y102.222 E61.76187
G1 X95.817 Y102.015 E61.76735
G1 X95.526 Y101.862 E61.77282
G1 X95.211 Y101.767 E61.77829
G1 X94.882 Y101.735 E61.78379
