; generated by Slic3r 1.2.9 on 2016-12-11 at 01:34:29

; external perimeters extrusion width = 0.40mm
; perimeters extrusion width = 0.48mm
; infill extrusion width = 0.48mm
; solid infill extrusion width = 0.48mm
; top infill extrusion width = 0.48mm

M107
M190 S70 ; set bed temperature
M104 S210 ; set temperature
G28 ; home all axes
G1 Z5 F5000 ; lift nozzle

M109 S210 ; wait for temperature to be reached
G21 ; set units to millimeters
G90 ; use absolute coordinates
M82 ; use absolute distances for extrusion
G92 E0
G1 Z0.400 F7800.000
G1 E-2.00000 F2400.00000
G92 E0
G1 X74.428 Y80.908 F7800.000
G1 E2.00000 F2400.00000
G1 X76.673 Y78.843 E2.46374 F1800.000
G1 X78.214 Y78.143 E2.72099
G1 X79.922 Y77.725 E2.98833
G1 X92.780 Y75.913 E4.96242
G1 X94.000 Y75.828 E5.14831
G1 X106.917 Y75.829 E7.11200
G1 X108.985 Y76.099 E7.42900 F1800.000
G1 X111.185 Y76.962 E7.78834
G1 X111.465 Y77.124 E7.83751
G1 X113.496 Y78.807 E8.23841
G1 X114.932 Y81.018 E8.63930
G1 X115.708 Y84.620 E9.19946
G1 X115.708 Y107.340 E12.65348
G1 X115.311 Y109.947 E13.05437
G1 X114.239 Y112.191 E13.43246
G1 X112.463 Y114.140 E13.83336
G1 X110.860 Y115.170 E14.12296
G1 X107.610 Y116.100 E14.63693
G1 X106.380 Y116.172 E14.82420
G1 X94.000 Y116.172 E16.70628
G1 X92.753 Y116.083 E16.89634
G1 X79.973 Y114.241 E18.85930
G1 X78.935 Y114.029 E19.02040
G1 X76.673 Y113.117 E19.39110
G1 X74.612 Y111.472 E19.79199
G1 X73.135 Y109.288 E20.19289
G1 X72.291 Y105.540 E20.77689
G1 X72.291 Y86.420 E23.68361
G1 X72.689 Y83.813 E24.08451
G1 X73.846 Y81.443 E24.48541
G1 X74.384 Y80.949 E24.59654
G1 X74.988 Y81.538 F7800.000
G1 X77.135 Y79.631 E25.03308 F1800.000
G1 X78.509 Y79.008 E25.26246
G1 X80.049 Y78.630 E25.50355
G1 X92.908 Y76.818 E27.47764
G1 X94.000 Y76.742 E27.64409
G1 X106.898 Y76.743 E29.60497
G1 X108.769 Y76.987 E29.89171 F1800.000
G1 X110.739 Y77.760 E30.21348
G1 X110.995 Y77.908 E30.25835
G1 X112.902 Y79.516 E30.63758
G1 X114.206 Y81.642 E31.01681
G1 X114.794 Y84.620 E31.47824
G1 X114.794 Y107.340 E34.93225
G1 X114.397 Y109.803 E35.31148
G1 X113.478 Y111.684 E35.62979
G1 X111.782 Y113.513 E36.00903
G1 X110.444 Y114.357 E36.24950
G1 X107.533 Y115.189 E36.70974
G1 X106.380 Y115.258 E36.88534
G1 X94.000 Y115.258 E38.76741
G1 X92.883 Y115.178 E38.93761
G1 X80.103 Y113.336 E40.90056
G1 X79.155 Y113.142 E41.04777
G1 X77.129 Y112.325 E41.37981
G1 X75.193 Y110.752 E41.75904
G1 X73.850 Y108.650 E42.13827
G1 X73.205 Y105.540 E42.62113
G1 X73.205 Y86.420 E45.52785
G1 X73.603 Y83.957 E45.90708
G1 X74.755 Y81.745 E46.28631
G1 X74.943 Y81.578 E46.32456
G1 X75.662 Y82.066 F7800.000
G1 X77.591 Y80.424 E46.70972 F1800.000
G1 X78.805 Y79.873 E46.91231
G1 X80.177 Y79.535 E47.12714
G1 X93.035 Y77.723 E49.10124
G1 X94.000 Y77.656 E49.24825
G1 X106.880 Y77.657 E51.20632
G1 X108.553 Y77.875 E51.46280 F1800.000
G1 X110.293 Y78.558 E51.74699
G1 X110.524 Y78.692 E51.78755
G1 X112.300 Y80.221 E52.14380
G1 X113.463 Y82.255 E52.50005
G1 X113.880 Y84.620 E52.86514
G1 X113.880 Y107.340 E56.31915
G1 X113.483 Y109.649 E56.67540
G1 X112.717 Y111.177 E56.93520
G1 X110.120 Y113.495 E57.46438
G1 X110.027 Y113.543 E57.48031
G1 X107.456 Y114.278 E57.88680
G1 X106.380 Y114.344 E58.05074
G1 X94.000 Y114.344 E59.93282
G1 X93.014 Y114.273 E60.08313
G1 X80.234 Y112.432 E62.04609
G1 X79.556 Y112.299 E62.15105
G1 X79.375 Y112.254 E62.17942
G1 X77.585 Y111.533 E62.47282
G1 X75.782 Y110.037 E62.82907
G1 X74.581 Y108.024 E63.18532
G1 X74.120 Y105.540 E63.56940
G1 X74.120 Y86.420 E66.47613
G1 X74.517 Y84.111 E66.83238
G1 X75.633 Y82.119 E67.17950
G1 E65.17950 F2400.00000
G92 E0
G1 X96.802 Y104.518 F7800.000
G1 E2.00000 F2400.00000
G1 X94.370 Y103.302 E2.41337 F1800.000
G1 X83.362 Y103.302 E4.08680
G1 X83.362 Y88.698 E6.30688
G1 X94.874 Y88.698 E8.05703
G1 X96.802 Y86.771 E8.47138
G1 X96.802 Y104.458 E11.16019
G1 X95.414 Y104.846 F7800.000
G1 X94.154 Y104.216 E11.37440 F1800.000
G1 X82.448 Y104.216 E13.15399
G1 X82.448 Y87.784 E15.65203
G1 X94.496 Y87.784 E17.48359
G1 X95.414 Y86.866 E17.68104
G1 X95.414 Y85.984 E17.81504
G1 X97.716 Y85.985 E18.16496
G1 X97.716 Y106.016 E21.21020
G1 X95.414 Y106.016 E21.56011
G1 X95.414 Y104.906 E21.72883
G1 X94.500 Y105.411 F7800.000
G1 X93.938 Y105.130 E21.82435 F1800.000
G1 X81.890 Y105.130 E23.65591
G1 X81.858 Y105.112 E23.66148
G1 X81.534 Y105.100 E23.71085
G1 X81.534 Y86.870 E26.48224
G1 X94.117 Y86.870 E28.39522
G1 X94.500 Y86.487 E28.47754
G1 X94.500 Y85.070 E28.69297
G1 X99.719 Y85.071 E29.48642
G1 X98.630 Y85.951 E29.69933
G1 X98.630 Y105.849 E32.72430
G1 X99.228 Y106.930 E32.91209
G1 X94.500 Y106.930 E33.63083
G1 X94.500 Y105.471 E33.85263
G1 X94.622 Y105.030 F7800.000
G1 E31.85263 F2400.00000
G92 E0
G1 X100.177 Y85.344 F7800.000
G1 E2.00000 F2400.00000
G1 X106.966 Y85.345 E3.03216 F1800.000
G1 E1.03216 F2400.00000
G92 E0
G1 X106.965 Y106.656 F7800.000
G1 E2.00000 F2400.00000
G1 X99.648 Y106.656 E3.11235 F1800.000
G1 X84.353 Y102.739 F7800.000
G1 X83.925 Y102.311 E3.20883 F1800.000
G1 X83.925 Y100.955 E3.42503
G1 X85.709 Y102.739 E3.82728
G1 X87.065 Y102.739 E4.04349
G1 X83.925 Y99.599 E4.75149
G1 X83.925 Y98.243 E4.96770
G1 X88.421 Y102.739 E5.98147
G1 X89.777 Y102.739 E6.19768
G1 X83.925 Y96.887 E7.51722
G1 X83.925 Y95.531 E7.73343
G1 X91.133 Y102.739 E9.35874
G1 X92.489 Y102.739 E9.57495
G1 X83.925 Y94.175 E11.50602
G1 X83.925 Y92.819 E11.72223
G1 X93.845 Y102.739 E13.95906
G1 X95.659 Y103.197 E14.25747
G1 X83.925 Y91.463 E16.90346
G1 X83.925 Y90.107 E17.11967
G1 X96.239 Y102.420 E19.89630
G1 X96.239 Y101.064 E20.11251
G1 X84.435 Y89.261 E22.77408
G1 X85.791 Y89.261 E22.99029
G1 X96.239 Y99.709 E25.34609
G1 X96.239 Y98.353 E25.56229
G1 X87.147 Y89.261 E27.61233
G1 X88.503 Y89.261 E27.82854
G1 X96.239 Y96.997 E29.57281
G1 X96.239 Y95.641 E29.78902
G1 X89.859 Y89.261 E31.22752
G1 X91.215 Y89.261 E31.44373
G1 X96.239 Y94.285 E32.57647
G1 X96.239 Y92.929 E32.79268
G1 X92.571 Y89.261 E33.61965
G1 X93.927 Y89.261 E33.83586
G1 X96.239 Y91.573 E34.35706
G1 X96.239 Y90.217 E34.57327
G1 X95.139 Y89.117 E34.82132
G1 X95.817 Y88.439 E34.97420
G1 X96.239 Y88.861 E35.06936
M104 S200 ; set temperature
M140 S65 ; wait for bed temperature to be reached
G1 Z0.700 F7800.000
G1 X94.996 Y105.104 F7800.000
G1 X94.055 Y104.634 E35.12432 F3600.000
G1 X81.057 Y104.634 E35.80343
G1 X81.057 Y87.366 E36.70558
G1 X94.323 Y87.366 E37.39866
G1 X94.996 Y86.693 E37.44842
G1 X94.996 Y85.566 E37.50727
G1 X98.134 Y85.567 E37.67120
G1 X98.134 Y105.977 E38.73753
G1 X98.386 Y106.434 E38.76480
G1 X94.996 Y106.434 E38.94193
G1 X94.996 Y105.164 E39.00825
G1 X94.577 Y105.363 F7800.000
G1 X93.956 Y105.053 E39.04453 F3600.000
G1 X80.834 Y105.053 E39.73011
G1 X80.638 Y105.053 E39.74035 F3600.000
G1 X80.638 Y86.947 E40.68627
G1 X80.834 Y86.947 E40.69651
G1 X94.149 Y86.947 E41.39217 F3600.000
G1 X94.577 Y86.519 E41.42380
G1 X94.577 Y85.147 E41.49547
G1 X107.166 Y85.150 E42.15317
G1 X107.360 Y85.150 E42.16328 F3600.000
G1 X107.359 Y85.531 E42.18319
G1 X107.166 Y85.531 E42.19327
G1 X99.016 Y85.540 E42.61909 F3600.000
G1 X98.553 Y85.914 E42.65018
G1 X98.553 Y105.869 E43.69271
G1 X98.880 Y106.460 E43.72799
G1 X107.166 Y106.460 E44.16091
G1 X107.359 Y106.460 E44.17102 F3600.000
G1 X107.359 Y106.853 E44.19154
G1 X107.166 Y106.853 E44.20162
G1 X94.577 Y106.853 E44.85931 F3600.000
G1 X94.577 Y105.423 E44.93400
G1 X94.200 Y105.596 F7800.000
G1 X93.867 Y105.430 E44.94957 F1800.000
G1 X80.834 Y105.430 E45.49516
G1 X80.550 Y105.430 E45.50996 F3600.000
G1 X80.506 Y105.406 E45.51259
G1 X80.260 Y105.387 E45.52546
G1 X80.260 Y86.570 E46.50853
G1 X80.834 Y86.570 E46.53849
G1 X93.993 Y86.570 E47.08933 F1800.000
G1 X94.200 Y86.363 E47.10159
G1 X94.200 Y84.770 E47.16827
G1 X107.166 Y84.772 E47.71102
G1 X107.737 Y84.772 E47.74088 F3600.000
G1 X107.736 Y85.907 E47.80018
G1 X107.166 Y85.908 E47.82994
G1 X99.149 Y85.917 E48.16553 F1800.000
G1 X98.930 Y86.094 E48.17732
G1 X98.930 Y105.772 E49.00101
G1 X99.102 Y106.083 E49.01590
G1 X107.166 Y106.083 E49.35345
G1 X107.737 Y106.089 E49.38331 F3600.000
G1 X107.736 Y107.195 E49.44111
G1 X107.603 Y107.208 E49.44807
G1 X107.570 Y107.230 E49.45016
G1 X107.166 Y107.230 E49.47125
G1 X94.200 Y107.230 E50.01401 F1800.000
G1 X94.200 Y105.656 E50.07988
G1 X94.313 Y105.242 F7800.000
G1 X97.674 Y106.187 F7800.000
G1 X97.887 Y105.974 E50.09577 F1200.000
G1 X97.887 Y105.375 E50.12738
G1 X97.075 Y106.187 E50.18799
G1 X96.476 Y106.187 E50.21960
G1 X97.887 Y104.776 E50.32491
G1 X97.887 Y104.178 E50.35653
G1 X95.878 Y106.187 E50.50655
G1 X95.279 Y106.187 E50.53816
G1 X97.887 Y103.579 E50.73289
G1 X97.887 Y102.980 E50.76451
G1 X95.243 Y105.624 E50.96191
G1 X95.243 Y105.025 E50.99352
G1 X97.887 Y102.382 E51.19092
G1 X97.887 Y101.783 E51.22253
G1 X94.870 Y104.799 E51.44778
G1 X94.471 Y104.600 E51.47134
G1 X97.887 Y101.184 E51.72639
G1 X97.887 Y100.585 E51.75800
G1 X94.072 Y104.400 E52.04286
G1 X93.487 Y104.387 E52.07378
G1 X97.887 Y99.987 E52.40235
G1 X97.887 Y99.388 E52.43397
G1 X92.888 Y104.387 E52.80725
G1 X92.289 Y104.387 E52.83887
G1 X97.887 Y98.789 E53.25686
G1 X97.887 Y98.191 E53.28848
G1 X91.691 Y104.387 E53.75118
G1 X91.092 Y104.387 E53.78279
G1 X97.887 Y97.592 E54.29021
G1 X97.887 Y96.993 E54.32182
G1 X90.493 Y104.387 E54.87395
G1 X89.894 Y104.387 E54.90556
G1 X97.887 Y96.394 E55.50239
G1 X97.887 Y95.796 E55.53401
G1 X89.296 Y104.387 E56.17555
G1 X88.697 Y104.387 E56.20717
G1 X97.887 Y95.197 E56.89342
G1 X97.887 Y94.598 E56.92504
G1 X88.098 Y104.387 E57.65600
G1 X87.499 Y104.387 E57.68761
G1 X97.887 Y93.999 E58.46329
G1 X97.887 Y93.401 E58.49490
G1 X86.901 Y104.387 E59.31528
G1 X86.302 Y104.387 E59.34690
G1 X97.887 Y92.802 E60.21199
G1 X97.887 Y92.203 E60.24361
G1 X85.703 Y104.387 E61.15341
G1 X85.105 Y104.387 E61.18502
G1 X97.887 Y91.605 E62.13954
G1 X97.887 Y91.006 E62.17115
G1 X84.506 Y104.387 E63.17037
G1 X83.907 Y104.387 E63.20199
G1 X97.887 Y90.407 E64.24592
G1 X97.887 Y89.808 E64.27754
G1 X83.308 Y104.387 E65.36618
G1 X82.710 Y104.387 E65.39779
G1 X97.887 Y89.210 E66.53114
G1 X97.887 Y88.611 E66.56276
G1 X82.111 Y104.387 E67.74082
G1 X81.512 Y104.387 E67.77244
G1 X97.887 Y88.012 E68.99521
G1 X97.887 Y87.414 E69.02682
G1 X81.304 Y103.996 E70.26516
G1 X81.304 Y103.398 E70.29678
G1 X97.887 Y86.815 E71.53512
G1 X97.887 Y86.216 E71.56673
G1 X81.304 Y102.799 E72.80508
G1 X81.304 Y102.200 E72.83669
G1 X97.690 Y85.814 E74.06036
G1 X97.092 Y85.814 E74.09197
G1 X81.304 Y101.602 E75.27093
G1 X81.304 Y101.003 E75.30254
G1 X96.493 Y85.814 E76.43681
G1 X95.894 Y85.814 E76.46841
G1 X95.243 Y86.465 E76.51703
G1 X94.095 Y87.613 F7800.000
G1 X81.304 Y100.404 E77.47220 F1200.000
G1 X81.304 Y99.805 E77.50381
G1 X93.496 Y87.613 E78.41427
G1 X92.897 Y87.613 E78.44588
G1 X81.304 Y99.207 E79.31163
G1 X81.304 Y98.608 E79.34324
G1 X92.298 Y87.613 E80.16428
G1 X91.700 Y87.613 E80.19589
G1 X81.304 Y98.009 E80.97222
G1 X81.304 Y97.411 E81.00383
G1 X91.101 Y87.613 E81.73545
G1 X90.502 Y87.613 E81.76707
G1 X81.304 Y96.812 E82.45397
G1 X81.304 Y96.213 E82.48559
G1 X89.904 Y87.613 E83.12778
G1 X89.305 Y87.613 E83.15940
G1 X81.304 Y95.614 E83.75689
G1 X81.304 Y95.016 E83.78850
G1 X88.706 Y87.613 E84.34128
G1 X88.107 Y87.613 E84.37289
G1 X81.304 Y94.417 E84.88096
G1 X81.304 Y93.818 E84.91257
G1 X87.509 Y87.613 E85.37593
G1 X86.910 Y87.613 E85.40755
G1 X81.304 Y93.219 E85.82619
G1 X81.304 Y92.621 E85.85781
G1 X86.311 Y87.613 E86.23174
G1 X85.713 Y87.613 E86.26336
G1 X81.304 Y92.022 E86.59259
G1 X81.304 Y91.423 E86.62420
G1 X85.114 Y87.613 E86.90872
G1 X84.515 Y87.613 E86.94033
G1 X81.304 Y90.825 E87.18014
G1 X81.304 Y90.226 E87.21175
G1 X83.916 Y87.613 E87.40685
G1 X83.318 Y87.613 E87.43847
G1 X81.304 Y89.627 E87.58885
G1 X81.304 Y89.028 E87.62047
G1 X82.719 Y87.613 E87.72615
G1 X82.120 Y87.613 E87.75776
G1 X81.304 Y88.430 E87.81873
G1 X81.304 Y87.831 E87.85034
G1 X81.521 Y87.613 E87.86660
G1 Z1.000 F7800.000
G1 X94.996 Y105.104 F7800.000
G1 X94.055 Y104.634 E87.92157 F3600.000
G1 X80.402 Y104.634 E88.63489
G1 X80.402 Y87.366 E89.53704
G1 X94.323 Y87.366 E90.26434
G1 X94.996 Y86.693 E90.31411
G1 X94.996 Y85.566 E90.37296
G1 X98.134 Y85.566 E90.53689
G1 X98.134 Y105.977 E91.60326
G1 X98.386 Y106.434 E91.63053
G1 X94.996 Y106.434 E91.80766
G1 X94.996 Y105.164 E91.87398
G1 X94.577 Y105.363 F7800.000
G1 X93.956 Y105.053 E91.91026 F3600.000
G1 X79.983 Y105.053 E92.64030
G1 X79.983 Y86.947 E93.58622
G1 X94.149 Y86.947 E94.32634
G1 X94.577 Y86.519 E94.35797
G1 X94.577 Y85.147 E94.42964
G1 X107.930 Y85.147 E95.12725
G1 X107.930 Y85.540 E95.14777
G1 X99.016 Y85.540 E95.61348
G1 X98.553 Y85.914 E95.64459
G1 X98.553 Y105.869 E96.68712
G1 X98.880 Y106.460 E96.72240
G1 X107.930 Y106.460 E97.19523
G1 X107.930 Y106.853 E97.21575
G1 X94.577 Y106.853 E97.91336
G1 X94.577 Y105.423 E97.98804
G1 X94.200 Y105.596 F7800.000
G1 X93.867 Y105.430 E98.00361 F1800.000
G1 X79.860 Y105.430 E98.58994
G1 X79.606 Y105.430 E98.60326 F3600.000
G1 X79.606 Y86.570 E99.58860
G1 X79.860 Y86.570 E99.60192
G1 X93.993 Y86.570 E100.19351 F1800.000
G1 X94.200 Y86.363 E100.20577
G1 X94.200 Y84.770 E100.27245
G1 X108.138 Y84.770 E100.85588
G1 X108.307 Y84.770 E100.86473 F3600.000
G1 X108.307 Y85.917 E100.92467
G1 X108.138 Y85.917 E100.93352
G1 X99.149 Y85.917 E101.30978 F1800.000
G1 X98.930 Y86.094 E101.32158
G1 X98.930 Y105.772 E102.14527
G1 X99.102 Y106.083 E102.16016
G1 X108.138 Y106.083 E102.53839
G1 X108.307 Y106.083 E102.54724 F3600.000
G1 X108.307 Y107.230 E102.60718
G1 X108.138 Y107.230 E102.61603
G1 X94.200 Y107.230 E103.19946 F1800.000
G1 X94.200 Y105.656 E103.26534
G1 X94.313 Y105.242 F7800.000
G1 X95.243 Y105.572 F7800.000
G1 X95.858 Y106.187 E103.31127 F1200.000
G1 E101.31127 F2400.00000
G92 E0
G1 X80.867 Y104.387 F7800.000
G1 E2.00000 F2400.00000
G1 X80.649 Y104.169 E2.01628 F1200.000
G1 X80.649 Y103.569 E2.04799
G1 X81.466 Y104.387 E2.10911
G1 X82.066 Y104.387 E2.14082
G1 X80.649 Y102.970 E2.24678
G1 X80.649 Y102.370 E2.27848
G1 X82.665 Y104.387 E2.42928
G1 X83.265 Y104.387 E2.46099
G1 X80.649 Y101.771 E2.65663
G1 X80.649 Y101.171 E2.68834
G1 X83.864 Y104.387 E2.92882
G1 X84.464 Y104.387 E2.96052
G1 X80.649 Y100.571 E3.24585
G1 X80.649 Y99.972 E3.27755
G1 X85.064 Y104.387 E3.60771
G1 X85.663 Y104.387 E3.63942
G1 X80.649 Y99.372 E4.01442
G1 X80.649 Y98.773 E4.04613
G1 X86.263 Y104.387 E4.46597
G1 X86.862 Y104.387 E4.49767
G1 X80.649 Y98.173 E4.96235
G1 X80.649 Y97.573 E4.99406
G1 X87.462 Y104.387 E5.50358
G1 X88.062 Y104.387 E5.53529
G1 X80.649 Y96.974 E6.08965
G1 X80.649 Y96.374 E6.12135
G1 X88.661 Y104.387 E6.72055
G1 X89.261 Y104.387 E6.75226
G1 X80.649 Y95.775 E7.39630
G1 X80.649 Y95.175 E7.42801
G1 X89.860 Y104.387 E8.11689
G1 X90.460 Y104.387 E8.14859
G1 X80.649 Y94.576 E8.88231
G1 X80.649 Y93.976 E8.91402
G1 X91.060 Y104.387 E9.69258
G1 X91.659 Y104.387 E9.72429
G1 X80.649 Y93.376 E10.54769
G1 X80.649 Y92.777 E10.57939
G1 X92.259 Y104.387 E11.44763
G1 X92.858 Y104.387 E11.47934
G1 X80.649 Y92.177 E12.39242
G1 X80.649 Y91.578 E12.42413
G1 X93.458 Y104.387 E13.38205
G1 X94.058 Y104.387 E13.41375
G1 X80.649 Y90.978 E14.41651
G1 X80.649 Y90.378 E14.44822
G1 X96.457 Y106.187 E15.63043
G1 X97.057 Y106.187 E15.66214
G1 X80.649 Y89.779 E16.88919
G1 X80.649 Y89.179 E16.92090
G1 X97.656 Y106.187 E18.19279
G1 X97.887 Y105.818 E18.21580
G1 X80.649 Y88.580 E19.50492
G1 X80.649 Y87.980 E19.53663
G1 X97.887 Y105.218 E20.82575
G1 X97.887 Y104.618 E20.85746
G1 X80.882 Y87.613 E22.12917
G1 X81.481 Y87.613 E22.16087
G1 X97.887 Y104.019 E23.38774
G1 X97.887 Y103.419 E23.41945
G1 X82.081 Y87.613 E24.60148
G1 X82.680 Y87.613 E24.63319
G1 X97.887 Y102.820 E25.77038
G1 X97.887 Y102.220 E25.80208
G1 X83.280 Y87.613 E26.89443
G1 X83.880 Y87.613 E26.92614
G1 X97.887 Y101.620 E27.97365
G1 X97.887 Y101.021 E28.00535
G1 X84.479 Y87.613 E29.00802
G1 X85.079 Y87.613 E29.03973
G1 X97.887 Y100.421 E29.99756
G1 X97.887 Y99.822 E30.02927
G1 X85.678 Y87.613 E30.94226
G1 X86.278 Y87.613 E30.97397
G1 X97.887 Y99.222 E31.84212
G1 X97.887 Y98.622 E31.87382
G1 X86.878 Y87.613 E32.69713
G1 X87.477 Y87.613 E32.72884
G1 X97.887 Y98.023 E33.50731
G1 X97.887 Y97.423 E33.53902
G1 X88.077 Y87.613 E34.27265
G1 X88.676 Y87.613 E34.30435
G1 X97.887 Y96.824 E34.99314
