; generated by Slic3r 1.2.9 on 2016-12-07 at 21:24:47

; external perimeters extrusion width = 0.40mm
; perimeters extrusion width = 0.67mm
; infill extrusion width = 0.67mm
; solid infill extrusion width = 0.67mm
; top infill extrusion width = 0.67mm

M107
M190 S110 ; set bed temperature
M104 S215 ; set temperature
G28 ; home all axes
G1 Z5 F5000 ; lift nozzle

M109 S215 ; wait for temperature to be reached
G21 ; set units to millimeters
G90 ; use absolute coordinates
M82 ; use absolute distances for extrusion
G92 E0
G1 Z0.400 F7800.000
G1 E-2.00000 F2400.00000
G92 E0
G1 X50.119 Y81.147 F7800.000
G1 E2.00000 F2400.00000
G1 X50.903 Y80.676 E2.10868 F1800.000
G1 X51.703 Y80.230 E2.21738
G1 X53.144 Y79.509 E2.40880
G1 X53.980 Y79.136 E2.51751
G1 X54.828 Y78.792 E2.62616
G1 X55.686 Y78.474 E2.73486
G1 X56.555 Y78.185 E2.84357
G1 X57.432 Y77.925 E2.95223
G1 X58.317 Y77.693 E3.06092
G1 X59.209 Y77.490 E3.16960
G1 X60.108 Y77.316 E3.27832
G1 X61.012 Y77.172 E3.38703
G1 X61.920 Y77.057 E3.49570
G1 X62.831 Y76.971 E3.60436
G1 X63.744 Y76.916 E3.71308
G1 X64.823 Y76.888 E3.84121
G1 X130.177 Y76.888 E11.60302
G1 X131.256 Y76.916 E11.73116 F1800.000
G1 X132.863 Y77.034 E11.92259
G1 X133.988 Y77.172 E12.05717
G1 X135.577 Y77.446 E12.24863
G1 X136.683 Y77.693 E12.38327
G1 X138.237 Y78.121 E12.57468
G1 X139.314 Y78.474 E12.70930
G1 X140.819 Y79.052 E12.90072
G1 X141.856 Y79.509 E13.03533
G1 X143.297 Y80.230 E13.22677
G1 X144.285 Y80.786 E13.36142
G1 X145.649 Y81.644 E13.55281
G1 X146.578 Y82.294 E13.68747
G1 X147.852 Y83.281 E13.87887
G1 X148.713 Y84.019 E14.01352
G1 X149.885 Y85.125 E14.20492
G1 X150.670 Y85.943 E14.33952
G1 X151.728 Y87.159 E14.53095
G1 X152.430 Y88.049 E14.66561
G1 X152.970 Y88.788 E14.77431
G1 X153.861 Y90.131 E14.96570
G1 X154.441 Y91.105 E15.10034
G1 X155.197 Y92.528 E15.29175
G1 X155.679 Y93.554 E15.42635
G1 X156.293 Y95.044 E15.61779
G1 X156.673 Y96.112 E15.75237
G1 X157.139 Y97.655 E15.94384
G1 X157.413 Y98.755 E16.07849
G1 X157.726 Y100.336 E16.26988
G1 X157.891 Y101.458 E16.40452
G1 X158.048 Y103.062 E16.59595
G1 X158.104 Y104.192 E16.73034
G1 X158.104 Y105.806 E16.92199
G1 X158.048 Y106.937 E17.05653
G1 X157.891 Y108.542 E17.24804
G1 X157.726 Y109.663 E17.38264
G1 X157.413 Y111.245 E17.57408
G1 X157.139 Y112.345 E17.70873
G1 X156.673 Y113.888 E17.90014
G1 X156.293 Y114.956 E18.03479
G1 X155.680 Y116.446 E18.22618
G1 X155.197 Y117.472 E18.36081
G1 X154.441 Y118.895 E18.55223
G1 X153.862 Y119.868 E18.68674
G1 X152.970 Y121.212 E18.87828
G1 X152.298 Y122.124 E19.01276
G1 X151.279 Y123.374 E19.20432
G1 X150.522 Y124.216 E19.33884
G1 X149.386 Y125.361 E19.53036
G1 X148.550 Y126.126 E19.66500
G1 X147.309 Y127.154 E19.85641
G1 X146.401 Y127.834 E19.99105
G1 X145.066 Y128.736 E20.18246
G1 X144.096 Y129.324 E20.31710
G1 X142.679 Y130.092 E20.50851
G1 X141.658 Y130.582 E20.64304
G1 X140.801 Y130.955 E20.75406
G1 X139.314 Y131.526 E20.94324
G1 X138.237 Y131.879 E21.07780
G1 X136.683 Y132.307 E21.26929
G1 X135.577 Y132.554 E21.40393
G1 X133.988 Y132.828 E21.59534
G1 X132.863 Y132.966 E21.72998
G1 X131.256 Y133.084 E21.92139
G1 X130.177 Y133.112 E22.04954
G1 X64.823 Y133.112 E29.81135
G1 X63.744 Y133.084 E29.93950
G1 X62.831 Y133.029 E30.04819
G1 X61.920 Y132.943 E30.15688
G1 X61.012 Y132.828 E30.26557
G1 X60.108 Y132.684 E30.37426
G1 X59.209 Y132.510 E30.48296
G1 X58.317 Y132.307 E30.59163
G1 X57.432 Y132.075 E30.70033
G1 X56.554 Y131.815 E30.80902
G1 X55.686 Y131.526 E30.91770
G1 X54.828 Y131.208 E31.02640
G1 X53.980 Y130.864 E31.13508
G1 X53.144 Y130.491 E31.24377
G1 X52.321 Y130.092 E31.35247
G1 X51.511 Y129.666 E31.46115
G1 X50.715 Y129.214 E31.56985
G1 X49.934 Y128.736 E31.67853
G1 X48.599 Y127.834 E31.86998
G1 X47.864 Y127.288 E31.97863
G1 X47.147 Y126.718 E32.08743
G1 X46.450 Y126.126 E32.19605
G1 X45.772 Y125.511 E32.30471
G1 X45.115 Y124.875 E32.41339
G1 X44.479 Y124.217 E32.52208
G1 X43.864 Y123.538 E32.63085
G1 X43.272 Y122.841 E32.73949
G1 X42.703 Y122.125 E32.84814
G1 X42.157 Y121.390 E32.95684
G1 X41.636 Y120.638 E33.06552
G1 X41.139 Y119.869 E33.17422
G1 X40.668 Y119.085 E33.28292
G1 X40.222 Y118.285 E33.39159
G1 X39.803 Y117.472 E33.50028
G1 X39.410 Y116.645 E33.60898
G1 X39.045 Y115.806 E33.71767
G1 X38.707 Y114.956 E33.82635
G1 X38.396 Y114.094 E33.93510
G1 X38.121 Y113.243 E34.04139
G1 X37.805 Y112.133 E34.17837
G1 X37.587 Y111.245 E34.28706
G1 X37.398 Y110.349 E34.39575
G1 X37.239 Y109.448 E34.50444
G1 X37.109 Y108.542 E34.61313
G1 X37.008 Y107.632 E34.72182
G1 X36.937 Y106.720 E34.83051
G1 X36.896 Y105.806 E34.93920
G1 X36.885 Y104.891 E35.04788
G1 X36.903 Y103.976 E35.15658
G1 X36.952 Y103.062 E35.26526
G1 X37.030 Y102.150 E35.37396
G1 X37.137 Y101.241 E35.48264
G1 X37.274 Y100.336 E35.59134
G1 X37.441 Y99.436 E35.70003
G1 X37.637 Y98.542 E35.80871
G1 X37.861 Y97.655 E35.91740
G1 X38.115 Y96.776 E36.02609
G1 X38.397 Y95.905 E36.13478
G1 X38.962 Y94.396 E36.32622
G1 X39.320 Y93.554 E36.43489
G1 X39.707 Y92.724 E36.54357
G1 X40.120 Y91.908 E36.65228
G1 X40.559 Y91.105 E36.76095
G1 X41.024 Y90.317 E36.86963
G1 X41.515 Y89.544 E36.97832
G1 X42.030 Y88.788 E37.08703
G1 X42.570 Y88.049 E37.19570
G1 X43.272 Y87.159 E37.33035
G1 X43.864 Y86.461 E37.43904
G1 X44.479 Y85.783 E37.54773
G1 X45.115 Y85.125 E37.65641
G1 X45.773 Y84.489 E37.76510
G1 X46.450 Y83.874 E37.87380
G1 X47.148 Y83.281 E37.98248
G1 X47.864 Y82.712 E38.09118
G1 X48.599 Y82.166 E38.19986
G1 X49.351 Y81.644 E38.30855
G1 X50.068 Y81.179 E38.41012
G1 E36.41012 F2400.00000
G92 E0
G1 X73.199 Y122.760 F7800.000
G1 E2.00000 F2400.00000
G1 X72.288 Y123.161 E2.11824 F1800.000
G1 X71.721 Y123.379 E2.19037
G1 X70.482 Y123.785 E2.34520
G1 X69.897 Y123.947 E2.41733
G1 X68.624 Y124.231 E2.57217
G1 X68.026 Y124.334 E2.64430
G1 X66.746 Y124.491 E2.79739
G1 X65.479 Y124.564 E2.94822
G1 X64.837 Y124.569 E3.02443
G1 X64.216 Y124.554 E3.09823
G1 X62.930 Y124.460 E3.25130
G1 X61.654 Y124.282 E3.40437
G1 X61.057 Y124.169 E3.47652
G1 X59.808 Y123.869 E3.62912
G1 X59.206 Y123.693 E3.70356
G1 X57.975 Y123.267 E3.85830
G1 X57.411 Y123.040 E3.93043
G1 X56.227 Y122.495 E4.08527
G1 X55.133 Y121.902 E4.23304
G1 X54.042 Y121.216 E4.38611
G1 X52.998 Y120.460 E4.53918
G1 X52.513 Y120.071 E4.61308
G1 X52.040 Y119.666 E4.68697
G1 X51.092 Y118.771 E4.84181
G1 X50.672 Y118.333 E4.91394
G1 X49.816 Y117.350 E5.06878
G1 X49.440 Y116.873 E5.14091
G1 X48.684 Y115.810 E5.29574
G1 X48.356 Y115.299 E5.36787
G1 X47.708 Y114.168 E5.52271
G1 X47.431 Y113.627 E5.59484
G1 X46.896 Y112.439 E5.74968
G1 X46.674 Y111.873 E5.82181
G1 X46.257 Y110.638 E5.97664
G1 X46.091 Y110.054 E6.04877
G1 X45.800 Y108.798 E6.20184
G1 X45.591 Y107.526 E6.35491
G1 X45.522 Y106.923 E6.42707
G1 X45.438 Y105.641 E6.57966
G1 X45.437 Y104.378 E6.72965
G1 X45.521 Y103.092 E6.88272
G1 X45.688 Y101.814 E7.03579
G1 X45.796 Y101.216 E7.10792
G1 X46.091 Y99.946 E7.26276
G1 X46.450 Y98.755 E7.41053
G1 X46.907 Y97.534 E7.56537
G1 X47.148 Y96.976 E7.63749
G1 X47.715 Y95.819 E7.79059
G1 X48.347 Y94.717 E7.94142
G1 X48.684 Y94.189 E8.01586
G1 X49.440 Y93.127 E8.17060
G1 X50.226 Y92.163 E8.31837
G1 X51.113 Y91.208 E8.47321
G1 X51.548 Y90.784 E8.54534
G1 X52.524 Y89.920 E8.70018
G1 X52.998 Y89.540 E8.77231
G1 X54.054 Y88.775 E8.92715
G1 X54.563 Y88.444 E8.99927
G1 X55.688 Y87.786 E9.15411
G1 X56.227 Y87.505 E9.22624
G1 X57.411 Y86.960 E9.38108
G1 X57.975 Y86.733 E9.45321
G1 X59.207 Y86.306 E9.60805
G1 X59.790 Y86.136 E9.68017
G1 X61.043 Y85.834 E9.83327
G1 X62.294 Y85.618 E9.98410
G1 X62.916 Y85.541 E10.05854
G1 X64.201 Y85.447 E10.21154
G1 X65.471 Y85.436 E10.36237
G1 X66.097 Y85.461 E10.43681
G1 X67.380 Y85.576 E10.58981 F1800.000
G1 X68.635 Y85.772 E10.74064
G1 X69.249 Y85.898 E10.81510
G1 X70.493 Y86.218 E10.96760
G1 X71.106 Y86.408 E11.04381
G1 X71.693 Y86.611 E11.11761
G1 X72.889 Y87.092 E11.27070
G1 X74.034 Y87.642 E11.42153
G1 X75.135 Y88.261 E11.57152
G1 X76.214 Y88.965 E11.72459
G1 X77.246 Y89.737 E11.87766
G1 X78.191 Y90.547 E12.02543
G1 X79.124 Y91.457 E12.18027
G1 X79.537 Y91.902 E12.25240
G1 X80.377 Y92.899 E12.40723
G1 X80.745 Y93.382 E12.47936
G1 X81.476 Y94.445 E12.63246
G1 X82.126 Y95.535 E12.78329
G1 X82.420 Y96.089 E12.85775
G1 X82.967 Y97.251 E13.01025
G1 X83.430 Y98.426 E13.16024
G1 X83.827 Y99.668 E13.31508
G1 X83.983 Y100.255 E13.38720
G1 X84.257 Y101.529 E13.54204
G1 X84.355 Y102.129 E13.61417
G1 X84.502 Y103.409 E13.76724
G1 X84.565 Y104.696 E13.92031
G1 X84.565 Y105.304 E13.99244
G1 X84.501 Y106.606 E14.14728
G1 X84.442 Y107.210 E14.21943
G1 X84.254 Y108.482 E14.37203
G1 X84.133 Y109.097 E14.44650
G1 X83.823 Y110.343 E14.59899
G1 X83.643 Y110.943 E14.67346
G1 X83.213 Y112.153 E14.82596
G1 X82.713 Y113.313 E14.97595
G1 X82.127 Y114.461 E15.12904
G1 X81.478 Y115.553 E15.27987
G1 X81.131 Y116.075 E15.35433
G1 X80.370 Y117.109 E15.50684
G1 X79.557 Y118.076 E15.65682
G1 X78.665 Y119.006 E15.80989
G1 X77.714 Y119.875 E15.96296
G1 X77.246 Y120.263 E16.03511
G1 X76.218 Y121.033 E16.18771
G1 X75.698 Y121.385 E16.26218
G1 X74.601 Y122.051 E16.41468
G1 X74.037 Y122.357 E16.49089
G1 X73.254 Y122.735 E16.59413
G1 X73.487 Y123.413 F7800.000
G1 X72.560 Y123.822 E16.71444 F1800.000
G1 X71.960 Y124.052 E16.79071
G1 X70.689 Y124.469 E16.94970
G1 X70.070 Y124.640 E17.02597
G1 X68.763 Y124.932 E17.18495
G1 X68.130 Y125.041 E17.26122
G1 X66.810 Y125.203 E17.41914
G1 X65.502 Y125.278 E17.57476
G1 X64.831 Y125.284 E17.65443
G1 X64.181 Y125.268 E17.73172
G1 X62.855 Y125.171 E17.88962
G1 X61.538 Y124.987 E18.04753
G1 X60.907 Y124.868 E18.12381
G1 X59.624 Y124.559 E18.28052
G1 X58.989 Y124.374 E18.35911
G1 X57.724 Y123.936 E18.51803
G1 X57.129 Y123.696 E18.59430
G1 X55.913 Y123.136 E18.75328
G1 X54.768 Y122.516 E18.90796
G1 X53.642 Y121.808 E19.06586
G1 X52.565 Y121.028 E19.22376
G1 X52.057 Y120.621 E19.30111
G1 X51.562 Y120.197 E19.37846
G1 X50.589 Y119.278 E19.53744
G1 X50.144 Y118.815 E19.61371
G1 X49.266 Y117.805 E19.77269
G1 X48.868 Y117.301 E19.84897
G1 X48.092 Y116.210 E20.00795
G1 X47.746 Y115.670 E20.08422
G1 X47.079 Y114.508 E20.24320
G1 X46.787 Y113.936 E20.31947
G1 X46.238 Y112.716 E20.47845
G1 X46.003 Y112.118 E20.55472
G1 X45.575 Y110.850 E20.71370
G1 X45.399 Y110.232 E20.78997
G1 X45.099 Y108.937 E20.94788
G1 X44.883 Y107.625 E21.10578
G1 X44.810 Y106.987 E21.18207
G1 X44.724 Y105.670 E21.33877
G1 X44.723 Y104.349 E21.49571
G1 X44.810 Y103.022 E21.65361
G1 X44.982 Y101.704 E21.81151
G1 X45.097 Y101.072 E21.88778
G1 X45.399 Y99.768 E22.04677
G1 X45.775 Y98.521 E22.20144
G1 X46.244 Y97.267 E22.36042
G1 X46.499 Y96.678 E22.43669
G1 X47.084 Y95.484 E22.59461
G1 X47.736 Y94.347 E22.75024
G1 X48.092 Y93.789 E22.82883
G1 X48.868 Y92.699 E22.98775
G1 X49.691 Y91.689 E23.14243
G1 X50.602 Y90.709 E23.30141
G1 X51.062 Y90.260 E23.37768
G1 X52.064 Y89.373 E23.53666
G1 X52.565 Y88.972 E23.61293
G1 X53.650 Y88.187 E23.77191
G1 X54.187 Y87.836 E23.84818
G1 X55.343 Y87.160 E24.00716
G1 X55.913 Y86.864 E24.08343
G1 X57.129 Y86.304 E24.24242
G1 X57.724 Y86.064 E24.31869
G1 X58.989 Y85.626 E24.47767
G1 X59.606 Y85.445 E24.55394
G1 X60.898 Y85.134 E24.71186
G1 X62.190 Y84.911 E24.86749
G1 X62.846 Y84.830 E24.94608
G1 X64.172 Y84.733 E25.10394
G1 X65.482 Y84.722 E25.25957
G1 X66.143 Y84.748 E25.33815
G1 X67.467 Y84.867 E25.49601 F1800.000
G1 X68.762 Y85.069 E25.65164
G1 X69.410 Y85.202 E25.73025
G1 X70.688 Y85.531 E25.88689
G1 X71.329 Y85.729 E25.96656
G1 X71.943 Y85.942 E26.04385
G1 X73.177 Y86.438 E26.20177
G1 X74.358 Y87.005 E26.35740
G1 X75.510 Y87.653 E26.51433
G1 X76.624 Y88.379 E26.67223
G1 X77.688 Y89.176 E26.83014
G1 X78.677 Y90.023 E26.98481
G1 X79.635 Y90.958 E27.14379
G1 X80.072 Y91.429 E27.22006
G1 X80.935 Y92.452 E27.37905
G1 X81.324 Y92.963 E27.45532
G1 X82.077 Y94.059 E27.61324
G1 X82.748 Y95.185 E27.76886
G1 X83.059 Y95.769 E27.84747
G1 X83.621 Y96.962 E28.00411
G1 X84.105 Y98.192 E28.16105
G1 X84.512 Y99.467 E28.32003
G1 X84.677 Y100.088 E28.39630
G1 X84.959 Y101.396 E28.55528
G1 X85.063 Y102.030 E28.63155
G1 X85.214 Y103.351 E28.78946
G1 X85.279 Y104.679 E28.94736
G1 X85.279 Y105.321 E29.02363
G1 X85.213 Y106.658 E29.18261
G1 X85.151 Y107.297 E29.25890
G1 X84.958 Y108.603 E29.41560
G1 X84.831 Y109.252 E29.49421
G1 X84.512 Y110.532 E29.65085
G1 X84.321 Y111.166 E29.72946
G1 X83.880 Y112.409 E29.88610
G1 X83.625 Y113.029 E29.96577
G1 X83.357 Y113.622 E30.04306
G1 X82.753 Y114.807 E30.20098
G1 X82.083 Y115.933 E30.35660
G1 X81.717 Y116.484 E30.43521
G1 X80.935 Y117.547 E30.59185
G1 X80.085 Y118.558 E30.74879
G1 X79.164 Y119.517 E30.90670
G1 X78.183 Y120.414 E31.06460
G1 X77.688 Y120.824 E31.14089
G1 X76.632 Y121.615 E31.29759
G1 X76.084 Y121.986 E31.37620
G1 X74.957 Y122.671 E31.53284
G1 X74.367 Y122.991 E31.61251
G1 X73.542 Y123.389 E31.72132
G1 X73.775 Y124.067 F7800.000
G1 X72.832 Y124.482 E31.84370 F1800.000
G1 X72.200 Y124.725 E31.92411
G1 X70.895 Y125.153 E32.08723
G1 X70.242 Y125.333 E32.16765
G1 X68.902 Y125.632 E32.33077
G1 X68.235 Y125.748 E32.41118
G1 X66.874 Y125.914 E32.57393
G1 X65.526 Y125.992 E32.73435
G1 X64.826 Y125.998 E32.81748
G1 X64.146 Y125.981 E32.89826
G1 X62.779 Y125.881 E33.06100
G1 X61.422 Y125.692 E33.22373
G1 X60.757 Y125.566 E33.30415
G1 X59.440 Y125.250 E33.46496
G1 X58.772 Y125.055 E33.54770
G1 X57.474 Y124.605 E33.71081
G1 X56.846 Y124.352 E33.79122
G1 X55.598 Y123.778 E33.95434
G1 X54.402 Y123.130 E34.11592
G1 X53.242 Y122.400 E34.27866
G1 X52.132 Y121.596 E34.44140
G1 X51.601 Y121.171 E34.52220
G1 X51.085 Y120.729 E34.60300
G1 X50.086 Y119.785 E34.76612
G1 X49.617 Y119.297 E34.84653
G1 X48.715 Y118.261 E35.00966
G1 X48.296 Y117.729 E35.09007
G1 X47.500 Y116.610 E35.25320
G1 X47.135 Y116.040 E35.33361
G1 X46.451 Y114.849 E35.49673
G1 X46.143 Y114.246 E35.57715
G1 X45.579 Y112.993 E35.74027
G1 X45.332 Y112.363 E35.82068
G1 X44.892 Y111.062 E35.98381
G1 X44.707 Y110.410 E36.06422
G1 X44.398 Y109.076 E36.22696
G1 X44.176 Y107.724 E36.38970
G1 X44.099 Y107.051 E36.47012
G1 X44.010 Y105.700 E36.63092
G1 X44.009 Y104.320 E36.79481
G1 X44.099 Y102.952 E36.95755
G1 X44.277 Y101.594 E37.12029
G1 X44.397 Y100.928 E37.20070
G1 X44.707 Y99.590 E37.36382
G1 X45.100 Y98.287 E37.52540
G1 X45.582 Y97.001 E37.68853
G1 X45.850 Y96.379 E37.76894
G1 X46.453 Y95.148 E37.93168
G1 X47.125 Y93.977 E38.09210
G1 X47.500 Y93.390 E38.17485
G1 X48.296 Y92.271 E38.33795
G1 X49.156 Y91.216 E38.49953
G1 X50.091 Y90.210 E38.66265
G1 X50.575 Y89.737 E38.74307
G1 X51.604 Y88.827 E38.90619
G1 X52.132 Y88.404 E38.98660
G1 X53.245 Y87.598 E39.14973
G1 X53.812 Y87.228 E39.23014
G1 X54.998 Y86.535 E39.39327
G1 X55.598 Y86.222 E39.47368
G1 X56.846 Y85.648 E39.63680
G1 X57.474 Y85.395 E39.71722
G1 X58.772 Y84.945 E39.88034
G1 X59.422 Y84.755 E39.96075
G1 X60.754 Y84.435 E40.12350
G1 X62.085 Y84.205 E40.28392
G1 X62.776 Y84.119 E40.36666
G1 X64.143 Y84.019 E40.52938
G1 X65.494 Y84.008 E40.68981
G1 X66.190 Y84.035 E40.77255
G1 X67.554 Y84.158 E40.93527 F1800.000
G1 X68.889 Y84.365 E41.09570
G1 X69.571 Y84.506 E41.17844
G1 X70.883 Y84.843 E41.33923
G1 X71.551 Y85.050 E41.42236
G1 X72.194 Y85.273 E41.50314
G1 X73.465 Y85.785 E41.66588
G1 X74.683 Y86.369 E41.82631
G1 X75.886 Y87.045 E41.99019
G1 X77.034 Y87.794 E42.15293
G1 X78.130 Y88.615 E42.31567
G1 X79.164 Y89.500 E42.47724
G1 X80.147 Y90.459 E42.64037
G1 X80.608 Y90.955 E42.72078
G1 X81.492 Y92.006 E42.88391
G1 X81.903 Y92.544 E42.96432
G1 X82.679 Y93.674 E43.12706
G1 X83.370 Y94.834 E43.28748
G1 X83.698 Y95.449 E43.37023
G1 X84.274 Y96.674 E43.53102
G1 X84.780 Y97.958 E43.69491
G1 X85.198 Y99.266 E43.85803
G1 X85.372 Y99.920 E43.93844
G1 X85.661 Y101.263 E44.10157
G1 X85.770 Y101.931 E44.18198
G1 X85.926 Y103.293 E44.34472
G1 X85.993 Y104.661 E44.50746
G1 X85.993 Y105.339 E44.58787
G1 X85.926 Y106.710 E44.75099
G1 X85.860 Y107.384 E44.83141
G1 X85.663 Y108.724 E44.99222
G1 X85.528 Y109.407 E45.07497
G1 X85.201 Y110.721 E45.23576
G1 X85.000 Y111.388 E45.31851
G1 X84.547 Y112.664 E45.47929
G1 X84.281 Y113.312 E45.56242
G1 X84.001 Y113.932 E45.64320
G1 X83.378 Y115.152 E45.80595
G1 X82.687 Y116.313 E45.96637
G1 X82.303 Y116.894 E46.04912
G1 X81.500 Y117.984 E46.20990
G1 X80.612 Y119.040 E46.37379
G1 X79.663 Y120.028 E46.53653
