; generated by Slic3r 1.2.9 on 2016-12-09 at 21:11:26

; external perimeters extrusion width = 0.40mm
; perimeters extrusion width = 0.67mm
; infill extrusion width = 0.67mm
; solid infill extrusion width = 0.67mm
; top infill extrusion width = 0.67mm

M107
M190 S110 ; set bed temperature
M104 S230 ; set temperature
G28 ; home all axes
G1 Z5 F5000 ; lift nozzle

M109 S230 ; wait for temperature to be reached
G21 ; set units to millimeters
G90 ; use absolute coordinates
M82 ; use absolute distances for extrusion
G92 E0
G1 Z0.400 F7800.000
G1 E-2.00000 F2400.00000
G92 E0
G1 X90.487 Y97.552 F7800.000
G1 E2.00000 F2400.00000
G1 X91.383 Y96.800 E2.10642 F1387.185
G1 X91.887 Y96.448 E2.16229
G1 X92.900 Y95.862 E2.26870
G1 X93.457 Y95.603 E2.32457
G1 X94.557 Y95.202 E2.43098
G1 X95.150 Y95.043 E2.48686
G1 X96.303 Y94.840 E2.59328
G1 X96.915 Y94.787 E2.64915
G1 X98.085 Y94.787 E2.75557
G1 X98.697 Y94.840 E2.81144 F1387.185
G1 X99.850 Y95.043 E2.91786
G1 X100.447 Y95.203 E2.97410
G1 X101.542 Y95.602 E3.08008
G1 X102.319 Y95.995 E3.15918
G1 X103.278 Y96.596 E3.26214
G1 X103.766 Y96.961 E3.31751
G1 X104.610 Y97.714 E3.42038
G1 X105.027 Y98.153 E3.47546
G1 X105.733 Y99.036 E3.57829
G1 X106.069 Y99.537 E3.63312
G1 X106.617 Y100.526 E3.73591
G1 X106.863 Y101.075 E3.79057
G1 X107.237 Y102.141 E3.89332
G1 X107.387 Y102.722 E3.94787
G1 X107.577 Y103.836 E4.05061
G1 X107.627 Y104.433 E4.10510
G1 X107.637 Y105.437 E4.19639
G1 X107.564 Y106.305 E4.27563
G1 X107.414 Y107.171 E4.35553
G1 X107.195 Y108.015 E4.43485
G1 X106.899 Y108.844 E4.51483
G1 X106.541 Y109.639 E4.59416
G1 X106.108 Y110.406 E4.67419
G1 X105.733 Y110.967 E4.73554
G1 X105.062 Y111.812 E4.83370
G1 X104.458 Y112.445 E4.91326
G1 X103.791 Y113.023 E4.99350
G1 X103.281 Y113.406 E5.05150
G1 X102.301 Y114.016 E5.15647
G1 X101.748 Y114.297 E5.21285
G1 X100.443 Y114.798 E5.33993
G1 X99.657 Y114.994 E5.41364
G1 X98.624 Y115.155 E5.50866
G1 X98.014 Y115.202 E5.56431
G1 X97.003 Y115.203 E5.65629
G1 X96.392 Y115.158 E5.71195
G1 X95.249 Y114.973 E5.81730
G1 X94.653 Y114.823 E5.87310
G1 X93.457 Y114.397 E5.98855
G1 X92.900 Y114.138 E6.04444
G1 X91.887 Y113.552 E6.15086
G1 X91.383 Y113.200 E6.20673
G1 X90.487 Y112.448 E6.31315
G1 X90.052 Y112.013 E6.36902
G1 X89.300 Y111.117 E6.47543
G1 X88.948 Y110.613 E6.53131
G1 X88.362 Y109.600 E6.63772
G1 X88.103 Y109.043 E6.69360
G1 X87.702 Y107.943 E6.80001
G1 X87.543 Y107.350 E6.85588
G1 X87.340 Y106.197 E6.96230
G1 X87.287 Y105.585 E7.01817
G1 X87.287 Y104.415 E7.12459
G1 X87.340 Y103.803 E7.18046
G1 X87.543 Y102.650 E7.28687
G1 X87.702 Y102.057 E7.34275
G1 X88.103 Y100.957 E7.44917
G1 X88.362 Y100.400 E7.50504
G1 X88.948 Y99.387 E7.61145
G1 X89.300 Y98.883 E7.66732
G1 X90.052 Y97.987 E7.77374
G1 X90.444 Y97.595 E7.82416
G1 E5.82416 F2400.00000
G92 E0
G1 X98.518 Y106.299 F7800.000
G1 E2.00000 F2400.00000
G1 X98.281 Y106.477 E2.02689 F1387.185
G1 X98.062 Y106.588 E2.04929
G1 X97.817 Y106.649 E2.07223
G1 X97.498 Y106.674 E2.10135
G1 X97.183 Y106.651 E2.13006
G1 X96.910 Y106.582 E2.15567
G1 X96.655 Y106.463 E2.18120
G1 X96.414 Y106.294 E2.20798
G1 X96.206 Y106.086 E2.23476
G1 X96.037 Y105.845 E2.26154
G1 X95.912 Y105.578 E2.28831
G1 X95.836 Y105.293 E2.31509
G1 X95.811 Y105.000 E2.34187
G1 X95.836 Y104.707 E2.36865
G1 X95.912 Y104.422 E2.39543
G1 X96.037 Y104.155 E2.42221
G1 X96.206 Y103.914 E2.44898
G1 X96.414 Y103.706 E2.47576
G1 X96.655 Y103.537 E2.50254
G1 X96.922 Y103.412 E2.52932
G1 X97.207 Y103.336 E2.55610
G1 X97.500 Y103.311 E2.58288
G1 X97.718 Y103.330 E2.60279
G1 X98.044 Y103.403 E2.63317 F1387.185
G1 X98.278 Y103.523 E2.65708
G1 X98.517 Y103.703 E2.68430
G1 X98.722 Y103.918 E2.71127
G1 X98.885 Y104.163 E2.73801
G1 X99.005 Y104.429 E2.76459
G1 X99.078 Y104.711 E2.79106
G1 X99.102 Y105.001 E2.81747
G1 X99.078 Y105.290 E2.84389
G1 X99.002 Y105.583 E2.87143
G1 X98.900 Y105.818 E2.89469
G1 X98.722 Y106.084 E2.92378
G1 X98.559 Y106.256 E2.94532
G1 X98.947 Y106.870 F7800.000
G1 X98.660 Y107.085 E2.97785 F1387.185
G1 X98.313 Y107.262 E3.01327
G1 X97.931 Y107.357 E3.04905
G1 X97.499 Y107.390 E3.08853
G1 X97.068 Y107.358 E3.12777
G1 X96.669 Y107.258 E3.16517
G1 X96.297 Y107.084 E3.20255
G1 X95.953 Y106.843 E3.24069
G1 X95.657 Y106.547 E3.27883
G1 X95.416 Y106.203 E3.31698
G1 X95.239 Y105.823 E3.35512
G1 X95.130 Y105.418 E3.39326
G1 X95.094 Y105.000 E3.43140
G1 X95.130 Y104.582 E3.46954
G1 X95.239 Y104.177 E3.50768
G1 X95.416 Y103.797 E3.54582
G1 X95.657 Y103.453 E3.58396
G1 X95.953 Y103.157 E3.62210
G1 X96.297 Y102.916 E3.66025
G1 X96.677 Y102.739 E3.69839
G1 X97.082 Y102.630 E3.73653
G1 X97.500 Y102.594 E3.77467
G1 X97.780 Y102.618 E3.80027
G1 X97.918 Y102.630 E3.81281 F1387.185
G1 X98.302 Y102.733 E3.84901
G1 X98.658 Y102.916 E3.88535
G1 X98.994 Y103.168 E3.92356
G1 X99.281 Y103.471 E3.96151
G1 X99.512 Y103.815 E3.99923
G1 X99.681 Y104.192 E4.03678
G1 X99.784 Y104.591 E4.07422
G1 X99.819 Y105.000 E4.11160
G1 X99.784 Y105.410 E4.14898
G1 X99.680 Y105.816 E4.18707
G1 X99.521 Y106.173 E4.22261
G1 X99.282 Y106.531 E4.26176
G1 X98.995 Y106.834 E4.29977
G1 X99.375 Y107.441 F7800.000
G1 X99.040 Y107.694 E4.33795 F1387.185
G1 X98.565 Y107.935 E4.38639
G1 X98.046 Y108.064 E4.43500
G1 X97.499 Y108.106 E4.48485
G1 X96.954 Y108.066 E4.53461
G1 X96.429 Y107.934 E4.58381
G1 X95.938 Y107.705 E4.63304
G1 X95.492 Y107.393 E4.68254
G1 X95.107 Y107.008 E4.73205
G1 X94.795 Y106.562 E4.78155
G1 X94.565 Y106.068 E4.83105
G1 X94.424 Y105.542 E4.88056
G1 X94.377 Y105.000 E4.93006
G1 X94.424 Y104.458 E4.97957
G1 X94.565 Y103.932 E5.02907
G1 X94.795 Y103.438 E5.07857
G1 X95.107 Y102.992 E5.12808
G1 X95.492 Y102.607 E5.17758
G1 X95.938 Y102.295 E5.22708
G1 X96.432 Y102.065 E5.27659
G1 X96.958 Y101.924 E5.32609
G1 X97.500 Y101.877 E5.37560
G1 X97.843 Y101.907 E5.40688
G1 X98.042 Y101.924 E5.42510 F1387.185
G1 X98.561 Y102.063 E5.47391
G1 X99.038 Y102.308 E5.52267
G1 X99.471 Y102.633 E5.57188
G1 X99.841 Y103.023 E5.62081
G1 X100.139 Y103.468 E5.66950
G1 X100.357 Y103.955 E5.71802
G1 X100.491 Y104.470 E5.76642
G1 X100.536 Y105.000 E5.81477
G1 X100.491 Y105.530 E5.86312
G1 X100.357 Y106.048 E5.91177
G1 X100.143 Y106.528 E5.95957
G1 X99.842 Y106.978 E6.00880
G1 X99.423 Y107.405 E6.06321
G1 X99.001 Y107.302 F7800.000
G1 X98.455 Y104.501 F7800.000
G1 X97.861 Y103.906 E6.17582 F1387.185
G1 X96.571 Y104.104 E6.35068
G1 X98.363 Y105.897 E6.69028
G1 X97.039 Y106.060 E6.86908
G1 X96.440 Y105.461 E6.98257
M140 S105 ; wait for bed temperature to be reached
G1 Z0.600 F7800.000
G1 X98.935 Y106.884 F7800.000
G1 X98.662 Y107.095 E6.99636 F850.941
G1 X98.287 Y107.286 E7.01323
G1 X97.888 Y107.406 E7.02986
G1 X97.472 Y107.452 E7.04661
G1 X97.056 Y107.423 E7.06331
G1 X96.652 Y107.318 E7.08002
G1 X96.266 Y107.138 E7.09705
G1 X95.913 Y106.891 E7.11426
G1 X95.609 Y106.587 E7.13148
G1 X95.362 Y106.234 E7.14869
G1 X95.180 Y105.844 E7.16590
G1 X95.069 Y105.429 E7.18312
G1 X95.031 Y105.000 E7.20033
G1 X95.063 Y104.656 E7.21413
G1 X95.201 Y104.248 E7.23138
G1 X95.402 Y103.873 E7.24840
G1 X95.660 Y103.543 E7.26517
G1 X95.966 Y103.264 E7.28171
G1 X96.311 Y103.044 E7.29806
G1 X96.683 Y102.887 E7.31424
G1 X97.073 Y102.795 E7.33027
G1 X97.453 Y102.771 E7.34546
G1 X97.599 Y102.791 E7.35136
G1 X97.875 Y102.816 E7.36246 F850.941
G1 X98.242 Y102.919 E7.37773
G1 X98.597 Y103.088 E7.39342
G1 X98.917 Y103.313 E7.40910
G1 X99.196 Y103.589 E7.42478
G1 X99.419 Y103.901 E7.44011
G1 X99.579 Y104.244 E7.45527
G1 X99.679 Y104.616 E7.47065
G1 X99.713 Y105.011 E7.48650
G1 X99.683 Y105.434 E7.50348
G1 X99.598 Y105.843 E7.52021
G1 X99.451 Y106.212 E7.53609
G1 X99.238 Y106.555 E7.55221
G1 X98.979 Y106.844 E7.56774
G1 X99.324 Y107.377 F7800.000
G1 X98.994 Y107.631 E7.58440 F850.941
G1 X98.521 Y107.872 E7.60563
G1 X98.014 Y108.024 E7.62680
G1 X97.485 Y108.083 E7.64809
G1 X96.954 Y108.046 E7.66939
G1 X96.438 Y107.912 E7.69073
G1 X95.950 Y107.684 E7.71225
G1 X95.508 Y107.374 E7.73386
G1 X95.126 Y106.992 E7.75547
G1 X94.816 Y106.550 E7.77708
G1 X94.587 Y106.060 E7.79869
G1 X94.448 Y105.538 E7.82030
G1 X94.401 Y105.000 E7.84191
G1 X94.450 Y104.507 E7.86172
G1 X94.622 Y103.997 E7.88326
G1 X94.874 Y103.528 E7.90455
G1 X95.198 Y103.114 E7.92559
G1 X95.583 Y102.764 E7.94640
G1 X96.017 Y102.486 E7.96701
G1 X96.488 Y102.287 E7.98745
G1 X96.981 Y102.171 E8.00773
G1 X97.475 Y102.140 E8.02752
G1 X97.668 Y102.166 E8.03532
G1 X97.989 Y102.195 E8.04821 F850.941
G1 X98.464 Y102.329 E8.06795
G1 X98.915 Y102.543 E8.08789
G1 X99.322 Y102.830 E8.10782
G1 X99.676 Y103.181 E8.12775
G1 X99.963 Y103.583 E8.14751
G1 X100.172 Y104.028 E8.16719
G1 X100.300 Y104.506 E8.18699
G1 X100.344 Y105.006 E8.20704
G1 X100.307 Y105.521 E8.22769
G1 X100.202 Y106.025 E8.24831
G1 X100.014 Y106.496 E8.26860
G1 X99.743 Y106.933 E8.28913
G1 X99.372 Y107.340 E8.31119
G1 X99.630 Y107.764 F7800.000
G1 X99.254 Y108.051 E8.32193 F850.941
G1 X98.705 Y108.331 E8.33594
G1 X98.113 Y108.509 E8.35000
G1 X97.496 Y108.577 E8.36412
G1 X96.874 Y108.534 E8.37828
G1 X96.270 Y108.377 E8.39247
G1 X95.703 Y108.113 E8.40670
G1 X95.190 Y107.753 E8.42094
G1 X94.747 Y107.310 E8.43518
G1 X94.387 Y106.797 E8.44942
G1 X94.123 Y106.229 E8.46367
G1 X93.961 Y105.624 E8.47791
G1 X93.906 Y105.000 E8.49215
G1 X93.970 Y104.391 E8.50608
G1 X94.168 Y103.800 E8.52024
G1 X94.460 Y103.258 E8.53424
G1 X94.836 Y102.777 E8.54810
G1 X95.282 Y102.371 E8.56183
G1 X95.787 Y102.049 E8.57544
G1 X96.334 Y101.817 E8.58895
G1 X96.909 Y101.682 E8.60237
G1 X97.493 Y101.646 E8.61566
G1 X97.723 Y101.677 E8.62094
G1 X98.079 Y101.708 E8.62907 F850.941
G1 X98.638 Y101.866 E8.64228
G1 X99.164 Y102.116 E8.65551
G1 X99.639 Y102.451 E8.66872
G1 X100.052 Y102.860 E8.68194
G1 X100.390 Y103.333 E8.69515
G1 X100.636 Y103.859 E8.70835
G1 X100.787 Y104.420 E8.72157
G1 X100.838 Y105.002 E8.73483
G1 X100.796 Y105.589 E8.74821
G1 X100.676 Y106.168 E8.76166
G1 X100.455 Y106.719 E8.77516
G1 X100.139 Y107.229 E8.78879
G1 X99.677 Y107.726 E8.80423
G1 X99.253 Y107.630 F7800.000
G1 X98.342 Y106.725 F7800.000
G1 X98.964 Y106.103 E8.84464 F1134.588
G1 X99.318 Y104.728 E8.90992
G1 X97.000 Y107.046 E9.06059
G1 X96.279 Y106.746 E9.09652
G1 X99.060 Y103.964 E9.27739
G1 X98.548 Y103.455 E9.31059
G1 X95.765 Y106.238 E9.49152
G1 X95.458 Y105.524 E9.52725
G1 X97.802 Y103.180 E9.67967
G1 X96.432 Y103.529 E9.74469
G1 X95.804 Y104.157 E9.78550
G1 Z0.800 F7800.000
G1 X99.101 Y107.058 F7800.000
G1 X98.788 Y107.293 E9.80117 F900.000
G1 X98.388 Y107.487 E9.81895
G1 X97.952 Y107.608 E9.83703
G1 X97.499 Y107.649 E9.85523
G1 X97.040 Y107.608 E9.87366
G1 X96.601 Y107.491 E9.89183
G1 X96.233 Y107.314 E9.90818
G1 X95.912 Y107.050 E9.92480
G1 X95.616 Y106.706 E9.94297
G1 X95.386 Y106.324 E9.96080
G1 X95.227 Y105.916 E9.97831
G1 X95.141 Y105.494 E9.99553
G1 X95.127 Y105.070 E10.01250
G1 X95.185 Y104.656 E10.02922
G1 X95.309 Y104.262 E10.04573
G1 X95.496 Y103.899 E10.06206
G1 X95.739 Y103.576 E10.07822
G1 X96.030 Y103.301 E10.09425
G1 X96.362 Y103.081 E10.11017
G1 X96.723 Y102.919 E10.12600
G1 X97.107 Y102.821 E10.14186
G1 X97.558 Y102.793 E10.15995
G1 X97.884 Y102.821 E10.17303 F900.000
G1 X98.262 Y102.922 E10.18866
G1 X98.647 Y103.098 E10.20562
G1 X99.007 Y103.321 E10.22253
G1 X99.302 Y103.585 E10.23837
G1 X99.551 Y103.901 E10.25446
G1 X99.744 Y104.261 E10.27080
G1 X99.873 Y104.655 E10.28738
G1 X99.932 Y105.072 E10.30422
G1 X99.918 Y105.501 E10.32141
G1 X99.829 Y105.920 E10.33854
G1 X99.664 Y106.330 E10.35620
G1 X99.428 Y106.707 E10.37403
G1 X99.147 Y107.019 E10.39082
G1 X99.478 Y107.561 F7800.000
G1 X99.116 Y107.832 E10.40891 F900.000
G1 X98.611 Y108.077 E10.43137
G1 X98.065 Y108.229 E10.45402
G1 X97.499 Y108.279 E10.47674
G1 X96.931 Y108.230 E10.49958
G1 X96.382 Y108.083 E10.52230
G1 X95.892 Y107.848 E10.54404
G1 X95.471 Y107.501 E10.56586
G1 X95.105 Y107.075 E10.58831
G1 X94.820 Y106.601 E10.61043
G1 X94.622 Y106.094 E10.63222
G1 X94.515 Y105.567 E10.65372
G1 X94.498 Y105.037 E10.67495
G1 X94.570 Y104.517 E10.69594
G1 X94.726 Y104.022 E10.71671
G1 X94.962 Y103.564 E10.73730
G1 X95.269 Y103.156 E10.75772
G1 X95.638 Y102.808 E10.77800
G1 X96.057 Y102.528 E10.79817
G1 X96.516 Y102.324 E10.81825
G1 X97.002 Y102.199 E10.83832
G1 X97.499 Y102.157 E10.85830
G1 X97.613 Y102.167 E10.86287
G1 X97.994 Y102.200 E10.87815 F900.000
G1 X98.475 Y102.329 E10.89808
G1 X98.944 Y102.543 E10.91872
G1 X99.384 Y102.816 E10.93941
G1 X99.762 Y103.153 E10.95967
G1 X100.079 Y103.556 E10.98017
G1 X100.324 Y104.013 E11.00092
G1 X100.487 Y104.512 E11.02191
G1 X100.562 Y105.038 E11.04316
G1 X100.544 Y105.576 E11.06471
G1 X100.432 Y106.105 E11.08634
G1 X100.226 Y106.616 E11.10837
G1 X99.931 Y107.087 E11.13061
G1 X99.526 Y107.525 E11.15447
G1 X99.773 Y107.955 F7800.000
G1 X99.374 Y108.255 E11.16582 F900.000
G1 X98.786 Y108.540 E11.18067
G1 X98.154 Y108.716 E11.19558
G1 X97.500 Y108.774 E11.21051
G1 X96.845 Y108.717 E11.22546
G1 X96.210 Y108.547 E11.24039
G1 X95.625 Y108.266 E11.25515
G1 X95.125 Y107.854 E11.26987
G1 X94.704 Y107.365 E11.28454
G1 X94.376 Y106.819 E11.29902
G1 X94.148 Y106.233 E11.31331
G1 X94.024 Y105.625 E11.32743
G1 X94.004 Y105.011 E11.34140
G1 X94.087 Y104.408 E11.35523
G1 X94.269 Y103.833 E11.36894
G1 X94.543 Y103.302 E11.38253
G1 X94.900 Y102.827 E11.39603
G1 X95.330 Y102.421 E11.40946
G1 X95.818 Y102.095 E11.42281
G1 X96.353 Y101.857 E11.43612
G1 X96.919 Y101.712 E11.44940
G1 X97.500 Y101.662 E11.46265
G1 X97.656 Y101.676 E11.46622
G1 X98.080 Y101.713 E11.47588 F900.000
G1 X98.642 Y101.864 E11.48913
G1 X99.177 Y102.108 E11.50249
G1 X99.680 Y102.419 E11.51594
G1 X100.122 Y102.814 E11.52942
G1 X100.493 Y103.285 E11.54303
G1 X100.779 Y103.818 E11.55679
G1 X100.969 Y104.399 E11.57069
G1 X101.056 Y105.011 E11.58473
G1 X101.035 Y105.635 E11.59892
G1 X100.905 Y106.250 E11.61322
G1 X100.667 Y106.840 E11.62769
G1 X100.326 Y107.385 E11.64229
G1 X99.893 Y107.865 E11.65699
G1 X99.821 Y107.919 E11.65903
G1 X99.406 Y107.798 F7800.000
G1 E9.65903 F2400.00000
G92 E0
G1 X99.164 Y104.205 F7800.000
G1 E2.00000 F2400.00000
G1 X98.554 Y103.595 E2.03456 F1200.000
G1 X97.255 Y103.185 E2.08914
G1 X99.542 Y105.472 E2.21872
G1 X99.358 Y106.178 E2.24794
G1 X96.548 Y103.368 E2.40715
G1 X96.048 Y103.758 E2.43254
G1 X98.983 Y106.693 E2.59882
G1 X98.472 Y107.072 E2.62430
G1 X95.678 Y104.278 E2.78263
G1 X95.511 Y105.000 E2.81235
G1 X97.764 Y107.254 E2.94002
G1 X96.568 Y106.947 E2.98950
G1 X95.963 Y106.343 E3.02376
M106 S252.45
G1 Z1.000 F7800.000
G1 X99.230 Y107.091 F7800.000
G1 X98.903 Y107.297 E3.03923 F900.000
G1 X98.472 Y107.472 E3.05785
G1 X98.022 Y107.568 E3.07624
G1 X97.586 Y107.583 E3.09370
G1 X97.158 Y107.512 E3.11104
G1 X96.738 Y107.366 E3.12881
G1 X96.357 Y107.155 E3.14626
G1 X96.022 Y106.888 E3.16340
G1 X95.742 Y106.573 E3.18027
G1 X95.522 Y106.220 E3.19688
G1 X95.367 Y105.841 E3.21327
G1 X95.279 Y105.446 E3.22945
G1 X95.260 Y105.046 E3.24546
G1 X95.308 Y104.643 E3.26172
G1 X95.418 Y104.250 E3.27802
G1 X95.584 Y103.894 E3.29375
G1 X95.805 Y103.578 E3.30917
G1 X96.104 Y103.279 E3.32610
G1 X96.440 Y103.014 E3.34319
G1 X96.788 Y102.827 E3.35901
G1 X97.170 Y102.702 E3.37506
G1 X97.575 Y102.644 E3.39144
G1 X97.871 Y102.652 E3.40329
G1 X97.983 Y102.657 E3.40778 F900.000
G1 X98.397 Y102.744 E3.42471
G1 X98.793 Y102.903 E3.44176
G1 X99.160 Y103.132 E3.45905
G1 X99.486 Y103.425 E3.47659
G1 X99.762 Y103.778 E3.49453
G1 X99.971 Y104.172 E3.51237
G1 X100.112 Y104.608 E3.53070
G1 X100.176 Y105.067 E3.54924
G1 X100.159 Y105.517 E3.56723
G1 X100.054 Y105.944 E3.58483
G1 X99.859 Y106.362 E3.60328
G1 X99.587 Y106.751 E3.62227
G1 X99.280 Y107.058 E3.63962
G1 X99.565 Y107.623 F7800.000
G1 X99.190 Y107.858 E3.65729 F900.000
G1 X98.657 Y108.075 E3.68033
G1 X98.099 Y108.194 E3.70313
G1 X97.545 Y108.213 E3.72532
G1 X97.002 Y108.123 E3.74732
G1 X96.481 Y107.942 E3.76938
G1 X96.006 Y107.679 E3.79111
G1 X95.588 Y107.345 E3.81253
G1 X95.237 Y106.950 E3.83366
G1 X94.961 Y106.507 E3.85454
G1 X94.765 Y106.029 E3.87519
G1 X94.655 Y105.530 E3.89564
G1 X94.629 Y105.024 E3.91591
G1 X94.690 Y104.520 E3.93623
G1 X94.827 Y104.031 E3.95652
G1 X95.038 Y103.578 E3.97650
G1 X95.322 Y103.172 E3.99633
G1 X95.686 Y102.808 E4.01694
G1 X96.094 Y102.487 E4.03771
G1 X96.540 Y102.247 E4.05794
