; generated by Slic3r 1.2.9 on 2016-12-29 at 16:22:57

; external perimeters extrusion width = 0.40mm
; perimeters extrusion width = 0.67mm
; infill extrusion width = 0.67mm
; solid infill extrusion width = 0.67mm
; top infill extrusion width = 0.67mm

M107
M190 S65 ; set bed temperature
M104 S200 ; set temperature
G28 ; home all axes
G1 Z5 F5000 ; lift nozzle

M109 S200 ; wait for temperature to be reached
G21 ; set units to millimeters
G90 ; use absolute coordinates
M82 ; use absolute distances for extrusion
G92 E0
G1 Z0.250 F6000.000
G1 E-2.00000 F2400.00000
G92 E0
G1 X50.415 Y81.625 F6000.000
G1 E2.00000 F2400.00000
G1 X51.183 Y81.163 E2.04161 F1500.000
G1 X51.966 Y80.726 E2.08322
G1 X52.763 Y80.315 E2.12482
G1 X53.573 Y79.929 E2.16643
G1 X55.033 Y79.314 E2.23991
G1 X55.874 Y79.004 E2.28152
G1 X56.725 Y78.721 E2.32313
G1 X57.585 Y78.465 E2.36473
G1 X58.453 Y78.238 E2.40635
G1 X59.327 Y78.039 E2.44795
G1 X60.208 Y77.869 E2.48956
G1 X61.093 Y77.727 E2.53117
G1 X61.983 Y77.615 E2.57278
G1 X62.876 Y77.531 E2.61439
G1 X63.771 Y77.477 E2.65600
G1 X64.825 Y77.449 E2.70490
G1 X130.175 Y77.449 E5.73664
G1 X131.229 Y77.477 E5.78555 F1500.000
G1 X132.808 Y77.593 E5.85903
G1 X133.907 Y77.727 E5.91037
G1 X135.467 Y77.997 E5.98384
G1 X136.547 Y78.238 E6.03518
G1 X138.074 Y78.658 E6.10866
G1 X139.126 Y79.004 E6.16000
G1 X140.605 Y79.571 E6.23348
G1 X141.617 Y80.017 E6.28482
G1 X143.034 Y80.726 E6.35831
G1 X143.998 Y81.269 E6.40964
G1 X145.339 Y82.112 E6.48312
G1 X146.245 Y82.746 E6.53446
G1 X147.497 Y83.717 E6.60793
G1 X148.338 Y84.436 E6.65927
G1 X149.489 Y85.524 E6.73275
G1 X150.256 Y86.322 E6.78409
G1 X151.296 Y87.517 E6.85757
G1 X151.981 Y88.386 E6.90891
G1 X152.899 Y89.676 E6.98238
G1 X153.496 Y90.608 E7.03373
G1 X154.284 Y91.982 E7.10721
G1 X154.787 Y92.968 E7.15855
G1 X155.404 Y94.334 E7.22809
G1 X155.769 Y95.245 E7.27363
G1 X156.140 Y96.288 E7.32497
G1 X156.597 Y97.804 E7.39844
G1 X156.865 Y98.878 E7.44978
G1 X157.172 Y100.432 E7.52326
G1 X157.334 Y101.526 E7.57460
G1 X157.488 Y103.103 E7.64810
G1 X157.542 Y104.208 E7.69942
G1 X157.542 Y105.792 E7.77290
G1 X157.488 Y106.897 E7.82424
G1 X157.334 Y108.474 E7.89772
G1 X157.172 Y109.568 E7.94905
G1 X156.865 Y111.122 E8.02254
G1 X156.597 Y112.196 E8.07388
G1 X156.165 Y113.632 E8.14344
G1 X155.842 Y114.558 E8.18896
G1 X155.438 Y115.588 E8.24030
G1 X154.787 Y117.032 E8.31377
G1 X154.284 Y118.018 E8.36512
G1 X153.496 Y119.392 E8.43861
G1 X152.899 Y120.324 E8.48993
G1 X151.981 Y121.614 E8.56341
G1 X151.296 Y122.483 E8.61475
G1 X150.256 Y123.678 E8.68823
G1 X149.489 Y124.476 E8.73957
G1 X148.338 Y125.564 E8.81304
G1 X147.497 Y126.283 E8.86439
G1 X146.245 Y127.254 E8.93787
G1 X145.339 Y127.888 E8.98920
G1 X143.998 Y128.731 E9.06268
G1 X143.034 Y129.274 E9.11402
G1 X141.617 Y129.983 E9.18750
G1 X140.604 Y130.429 E9.23884
G1 X139.126 Y130.996 E9.31232
G1 X138.074 Y131.342 E9.36366
G1 X136.547 Y131.762 E9.43714
G1 X135.467 Y132.003 E9.48848
G1 X133.907 Y132.273 E9.56195
G1 X132.808 Y132.407 E9.61330
G1 X131.229 Y132.523 E9.68677
G1 X130.175 Y132.550 E9.73568
G1 X64.825 Y132.551 E12.76741
G1 X63.771 Y132.523 E12.81632
G1 X62.876 Y132.469 E12.85793
G1 X61.983 Y132.385 E12.89954
G1 X61.093 Y132.273 E12.94115
G1 X60.208 Y132.131 E12.98275
G1 X59.327 Y131.961 E13.02436
G1 X58.453 Y131.762 E13.06597
G1 X56.926 Y131.342 E13.13945
G1 X56.072 Y131.065 E13.18106
G1 X55.229 Y130.761 E13.22266
G1 X54.396 Y130.429 E13.26427
G1 X53.573 Y130.071 E13.30589
G1 X52.763 Y129.685 E13.34749
G1 X51.966 Y129.274 E13.38910
G1 X51.183 Y128.837 E13.43071
G1 X50.415 Y128.375 E13.47232
G1 X49.661 Y127.888 E13.51393
G1 X48.925 Y127.377 E13.55554
G1 X47.973 Y126.660 E13.61080
G1 X47.341 Y126.150 E13.64848
G1 X46.662 Y125.564 E13.69010
G1 X46.003 Y124.956 E13.73170
G1 X45.363 Y124.327 E13.77331
G1 X44.744 Y123.678 E13.81492
G1 X44.147 Y123.009 E13.85653
G1 X43.572 Y122.321 E13.89813
G1 X43.020 Y121.614 E13.93975
G1 X42.490 Y120.890 E13.98135
G1 X41.985 Y120.149 E14.02296
G1 X41.504 Y119.392 E14.06457
G1 X41.048 Y118.619 E14.10617
G1 X40.618 Y117.833 E14.14779
G1 X40.213 Y117.032 E14.18940
G1 X39.834 Y116.219 E14.23101
G1 X39.482 Y115.394 E14.27261
G1 X39.158 Y114.558 E14.31422
G1 X38.860 Y113.712 E14.35583
G1 X38.591 Y112.857 E14.39744
G1 X38.349 Y111.993 E14.43904
G1 X38.135 Y111.122 E14.48066
G1 X37.950 Y110.244 E14.52226
G1 X37.694 Y108.682 E14.59574
G1 X37.588 Y107.791 E14.63735
G1 X37.512 Y106.897 E14.67896
G1 X37.465 Y106.002 E14.72057
G1 X37.447 Y105.105 E14.76217
G1 X37.458 Y104.208 E14.80378
G1 X37.498 Y103.312 E14.84539
G1 X37.568 Y102.418 E14.88700
G1 X37.666 Y101.527 E14.92861
G1 X37.794 Y100.639 E14.97022
G1 X37.950 Y99.756 E15.01182
G1 X38.203 Y98.591 E15.06710
G1 X38.403 Y97.804 E15.10477
G1 X38.651 Y96.942 E15.14638
G1 X38.927 Y96.089 E15.18799
G1 X39.231 Y95.245 E15.22960
G1 X39.562 Y94.412 E15.27121
G1 X39.920 Y93.589 E15.31282
G1 X40.305 Y92.779 E15.35443
G1 X40.716 Y91.982 E15.39603
G1 X41.153 Y91.199 E15.43764
G1 X41.615 Y90.430 E15.47925
G1 X42.101 Y89.676 E15.52086
G1 X42.612 Y88.939 E15.56247
G1 X43.147 Y88.219 E15.60408
G1 X43.704 Y87.517 E15.64569
G1 X44.285 Y86.833 E15.68730
G1 X44.887 Y86.168 E15.72890
G1 X45.511 Y85.524 E15.77051
G1 X46.155 Y84.900 E15.81212
G1 X46.819 Y84.297 E15.85373
G1 X47.503 Y83.717 E15.89534
G1 X48.205 Y83.158 E15.93695
G1 X48.925 Y82.623 E15.97856
G1 X49.661 Y82.112 E16.02016
G1 X50.364 Y81.657 E16.05899
G1 E14.05899 F2400.00000
G92 E0
G1 X73.038 Y123.271 F6000.000
G1 E2.00000 F2400.00000
G1 X72.457 Y123.516 E2.02928 F1500.000
G1 X71.219 Y123.968 E2.09043
G1 X70.607 Y124.158 E2.12015
G1 X69.989 Y124.328 E2.14987
G1 X68.712 Y124.613 E2.21059
G1 X67.419 Y124.814 E2.27130
G1 X66.784 Y124.882 E2.30092
G1 X66.061 Y124.932 E2.33454
G1 X64.826 Y124.961 E2.39186
G1 X64.194 Y124.946 E2.42117
G1 X62.889 Y124.850 E2.48189
G1 X61.593 Y124.669 E2.54261
G1 X60.972 Y124.552 E2.57189
G1 X59.691 Y124.244 E2.63304
G1 X58.468 Y123.864 E2.69246
G1 X57.246 Y123.395 E2.75318
G1 X56.057 Y122.848 E2.81390
G1 X55.489 Y122.552 E2.84362
G1 X54.930 Y122.238 E2.87333
G1 X53.823 Y121.541 E2.93405
G1 X52.763 Y120.773 E2.99477
G1 X52.263 Y120.373 E3.02449
G1 X51.776 Y119.956 E3.05420
G1 X50.825 Y119.057 E3.11492
G1 X49.934 Y118.099 E3.17564
G1 X49.125 Y117.106 E3.23506
G1 X48.360 Y116.032 E3.29621
G1 X48.020 Y115.500 E3.32550
G1 X47.364 Y114.357 E3.38665
G1 X47.077 Y113.795 E3.41593
G1 X46.536 Y112.593 E3.47708
G1 X46.305 Y112.005 E3.50637
G1 X45.884 Y110.759 E3.56742
G1 X45.691 Y110.070 E3.60061
G1 X45.414 Y108.868 E3.65783
G1 X45.289 Y108.163 E3.69104
G1 X45.130 Y106.940 E3.74826
G1 X45.074 Y106.226 E3.78148
G1 X45.035 Y105.001 E3.83836
G1 X45.078 Y103.692 E3.89910
G1 X45.130 Y103.056 E3.92873
G1 X45.215 Y102.336 E3.96234
G1 X45.416 Y101.119 E4.01956
G1 X45.569 Y100.420 E4.05278
G1 X45.888 Y99.226 E4.11009
G1 X46.081 Y98.624 E4.13940
G1 X46.539 Y97.399 E4.20012
G1 X47.077 Y96.205 E4.26084
G1 X47.368 Y95.635 E4.29056
G1 X47.678 Y95.074 E4.32027
G1 X48.366 Y93.961 E4.38099
G1 X49.125 Y92.894 E4.44171
G1 X49.934 Y91.901 E4.50113
G1 X50.831 Y90.936 E4.56228
G1 X51.283 Y90.495 E4.59157
G1 X52.270 Y89.621 E4.65272
G1 X52.763 Y89.227 E4.68200
G1 X53.830 Y88.454 E4.74315
G1 X54.359 Y88.109 E4.77244
G1 X55.497 Y87.444 E4.83359
G1 X56.057 Y87.152 E4.86287
G1 X57.254 Y86.601 E4.92402
G1 X57.840 Y86.365 E4.95331
G1 X59.085 Y85.934 E5.01446
G1 X59.691 Y85.756 E5.04374
G1 X60.970 Y85.449 E5.10480
G1 X61.674 Y85.318 E5.13798
G1 X62.888 Y85.150 E5.19487
G1 X64.192 Y85.054 E5.25552
G1 X64.907 Y85.040 E5.28870
G1 X66.133 Y85.071 E5.34559
G1 X67.435 Y85.188 E5.40624 F1500.000
G1 X68.143 Y85.289 E5.43942
G1 X69.357 Y85.520 E5.49674
G1 X69.971 Y85.668 E5.52605
G1 X71.236 Y86.038 E5.58720
G1 X71.833 Y86.245 E5.61649
G1 X73.047 Y86.733 E5.67720
G1 X74.227 Y87.300 E5.73792
G1 X74.782 Y87.601 E5.76721
G1 X75.909 Y88.284 E5.82836
G1 X76.439 Y88.643 E5.85807
G1 X76.958 Y89.019 E5.88779
G1 X77.980 Y89.837 E5.94851
G1 X78.946 Y90.720 E6.00923
G1 X79.390 Y91.168 E6.03851
G1 X80.271 Y92.148 E6.09966
G1 X81.112 Y93.221 E6.16289
G1 X81.811 Y94.240 E6.22020
G1 X82.143 Y94.778 E6.24952
G1 X82.776 Y95.923 E6.31023
G1 X83.332 Y97.108 E6.37095
G1 X83.573 Y97.691 E6.40024
G1 X84.015 Y98.933 E6.46139
G1 X84.197 Y99.537 E6.49067
G1 X84.516 Y100.816 E6.55182
G1 X84.640 Y101.445 E6.58154
G1 X84.744 Y102.077 E6.61125
G1 X84.893 Y103.377 E6.67197
G1 X84.956 Y104.684 E6.73269
G1 X84.956 Y105.316 E6.76198
G1 X84.892 Y106.632 E6.82313
G1 X84.746 Y107.905 E6.88255
G1 X84.513 Y109.193 E6.94327
G1 X84.197 Y110.463 E7.00399
G1 X84.015 Y111.067 E7.03327
G1 X83.573 Y112.309 E7.09442
G1 X83.329 Y112.901 E7.12414
G1 X83.066 Y113.485 E7.15385
G1 X82.466 Y114.659 E7.21500
G1 X82.152 Y115.207 E7.24429
G1 X81.442 Y116.315 E7.30534
G1 X81.026 Y116.896 E7.33853
G1 X80.266 Y117.858 E7.39541
G1 X79.390 Y118.832 E7.45616
G1 X78.473 Y119.726 E7.51558
G1 X77.474 Y120.582 E7.57664
G1 X76.907 Y121.018 E7.60982
G1 X75.901 Y121.720 E7.66671
G1 X74.782 Y122.399 E7.72745
G1 X74.227 Y122.700 E7.75674
G1 X73.093 Y123.245 E7.81510
G1 X73.212 Y123.682 F6000.000
G1 X72.620 Y123.931 E7.84489 F1500.000
G1 X71.361 Y124.391 E7.90706
G1 X70.732 Y124.586 E7.93761
G1 X70.097 Y124.761 E7.96817
G1 X68.795 Y125.052 E8.03007
G1 X67.477 Y125.257 E8.09197
G1 X66.823 Y125.327 E8.12247
G1 X66.082 Y125.378 E8.15694
G1 X64.826 Y125.408 E8.21523
G1 X64.172 Y125.392 E8.24554
G1 X62.842 Y125.294 E8.30744
G1 X61.520 Y125.110 E8.36934
G1 X60.879 Y124.988 E8.39964
G1 X59.576 Y124.675 E8.46180
G1 X58.318 Y124.284 E8.52291
G1 X57.072 Y123.807 E8.58481
G1 X55.860 Y123.249 E8.64670
G1 X55.276 Y122.945 E8.67726
G1 X54.702 Y122.621 E8.70782
G1 X53.573 Y121.911 E8.76972
G1 X52.492 Y121.128 E8.83162
G1 X51.978 Y120.716 E8.86218
G1 X51.478 Y120.288 E8.89274
G1 X50.508 Y119.372 E8.95464
G1 X49.599 Y118.395 E9.01653
G1 X48.767 Y117.373 E9.07764
G1 X47.990 Y116.282 E9.13981
G1 X47.638 Y115.732 E9.17010
G1 X46.971 Y114.570 E9.23226
G1 X46.674 Y113.988 E9.26256
G1 X46.124 Y112.766 E9.32472
G1 X45.885 Y112.159 E9.35502
G1 X45.457 Y110.890 E9.41712
G1 X45.258 Y110.180 E9.45133
G1 X44.976 Y108.957 E9.50956
G1 X44.847 Y108.231 E9.54378
G1 X44.686 Y106.986 E9.60202
G1 X44.628 Y106.251 E9.63624
G1 X44.589 Y105.000 E9.69427
G1 X44.632 Y103.666 E9.75618
G1 X44.686 Y103.011 E9.78668
G1 X44.773 Y102.273 E9.82115
G1 X44.978 Y101.035 E9.87938
G1 X45.135 Y100.314 E9.91361
G1 X45.460 Y99.101 E9.97190
G1 X45.659 Y98.478 E10.00221
G1 X46.127 Y97.229 E10.06411
G1 X46.674 Y96.012 E10.12601
G1 X46.974 Y95.425 E10.15657
G1 X47.292 Y94.849 E10.18713
G1 X47.994 Y93.714 E10.24903
G1 X48.767 Y92.627 E10.31092
G1 X49.599 Y91.605 E10.37203
G1 X50.512 Y90.624 E10.43420
G1 X50.979 Y90.168 E10.46449
G1 X51.982 Y89.280 E10.52665
G1 X52.492 Y88.872 E10.55695
G1 X53.577 Y88.086 E10.61911
G1 X54.124 Y87.729 E10.64941
G1 X55.281 Y87.053 E10.71157
G1 X55.860 Y86.751 E10.74186
G1 X57.077 Y86.191 E10.80403
G1 X57.683 Y85.947 E10.83432
G1 X58.949 Y85.508 E10.89648
G1 X59.576 Y85.325 E10.92678
G1 X60.877 Y85.012 E10.98888
G1 X61.602 Y84.877 E11.02309
G1 X62.841 Y84.706 E11.08112
G1 X64.171 Y84.608 E11.14297
G1 X64.908 Y84.593 E11.17718
G1 X66.159 Y84.625 E11.23521
G1 X67.487 Y84.744 E11.29707 F1500.000
G1 X68.217 Y84.848 E11.33127
G1 X69.451 Y85.084 E11.38956
G1 X70.086 Y85.236 E11.41988
G1 X71.372 Y85.613 E11.48204
G1 X71.989 Y85.827 E11.51233
G1 X73.227 Y86.325 E11.57423
G1 X74.430 Y86.902 E11.63613
G1 X75.004 Y87.213 E11.66643
G1 X76.149 Y87.908 E11.72859
G1 X76.695 Y88.277 E11.75915
G1 X77.229 Y88.663 E11.78971
G1 X78.270 Y89.498 E11.85160
G1 X79.255 Y90.398 E11.91350
G1 X79.715 Y90.862 E11.94380
G1 X80.611 Y91.858 E12.00596
G1 X81.026 Y92.368 E12.03646
G1 X81.474 Y92.960 E12.07093
G1 X82.185 Y93.996 E12.12922
G1 X82.528 Y94.552 E12.15953
G1 X83.173 Y95.720 E12.22143
G1 X83.741 Y96.928 E12.28333
G1 X83.990 Y97.531 E12.31363
G1 X84.439 Y98.794 E12.37579
G1 X84.627 Y99.419 E12.40608
G1 X84.951 Y100.719 E12.46825
G1 X85.079 Y101.365 E12.49880
G1 X85.186 Y102.015 E12.52936
G1 X85.338 Y103.341 E12.59126
G1 X85.403 Y104.673 E12.65316
G1 X85.403 Y105.327 E12.68346
G1 X85.337 Y106.665 E12.74562
G1 X85.188 Y107.974 E12.80673
G1 X84.950 Y109.286 E12.86863
G1 X84.627 Y110.581 E12.93052
G1 X84.439 Y111.206 E12.96082
G1 X83.990 Y112.469 E13.02298
G1 X83.739 Y113.078 E13.05354
G1 X83.468 Y113.678 E13.08410
G1 X82.859 Y114.872 E13.14626
G1 X82.534 Y115.438 E13.17656
G1 X81.812 Y116.565 E13.23866
G1 X81.382 Y117.164 E13.27287
G1 X80.607 Y118.146 E13.33089
G1 X79.715 Y119.138 E13.39281
G1 X78.772 Y120.058 E13.45392
G1 X77.755 Y120.929 E13.51602
G1 X77.171 Y121.379 E13.55023
G1 X76.145 Y122.094 E13.60826
G1 X75.004 Y122.787 E13.67017
G1 X74.430 Y123.098 E13.70047
G1 X73.266 Y123.656 E13.76035
G1 X73.385 Y124.093 F6000.000
G1 X72.783 Y124.347 E13.79065 F1500.000
G1 X71.504 Y124.814 E13.85382
G1 X70.858 Y125.014 E13.88522
G1 X70.205 Y125.194 E13.91662
G1 X68.878 Y125.490 E13.97970
G1 X67.535 Y125.700 E14.04278
G1 X66.862 Y125.771 E14.07416
G1 X66.103 Y125.824 E14.10949
G1 X64.825 Y125.854 E14.16875
G1 X64.151 Y125.838 E14.20006
G1 X62.795 Y125.738 E14.26314
G1 X61.448 Y125.551 E14.32622
G1 X60.785 Y125.425 E14.35753
G1 X59.461 Y125.107 E14.42070
G1 X58.168 Y124.705 E14.48350
G1 X56.899 Y124.218 E14.54657
G1 X55.664 Y123.650 E14.60965
G1 X55.063 Y123.337 E14.64105
G1 X54.474 Y123.005 E14.67246
G1 X53.323 Y122.281 E14.73554
G1 X52.221 Y121.484 E14.79861
G1 X51.693 Y121.060 E14.83002
G1 X51.179 Y120.620 E14.86142
G1 X50.191 Y119.686 E14.92450
G1 X49.265 Y118.690 E14.98757
G1 X48.410 Y117.641 E15.05037
G1 X47.620 Y116.532 E15.11354
G1 X47.256 Y115.963 E15.14485
G1 X46.579 Y114.782 E15.20802
G1 X46.272 Y114.181 E15.23933
G1 X45.713 Y112.940 E15.30250
G1 X45.466 Y112.312 E15.33381
G1 X45.031 Y111.022 E15.39696
G1 X44.826 Y110.291 E15.43219
G1 X44.539 Y109.046 E15.49144
G1 X44.406 Y108.298 E15.52667
G1 X44.241 Y107.032 E15.58591
G1 X44.182 Y106.275 E15.62115
G1 X44.142 Y105.000 E15.68032
G1 X44.187 Y103.641 E15.74340
G1 X44.242 Y102.967 E15.77479
G1 X44.331 Y102.211 E15.81011
G1 X44.539 Y100.951 E15.86935
G1 X44.701 Y100.209 E15.90459
G1 X45.032 Y98.975 E15.96385
G1 X45.237 Y98.332 E15.99517
G1 X45.714 Y97.058 E16.05824
G1 X46.272 Y95.819 E16.12132
G1 X46.580 Y95.216 E16.15272
G1 X46.907 Y94.623 E16.18413
G1 X47.622 Y93.467 E16.24720
G1 X48.410 Y92.359 E16.31028
G1 X49.265 Y91.310 E16.37308
G1 X50.192 Y90.312 E16.43625
G1 X50.675 Y89.841 E16.46756
G1 X51.695 Y88.938 E16.53073
G1 X52.221 Y88.516 E16.56204
G1 X53.324 Y87.718 E16.62521
G1 X53.890 Y87.349 E16.65652
G1 X55.065 Y86.662 E16.71969
G1 X55.664 Y86.350 E16.75100
G1 X56.901 Y85.781 E16.81417
G1 X57.527 Y85.529 E16.84548
G1 X58.813 Y85.083 E16.90865
G1 X59.461 Y84.893 E16.93996
G1 X60.784 Y84.575 E17.00311
G1 X61.531 Y84.436 E17.03834
G1 X62.794 Y84.262 E17.09751
G1 X64.150 Y84.162 E17.16058
G1 X64.909 Y84.147 E17.19581
G1 X66.184 Y84.179 E17.25497
G1 X67.538 Y84.301 E17.31804 F1500.000
G1 X68.290 Y84.408 E17.35327
G1 X69.545 Y84.647 E17.41253
G1 X70.201 Y84.805 E17.44385
G1 X71.508 Y85.188 E17.50702
G1 X72.146 Y85.409 E17.53833
G1 X73.407 Y85.916 E17.60140
G1 X74.633 Y86.505 E17.66448
G1 X75.226 Y86.826 E17.69579
G1 X76.390 Y87.532 E17.75896
G1 X76.951 Y87.911 E17.79037
G1 X77.499 Y88.308 E17.82177
G1 X78.560 Y89.158 E17.88485
G1 X79.564 Y90.076 E17.94792
G1 X80.039 Y90.555 E17.97923
G1 X80.950 Y91.567 E18.04240
G1 X81.377 Y92.092 E18.07379
G1 X81.836 Y92.699 E18.10911
G1 X82.559 Y93.753 E18.16837
G1 X82.914 Y94.327 E18.19969
G1 X83.571 Y95.517 E18.26277
G1 X84.150 Y96.747 E18.32584
G1 X84.407 Y97.371 E18.35715
G1 X84.863 Y98.654 E18.42032
G1 X85.058 Y99.300 E18.45163
G1 X85.387 Y100.622 E18.51480
G1 X85.518 Y101.286 E18.54621
G1 X85.628 Y101.954 E18.57761
G1 X85.783 Y103.305 E18.64069
G1 X85.849 Y104.663 E18.70376
G1 X85.849 Y105.337 E18.73507
G1 X85.783 Y106.697 E18.79825
G1 X85.629 Y108.042 E18.86104
G1 X85.387 Y109.380 E18.92412
G1 X85.058 Y110.700 E18.98720
G1 X84.863 Y111.346 E19.01850
G1 X84.407 Y112.629 E19.08168
G1 X84.149 Y113.254 E19.11308
G1 X83.871 Y113.872 E19.14448
G1 X83.252 Y115.084 E19.20765
G1 X82.916 Y115.670 E19.23896
G1 X82.182 Y116.816 E19.30211
