; generated by Slic3r 1.2.9 on 2016-12-10 at 22:16:36

; external perimeters extrusion width = 0.40mm
; perimeters extrusion width = 0.48mm
; infill extrusion width = 0.48mm
; solid infill extrusion width = 0.48mm
; top infill extrusion width = 0.48mm

M107
M190 S70 ; set bed temperature
M104 S200 ; set temperature
G28 ; home all axes
G1 Z5 F5000 ; lift nozzle

M109 S200 ; wait for temperature to be reached
G21 ; set units to millimeters
G90 ; use absolute coordinates
M82 ; use absolute distances for extrusion
G92 E0
G1 Z0.350 F7800.000
G1 E-2.00000 F2400.00000
G92 E0
G1 X43.117 Y55.961 F7800.000
G1 E2.00000 F2400.00000
G1 X44.006 Y55.352 E2.09795 F1800.000
G1 X44.706 Y54.934 E2.17211
G1 X45.782 Y54.380 E2.28219
G1 X91.648 Y31.839 E6.92919
G1 X93.001 Y31.259 E7.06304
G1 X93.768 Y30.991 E7.13692
G1 X94.797 Y30.701 E7.23413
G1 X95.582 Y30.531 E7.30718
G1 X96.624 Y30.370 E7.40297
G1 X97.409 Y30.297 E7.47467
G1 X98.439 Y30.262 E7.56838
G1 X99.218 Y30.281 E7.63929
G1 X100.245 Y30.367 E7.73301 F1800.000
G1 X101.026 Y30.480 E7.80471
G1 X102.058 Y30.693 E7.90051
G1 X102.833 Y30.902 E7.97353
G1 X103.847 Y31.243 E8.07078
G1 X104.600 Y31.548 E8.14466
G1 X105.571 Y32.014 E8.24261
G1 X106.283 Y32.411 E8.31677
G1 X107.301 Y33.066 E8.42686
G1 X149.755 Y61.517 E13.07385
G1 X150.934 Y62.398 E13.20770
G1 X151.550 Y62.929 E13.28158
G1 X152.315 Y63.675 E13.37879
G1 X152.855 Y64.270 E13.45185
G1 X153.515 Y65.091 E13.54763
G1 X153.971 Y65.734 E13.61931
G1 X154.516 Y66.609 E13.71305
G1 X154.889 Y67.293 E13.78392
G1 X155.328 Y68.226 E13.87767
G1 X155.621 Y68.959 E13.94939
G1 X155.953 Y69.958 E14.04516
G1 X156.159 Y70.735 E14.11823
G1 X156.371 Y71.783 E14.21544
G1 X156.482 Y72.588 E14.28932
G1 X156.565 Y73.662 E14.38728
G1 X156.577 Y74.477 E14.46142
G1 X156.519 Y75.686 E14.57152
G1 X153.069 Y127.070 E19.25433
G1 X152.933 Y128.140 E19.35236
G1 X152.781 Y128.938 E19.42624
G1 X152.518 Y129.974 E19.52346
G1 X152.273 Y130.739 E19.59651
G1 X151.891 Y131.721 E19.69228
G1 X151.563 Y132.437 E19.76392
G1 X151.078 Y133.347 E19.85770
G1 X150.671 Y134.013 E19.92863
G1 X150.083 Y134.859 E20.02232
G1 X149.595 Y135.479 E20.09406
G1 X148.895 Y136.266 E20.18983
G1 X148.326 Y136.832 E20.26283
G1 X147.524 Y137.540 E20.36009
G1 X146.883 Y138.039 E20.43397
G1 X145.994 Y138.648 E20.53194
G1 X145.294 Y139.066 E20.60609
G1 X144.218 Y139.620 E20.71618
G1 X98.352 Y162.161 E25.36317
G1 X96.999 Y162.741 E25.49702
G1 X96.232 Y163.009 E25.57090
G1 X95.203 Y163.299 E25.66812
G1 X94.417 Y163.469 E25.74117
G1 X93.376 Y163.630 E25.83695
G1 X92.591 Y163.703 E25.90868
G1 X91.561 Y163.738 E26.00237
G1 X90.781 Y163.719 E26.07330
G1 X89.755 Y163.633 E26.16699
G1 X88.974 Y163.520 E26.23871
G1 X87.942 Y163.307 E26.33448
G1 X87.167 Y163.098 E26.40755
G1 X86.153 Y162.757 E26.50477
G1 X85.401 Y162.452 E26.57857
G1 X84.429 Y161.986 E26.67660
G1 X83.717 Y161.589 E26.75071
G1 X82.698 Y160.934 E26.86084
G1 X39.924 Y132.254 E31.54367
G1 X39.066 Y131.602 E31.64168
G1 X38.451 Y131.072 E31.71551
G1 X37.685 Y130.325 E31.81277
G1 X37.145 Y129.730 E31.88581
G1 X36.485 Y128.909 E31.98161
G1 X36.029 Y128.266 E32.05332
G1 X35.484 Y127.391 E32.14702
G1 X35.111 Y126.706 E32.21796
G1 X34.672 Y125.774 E32.31165
G1 X34.379 Y125.041 E32.38337
G1 X34.047 Y124.042 E32.47915
G1 X33.841 Y123.265 E32.55221
G1 X33.629 Y122.217 E32.64942
G1 X33.518 Y121.413 E32.72328
G1 X33.435 Y120.338 E32.82125
G1 X33.423 Y119.523 E32.89540
G1 X33.481 Y118.314 E33.00550
G1 X36.931 Y66.929 E37.68838
G1 X37.067 Y65.860 E37.78633
G1 X37.219 Y65.062 E37.86022
G1 X37.482 Y64.026 E37.95743
G1 X37.727 Y63.261 E38.03049
G1 X38.109 Y62.279 E38.12626
G1 X38.438 Y61.562 E38.19799
G1 X38.922 Y60.653 E38.29168
G1 X39.329 Y59.987 E38.36262
G1 X39.917 Y59.141 E38.45631
G1 X40.405 Y58.521 E38.52803
G1 X41.105 Y57.734 E38.62381
G1 X41.674 Y57.167 E38.69686
G1 X42.476 Y56.460 E38.79408
G1 X43.070 Y55.998 E38.86251
G1 E36.86251 F2400.00000
G92 E0
G1 X60.253 Y81.243 F7800.000
G1 E2.00000 F2400.00000
G1 X61.308 Y79.159 E2.21244 F1800.000
G1 X61.799 Y78.029 E2.32445
G1 X62.173 Y76.778 E2.44321
G1 X62.397 Y75.471 E2.56375
G1 X62.459 Y74.137 E2.68521
G1 X62.357 Y72.805 E2.80666
G1 X62.095 Y71.505 E2.92721
G1 X61.683 Y70.266 E3.04597
G1 X61.139 Y69.109 E3.16227
G1 X60.462 Y68.023 E3.27857
G1 X59.644 Y67.005 E3.39733
G1 X58.695 Y66.080 E3.51787
G1 X57.632 Y65.271 E3.63933
G1 X56.477 Y64.600 E3.76078
G1 X55.258 Y64.078 E3.88133
G1 X54.004 Y63.714 E4.00009
G1 X52.687 Y63.496 E4.12149
G1 X51.492 Y63.525 E4.23013
G1 X50.256 Y63.888 E4.34725
G1 X49.160 Y64.563 E4.46437
G1 X48.301 Y65.473 E4.57815
G1 X47.701 Y66.571 E4.69192
G1 X47.397 Y67.823 E4.80905
G1 X47.434 Y69.111 E4.92617
G1 X47.719 Y70.065 E5.01677
G1 X47.890 Y70.795 E5.08492
G1 X47.881 Y70.952 E5.09925
G1 X47.819 Y71.181 E5.12079
G1 X47.712 Y71.392 E5.14233
G1 X47.614 Y71.515 E5.15667
G1 X47.210 Y71.796 E5.20142
G1 X46.731 Y71.909 E5.24617
G1 X46.573 Y71.899 E5.26050
G1 X46.344 Y71.838 E5.28204
G1 X46.133 Y71.730 E5.30359
G1 X46.010 Y71.632 E5.31792
G1 X45.669 Y71.141 E5.37233
G1 X45.409 Y70.452 E5.43926
G1 X45.204 Y69.616 E5.51752
G1 X45.100 Y68.749 E5.59696
G1 X45.103 Y67.868 E5.67700
G1 X45.214 Y66.995 E5.75705
G1 X45.429 Y66.148 E5.83649
G1 X45.741 Y65.346 E5.91475
G1 X46.136 Y64.604 E5.99118
G1 X46.616 Y63.914 E6.06762
G1 X47.188 Y63.271 E6.14588
G1 X47.843 Y62.693 E6.22532
G1 X48.569 Y62.196 E6.30536
G1 X49.351 Y61.792 E6.38540
G1 X50.171 Y61.489 E6.46484
G1 X51.008 Y61.290 E6.54310
G1 X51.890 Y61.189 E6.62383
G1 X93.605 Y58.901 E10.42264
G1 X94.829 Y58.762 E10.53465
G1 X96.100 Y58.460 E10.65340
G1 X97.343 Y58.000 E10.77395
G1 X98.530 Y57.387 E10.89541
G1 X99.632 Y56.633 E11.01686
G1 X100.626 Y55.756 E11.13741
G1 X101.494 Y54.780 E11.25617
G1 X102.224 Y53.730 E11.37247
G1 X102.826 Y52.601 E11.48876
G1 X103.299 Y51.383 E11.60752
G1 X103.625 Y50.099 E11.72807
G1 X103.794 Y48.774 E11.84953
G1 X103.798 Y47.438 E11.97098
G1 X103.640 Y46.122 E12.09153
G1 X103.329 Y44.853 E12.21029
G1 X102.858 Y43.604 E12.33169
G1 X102.236 Y42.584 E12.44033
G1 X101.304 Y41.695 E12.55745
G1 X100.171 Y41.083 E12.67457
G1 X98.953 Y40.794 E12.78835
G1 X97.703 Y40.823 E12.90212
G1 X96.467 Y41.186 E13.01924
G1 X95.370 Y41.862 E13.13637
G1 X94.686 Y42.586 E13.22697
G1 X94.139 Y43.099 E13.29511
G1 X93.999 Y43.170 E13.30945
G1 X93.770 Y43.231 E13.33099
G1 X93.533 Y43.244 E13.35253
G1 X93.377 Y43.220 E13.36686
G1 X92.932 Y43.011 E13.41162
G1 X92.595 Y42.652 E13.45637
G1 X92.524 Y42.511 E13.47070
G1 X92.463 Y42.282 E13.49224
G1 X92.451 Y42.045 E13.51379
G1 X92.474 Y41.890 E13.52812
G1 X92.729 Y41.348 E13.58253
G1 X93.196 Y40.779 E13.64946
G1 X93.817 Y40.183 E13.72772
G1 X94.516 Y39.660 E13.80716
G1 X95.280 Y39.222 E13.88720
G1 X96.092 Y38.881 E13.96724
G1 X96.933 Y38.645 E14.04668
G1 X97.781 Y38.514 E14.12474
G1 X98.647 Y38.487 E14.20350
G1 X99.461 Y38.555 E14.27780
G1 X100.304 Y38.729 E14.35606 F1800.000
G1 X101.132 Y39.007 E14.43550
G1 X101.926 Y39.388 E14.51554
G1 X102.667 Y39.863 E14.59559
G1 X103.339 Y40.421 E14.67502
G1 X103.930 Y41.047 E14.75329
G1 X104.458 Y41.761 E14.83401
G1 X127.297 Y76.743 E18.63282
G1 X128.030 Y77.733 E18.74483
G1 X128.926 Y78.683 E18.86359
G1 X129.946 Y79.529 E18.98413
G1 X131.071 Y80.251 E19.10559
G1 X132.275 Y80.828 E19.22705
G1 X133.532 Y81.251 E19.34759
G1 X134.811 Y81.514 E19.46635
G1 X136.085 Y81.621 E19.58265
G1 X137.364 Y81.578 E19.69895
G1 X138.654 Y81.378 E19.81771
G1 X139.925 Y81.021 E19.93777
G1 X141.108 Y80.534 E20.05403
G1 X142.321 Y79.838 E20.18121
G1 X143.382 Y79.043 E20.30175
G1 X144.325 Y78.140 E20.42051
G1 X145.172 Y77.108 E20.54191
G1 X145.744 Y76.059 E20.65055
G1 X146.048 Y74.807 E20.76768
G1 X146.011 Y73.519 E20.88480
G1 X145.653 Y72.321 E20.99857
G1 X145.002 Y71.252 E21.11235
G1 X144.069 Y70.363 E21.22947
G1 X142.936 Y69.751 E21.34659
G1 X141.966 Y69.521 E21.43720
G1 X141.249 Y69.304 E21.50534
G1 X141.117 Y69.218 E21.51967
G1 X140.950 Y69.050 E21.54122
G1 X140.821 Y68.851 E21.56276
G1 X140.763 Y68.705 E21.57709
G1 X140.722 Y68.214 E21.62184
G1 X140.864 Y67.743 E21.66659
G1 X140.951 Y67.611 E21.68092
G1 X141.119 Y67.444 E21.70247
G1 X141.317 Y67.315 E21.72401
G1 X141.464 Y67.257 E21.73834
G1 X142.061 Y67.207 E21.79276
G1 X142.787 Y67.327 E21.85969
G1 X143.613 Y67.567 E21.93795
G1 X144.416 Y67.911 E22.01738
G1 X145.177 Y68.354 E22.09743
G1 X145.878 Y68.886 E22.17747
G1 X146.504 Y69.496 E22.25691
G1 X147.043 Y70.167 E22.33517
G1 X147.487 Y70.880 E22.41161
G1 X147.845 Y71.641 E22.48804
G1 X148.116 Y72.458 E22.56630
G1 X148.289 Y73.314 E22.64574
G1 X148.357 Y74.192 E22.72578
G1 X148.316 Y75.071 E22.80583
G1 X148.168 Y75.932 E22.88527
G1 X147.922 Y76.757 E22.96353
G1 X147.568 Y77.571 E23.04426
G1 X128.692 Y114.841 E26.84306
G1 X128.201 Y115.971 E26.95507
G1 X127.826 Y117.222 E27.07383
G1 X127.603 Y118.529 E27.19437
G1 X127.541 Y119.863 E27.31583
G1 X127.643 Y121.195 E27.43729
G1 X127.905 Y122.495 E27.55783
G1 X128.317 Y123.734 E27.67659
G1 X128.861 Y124.891 E27.79289
G1 X129.538 Y125.977 E27.90919
G1 X130.356 Y126.995 E28.02795
G1 X131.305 Y127.920 E28.14849
G1 X132.368 Y128.729 E28.26995
G1 X133.523 Y129.400 E28.39141
G1 X134.742 Y129.922 E28.51195
G1 X135.996 Y130.286 E28.63071
G1 X137.313 Y130.504 E28.75211
G1 X138.508 Y130.475 E28.86075
G1 X139.744 Y130.112 E28.97787
G1 X140.840 Y129.437 E29.09500
G1 X141.699 Y128.527 E29.20877
G1 X142.299 Y127.429 E29.32254
G1 X142.603 Y126.177 E29.43967
G1 X142.566 Y124.889 E29.55679
G1 X142.281 Y123.935 E29.64740
G1 X142.110 Y123.205 E29.71554
G1 X142.119 Y123.048 E29.72987
G1 X142.181 Y122.819 E29.75141
G1 X142.288 Y122.608 E29.77296
G1 X142.386 Y122.485 E29.78729
G1 X142.790 Y122.204 E29.83204
G1 X143.269 Y122.091 E29.87679
G1 X143.427 Y122.101 E29.89112
G1 X143.656 Y122.162 E29.91267
G1 X143.867 Y122.270 E29.93421
G1 X143.990 Y122.368 E29.94854
G1 X144.331 Y122.859 E30.00295
G1 X144.591 Y123.548 E30.06988
G1 X144.796 Y124.384 E30.14814
G1 X144.900 Y125.251 E30.22758
G1 X144.897 Y126.132 E30.30763
G1 X144.786 Y127.005 E30.38767
G1 X144.571 Y127.852 E30.46711
G1 X144.259 Y128.654 E30.54537
G1 X143.864 Y129.396 E30.62181
G1 X143.384 Y130.086 E30.69824
G1 X142.812 Y130.729 E30.77650
G1 X142.157 Y131.307 E30.85594
G1 X141.431 Y131.804 E30.93598
G1 X140.649 Y132.208 E31.01603
G1 X139.829 Y132.511 E31.09547
G1 X138.992 Y132.710 E31.17373
G1 X138.110 Y132.811 E31.25445
G1 X96.395 Y135.099 E35.05326
G1 X95.171 Y135.238 E35.16527
G1 X93.900 Y135.540 E35.28403
G1 X92.657 Y136.000 E35.40457
G1 X91.470 Y136.613 E35.52603
G1 X90.368 Y137.367 E35.64749
G1 X89.374 Y138.244 E35.76803
G1 X88.506 Y139.220 E35.88679
G1 X87.776 Y140.270 E36.00309
G1 X87.174 Y141.399 E36.11939
G1 X86.701 Y142.616 E36.23815
G1 X86.375 Y143.901 E36.35869
G1 X86.206 Y145.224 E36.47992
G1 X86.198 Y146.532 E36.59886
G1 X86.360 Y147.878 E36.72217
G1 X86.671 Y149.147 E36.84093
G1 X87.142 Y150.396 E36.96233
G1 X87.764 Y151.416 E37.07097
G1 X88.696 Y152.305 E37.18809
G1 X89.829 Y152.917 E37.30522
G1 X91.047 Y153.206 E37.41899
G1 X92.297 Y153.177 E37.53276
G1 X93.533 Y152.813 E37.64989
G1 X94.630 Y152.138 E37.76701
G1 X95.314 Y151.414 E37.85762
G1 X95.861 Y150.901 E37.92576
G1 X96.001 Y150.830 E37.94009
G1 X96.230 Y150.769 E37.96163
G1 X96.467 Y150.756 E37.98318
G1 X96.623 Y150.780 E37.99751
G1 X97.068 Y150.989 E38.04226
G1 X97.405 Y151.348 E38.08701
G1 X97.476 Y151.489 E38.10134
G1 X97.537 Y151.718 E38.12289
G1 X97.549 Y151.955 E38.14443
G1 X97.526 Y152.110 E38.15876
G1 X97.271 Y152.652 E38.21317
G1 X96.804 Y153.221 E38.28010
G1 X96.183 Y153.817 E38.35836
G1 X95.484 Y154.340 E38.43780
G1 X94.720 Y154.778 E38.51785
G1 X93.908 Y155.119 E38.59789
G1 X93.067 Y155.355 E38.67733
G1 X92.217 Y155.487 E38.75559
G1 X91.376 Y155.515 E38.83202
G1 X90.539 Y155.445 E38.90846
G1 X89.696 Y155.271 E38.98672
G1 X88.868 Y154.993 E39.06616
G1 X88.074 Y154.612 E39.14620
G1 X87.333 Y154.137 E39.22624
G1 X86.661 Y153.579 E39.30568
G1 X86.070 Y152.953 E39.38395
G1 X85.542 Y152.239 E39.46467
G1 X62.703 Y117.257 E43.26348
G1 X61.970 Y116.267 E43.37549
G1 X61.074 Y115.317 E43.49425
G1 X60.054 Y114.471 E43.61479
G1 X58.929 Y113.749 E43.73625
G1 X57.725 Y113.172 E43.85771
G1 X56.468 Y112.749 E43.97825
G1 X55.189 Y112.486 E44.09701
G1 X53.915 Y112.379 E44.21331
G1 X52.636 Y112.422 E44.32961
G1 X51.346 Y112.622 E44.44837
G1 X50.070 Y112.981 E44.56891
G1 X48.838 Y113.497 E44.69037
G1 X47.679 Y114.162 E44.81182
G1 X46.618 Y114.957 E44.93237
G1 X45.675 Y115.860 E45.05113
G1 X44.828 Y116.893 E45.17253
G1 X44.256 Y117.941 E45.28117
G1 X43.952 Y119.193 E45.39829
G1 X43.989 Y120.481 E45.51542
G1 X44.347 Y121.679 E45.62919
G1 X44.998 Y122.748 E45.74296
G1 X45.931 Y123.637 E45.86009
G1 X47.064 Y124.249 E45.97721
G1 X48.034 Y124.479 E46.06781
G1 X48.751 Y124.696 E46.13596
G1 X48.883 Y124.782 E46.15029
G1 X49.050 Y124.950 E46.17183
G1 X49.179 Y125.149 E46.19338
G1 X49.237 Y125.295 E46.20771
G1 X49.278 Y125.786 E46.25246
G1 X49.136 Y126.257 E46.29721
G1 X49.049 Y126.389 E46.31154
G1 X48.881 Y126.556 E46.33309
G1 X48.683 Y126.685 E46.35463
G1 X48.536 Y126.743 E46.36896
G1 X47.939 Y126.793 E46.42337
G1 X47.213 Y126.673 E46.49030
G1 X46.387 Y126.433 E46.56856
G1 X45.584 Y126.089 E46.64800
G1 X44.823 Y125.646 E46.72804
G1 X44.122 Y125.114 E46.80809
G1 X43.496 Y124.504 E46.88753
G1 X42.957 Y123.833 E46.96579
G1 X42.513 Y123.120 E47.04222
G1 X42.155 Y122.359 E47.11866
G1 X41.884 Y121.542 E47.19692
G1 X41.711 Y120.686 E47.27636
G1 X41.643 Y119.808 E47.35640
G1 X41.684 Y118.929 E47.43644
G1 X41.832 Y118.068 E47.51588
G1 X42.078 Y117.243 E47.59414
G1 X42.432 Y116.429 E47.67487
G1 X60.225 Y81.296 E51.25578
G1 X59.695 Y80.961 F7800.000
G1 X60.742 Y78.893 E51.46655 F1800.000
G1 X61.211 Y77.814 E51.57349
G1 X61.564 Y76.635 E51.68541
G1 X61.775 Y75.403 E51.79901
G1 X61.833 Y74.146 E51.91347
G1 X61.737 Y72.891 E52.02794
G1 X61.490 Y71.666 E52.14154
G1 X61.102 Y70.498 E52.25346
G1 X60.589 Y69.408 E52.36302
G1 X59.952 Y68.386 E52.47258
G1 X59.181 Y67.426 E52.58449
G1 X58.286 Y66.554 E52.69809
G1 X57.284 Y65.792 E52.81256
G1 X56.196 Y65.159 E52.92702
G1 X55.047 Y64.668 E53.04062
G1 X53.865 Y64.324 E53.15254
G1 X52.643 Y64.122 E53.26521
G1 X51.590 Y64.148 E53.36102
G1 X50.513 Y64.464 E53.46305
G1 X49.558 Y65.052 E53.56508
G1 X48.810 Y65.843 E53.66403
G1 X48.289 Y66.798 E53.76297
G1 X48.024 Y67.889 E53.86500
G1 X48.056 Y69.011 E53.96703
G1 X48.323 Y69.904 E54.05186
G1 X48.520 Y70.741 E54.12998
G1 X48.501 Y71.053 E54.15842
G1 X48.406 Y71.406 E54.19167
G1 X48.240 Y71.732 E54.22492
G1 X48.045 Y71.977 E54.25336
G1 X47.468 Y72.377 E54.31723
G1 X46.785 Y72.538 E54.38110
G1 X46.472 Y72.519 E54.40954
G1 X46.119 Y72.424 E54.44279
G1 X45.793 Y72.259 E54.47604
G1 X45.549 Y72.064 E54.50448
G1 X45.111 Y71.434 E54.57424
G1 X44.811 Y70.637 E54.65162
G1 X44.588 Y69.728 E54.73672
G1 X44.475 Y68.785 E54.82310
G1 X44.478 Y67.828 E54.91014
G1 X44.599 Y66.878 E54.99718
G1 X44.833 Y65.958 E55.08356
G1 X45.172 Y65.085 E55.16866
G1 X45.602 Y64.278 E55.25184
G1 X46.124 Y63.527 E55.33501
G1 X46.746 Y62.827 E55.42012
G1 X47.458 Y62.199 E55.50650
G1 X48.248 Y61.658 E55.59354
G1 X49.099 Y61.219 E55.68057
G1 X49.990 Y60.889 E55.76696
G1 X50.900 Y60.673 E55.85206
G1 X51.838 Y60.566 E55.93785
G1 X93.553 Y58.278 E59.73666
G1 X94.721 Y58.145 E59.84360
G1 X95.919 Y57.861 E59.95552
G1 X97.090 Y57.428 E60.06912
G1 X98.209 Y56.850 E60.18358
G1 X99.248 Y56.139 E60.29804
G1 X100.185 Y55.312 E60.41164
G1 X101.002 Y54.393 E60.52356
G1 X101.690 Y53.403 E60.63312
G1 X102.257 Y52.340 E60.74268
G1 X102.702 Y51.193 E60.85460
G1 X103.010 Y49.982 E60.96820
G1 X103.169 Y48.733 E61.08266
G1 X103.173 Y47.474 E61.19712
G1 X103.024 Y46.234 E61.31073
G1 X102.731 Y45.039 E61.42264
G1 X102.294 Y43.879 E61.53531
G1 X101.746 Y42.979 E61.63113
G1 X100.934 Y42.205 E61.73316
G1 X99.946 Y41.672 E61.83519
G1 X98.888 Y41.420 E61.93413
G1 X97.800 Y41.446 E62.03308
G1 X96.723 Y41.762 E62.13511
G1 X95.768 Y42.351 E62.23714
G1 X95.127 Y43.029 E62.32196
G1 X94.501 Y43.617 E62.40009
G1 X94.221 Y43.757 E62.42853
G1 X93.868 Y43.851 E62.46178
G1 X93.503 Y43.871 E62.49503
G1 X93.194 Y43.824 E62.52346
G1 X92.558 Y43.525 E62.58734
G1 X92.077 Y43.013 E62.65121
G1 X91.937 Y42.734 E62.67965
