; generated by Slic3r 1.2.9 on 2016-12-18 at 00:13:30

; external perimeters extrusion width = 0.40mm
; perimeters extrusion width = 0.67mm
; infill extrusion width = 0.67mm
; solid infill extrusion width = 0.67mm
; top infill extrusion width = 0.67mm

M107
M190 S70 ; set bed temperature
M104 S200 ; set temperature
G28 ; home all axes
G1 Z5 F5000 ; lift nozzle

M109 S200 ; wait for temperature to be reached
G21 ; set units to millimeters
G90 ; use absolute coordinates
M82 ; use absolute distances for extrusion
G92 E0
G1 Z0.250 F7800.000
G1 E-2.00000 F2400.00000
G92 E0
G1 X68.512 Y93.464 F7800.000
G1 E2.00000 F2400.00000
G1 X69.000 Y93.133 E2.02734 F1500.000
G1 X69.467 Y92.863 E2.05235
G1 X70.036 Y92.585 E2.08172
G1 X70.440 Y92.421 E2.10195
G1 X70.913 Y92.258 E2.12518
G1 X71.419 Y92.119 E2.14952
G1 X71.997 Y92.001 E2.17691
G1 X72.529 Y91.930 E2.20181
G1 X96.272 Y90.475 E3.30538
G1 X97.088 Y90.442 E3.34323
G1 X97.831 Y90.438 E3.37772
G1 X98.646 Y90.465 E3.41554 F1500.000
G1 X99.433 Y90.519 E3.45215
G1 X100.342 Y90.619 E3.49459
G1 X101.142 Y90.740 E3.53208
G1 X101.906 Y90.886 E3.56820
G1 X102.684 Y91.063 E3.60522
G1 X103.526 Y91.289 E3.64563
G1 X104.283 Y91.525 E3.68244
G1 X105.020 Y91.784 E3.71869
G1 X105.802 Y92.093 E3.75770
G1 X106.568 Y92.431 E3.79654
G1 X107.296 Y92.788 E3.83415
G1 X108.017 Y93.175 E3.87210
G1 X108.705 Y93.579 E3.90914
G1 X109.414 Y94.031 E3.94813
G1 X110.109 Y94.515 E3.98745
G1 X110.733 Y94.985 E4.02368
G1 X111.490 Y95.608 E4.06916
G1 X112.202 Y96.249 E4.11358
G1 X112.781 Y96.816 E4.15120
G1 X113.403 Y97.476 E4.19327
G1 X113.964 Y98.122 E4.23295
G1 X114.585 Y98.902 E4.27922
G1 X115.127 Y99.651 E4.32209
G1 X115.616 Y100.392 E4.36329
G1 X116.038 Y101.090 E4.40115
G1 X116.279 Y101.538 E4.42473
G1 X116.491 Y102.001 E4.44837
G1 X116.716 Y102.609 E4.47841
G1 X116.888 Y103.223 E4.50802
G1 X116.995 Y103.757 E4.53328
G1 X117.079 Y104.499 E4.56793
G1 X117.095 Y105.037 E4.59289
G1 X117.071 Y105.618 E4.61987
G1 X117.006 Y106.175 E4.64588
G1 X116.892 Y106.759 E4.67351
G1 X116.688 Y107.475 E4.70803
G1 X116.519 Y107.930 E4.73054
G1 X116.347 Y108.322 E4.75041
G1 X116.034 Y108.918 E4.78166
G1 X115.560 Y109.697 E4.82393
G1 X115.086 Y110.409 E4.86365
G1 X114.597 Y111.083 E4.90225
G1 X113.995 Y111.841 E4.94714
G1 X113.392 Y112.537 E4.98986
G1 X112.808 Y113.157 E5.02938
G1 X112.145 Y113.804 E5.07238
G1 X111.508 Y114.377 E5.11212
G1 X110.823 Y114.944 E5.15335
G1 X110.220 Y115.404 E5.18854
G1 X109.514 Y115.902 E5.22862
G1 X108.859 Y116.327 E5.26488
G1 X108.127 Y116.762 E5.30436
G1 X107.406 Y117.155 E5.34248
G1 X106.618 Y117.545 E5.38328
G1 X105.969 Y117.836 E5.41626
G1 X105.248 Y118.130 E5.45235
G1 X104.415 Y118.432 E5.49349
G1 X103.555 Y118.703 E5.53531
G1 X102.861 Y118.893 E5.56869
G1 X102.087 Y119.076 E5.60561
G1 X101.245 Y119.242 E5.64542
G1 X100.443 Y119.367 E5.68305
G1 X99.719 Y119.454 E5.71690
G1 X98.882 Y119.522 E5.75584
G1 X98.127 Y119.556 E5.79091
G1 X97.405 Y119.563 E5.82440
G1 X96.509 Y119.538 E5.86597
G1 X72.530 Y118.070 E6.98055
G1 X72.045 Y118.007 E7.00320
G1 X71.416 Y117.880 E7.03300
G1 X70.814 Y117.711 E7.06198
G1 X70.123 Y117.453 E7.09624
G1 X69.604 Y117.210 E7.12279
G1 X69.086 Y116.920 E7.15031
G1 X68.591 Y116.593 E7.17786
G1 X68.083 Y116.201 E7.20764
G1 X67.503 Y115.662 E7.24434
G1 X67.003 Y115.100 E7.27926
G1 X66.614 Y114.580 E7.30938
G1 X66.180 Y113.869 E7.34805
G1 X65.870 Y113.238 E7.38065
G1 X65.655 Y112.692 E7.40789
G1 X65.528 Y112.306 E7.42674
G1 X65.392 Y111.796 E7.45122
G1 X65.285 Y111.256 E7.47676
G1 X65.200 Y110.577 E7.50848
G1 X65.170 Y109.974 E7.53650
G1 X65.173 Y99.913 E8.00324
G1 X65.196 Y99.473 E8.02369
G1 X65.248 Y98.981 E8.04666
G1 X65.380 Y98.258 E8.08076
G1 X65.493 Y97.815 E8.10197
G1 X65.655 Y97.308 E8.12663
G1 X65.861 Y96.785 E8.15274
G1 X66.090 Y96.300 E8.17763
G1 X66.535 Y95.539 E8.21850
G1 X66.811 Y95.147 E8.24073
G1 X67.132 Y94.745 E8.26464
G1 X67.746 Y94.099 E8.30598
G1 X68.009 Y93.863 E8.32233
G1 X68.464 Y93.499 E8.34938
G1 E6.34938 F2400.00000
G92 E0
G1 X99.577 Y109.785 F7800.000
G1 E2.00000 F2400.00000
G1 X99.695 Y109.612 E2.00968 F1500.000
G1 X99.873 Y109.497 E2.01952
G1 X100.353 Y109.359 E2.04271
G1 X100.506 Y109.291 E2.05047
G1 X100.703 Y109.123 E2.06248
G1 X100.837 Y108.900 E2.07454
G1 X101.055 Y108.330 E2.10285
G1 X101.241 Y107.942 E2.12282
G1 X101.298 Y107.726 E2.13321
G1 X101.258 Y107.519 E2.14299
G1 X100.985 Y106.896 E2.17455
G1 X100.391 Y105.291 E2.25393
G1 X100.090 Y104.560 E2.29060
G1 X99.998 Y104.236 E2.30623
G1 X99.964 Y103.867 E2.32342
G1 X100.022 Y103.585 E2.33677
G1 X100.108 Y103.439 E2.34462
G1 X100.272 Y103.301 E2.35458
G1 X100.548 Y103.230 E2.36777
G1 X100.794 Y103.251 E2.37924
G1 X101.002 Y103.321 E2.38941
G1 X101.203 Y103.453 E2.40057
G1 X101.345 Y103.628 E2.41102
G1 X101.442 Y103.844 E2.42202
G1 X101.628 Y104.492 E2.45328
G1 X101.957 Y105.334 E2.49525
G1 X102.147 Y105.327 E2.50409
G1 X102.592 Y104.021 E2.56812
G1 X102.730 Y103.726 E2.58319
G1 X102.886 Y103.498 E2.59603
G1 X103.054 Y103.338 E2.60680
G1 X103.245 Y103.245 E2.61665
G1 X103.452 Y103.234 E2.62626
G1 X103.655 Y103.306 E2.63625
G1 X103.836 Y103.447 E2.64689
G1 X103.977 Y103.636 E2.65784
G1 X104.066 Y103.863 E2.66915
G1 X104.083 Y104.079 E2.67918
G1 X104.012 Y104.372 E2.69317
G1 X103.725 Y105.027 E2.72632
G1 X103.512 Y105.673 E2.75792
G1 X102.560 Y108.333 E2.88899
G1 X102.178 Y109.317 E2.93794
G1 X101.906 Y109.916 E2.96845
G1 X101.787 Y110.116 E2.97926
G1 X101.608 Y110.346 E2.99280
G1 X101.321 Y110.578 E3.00991
G1 X101.045 Y110.714 E3.02419
G1 X100.820 Y110.792 E3.03522
G1 X100.520 Y110.860 E3.04950
G1 X100.267 Y110.871 E3.06125
G1 X100.046 Y110.826 E3.07169
G1 X99.888 Y110.747 E3.07988
G1 X99.690 Y110.542 E3.09312
G1 X99.584 Y110.318 E3.10463
G1 X99.543 Y110.152 E3.11256
G1 X99.534 Y109.994 E3.11990
G1 X99.565 Y109.843 E3.12704
G1 X99.462 Y109.610 F7800.000
G1 X99.091 Y108.267 F7800.000
G1 X98.861 Y108.341 E3.13824 F1500.000
G1 X98.620 Y108.347 E3.14941
G1 X98.402 Y108.280 E3.16001
G1 X98.224 Y108.147 E3.17030
G1 X98.031 Y107.880 E3.18558
G1 X97.608 Y107.118 E3.22602
G1 X97.472 Y107.419 E3.24136
G1 X97.278 Y107.750 E3.25914
G1 X97.069 Y108.045 E3.27592
G1 X96.897 Y108.216 E3.28716
G1 X96.636 Y108.335 E3.30046
G1 X96.344 Y108.307 E3.31409
G1 X96.079 Y108.161 E3.32814
G1 X95.923 Y107.977 E3.33932
G1 X95.854 Y107.779 E3.34905
G1 X95.849 Y107.621 E3.35637
G1 X95.892 Y107.406 E3.36656
G1 X95.960 Y107.235 E3.37511
G1 X96.489 Y106.305 E3.42473
G1 X96.814 Y105.847 E3.45079
G1 X96.846 Y105.757 E3.45521
G1 X96.583 Y105.336 E3.47823
G1 X96.119 Y104.519 E3.52182
G1 X96.022 Y104.324 E3.53194
G1 X95.936 Y104.069 E3.54443
G1 X95.921 Y103.792 E3.55730
G1 X95.971 Y103.616 E3.56579
G1 X96.051 Y103.499 E3.57236
G1 X96.254 Y103.331 E3.58458
G1 X96.414 Y103.262 E3.59268
G1 X96.601 Y103.229 E3.60151
G1 X96.783 Y103.246 E3.60996
G1 X96.923 Y103.297 E3.61689
G1 X97.054 Y103.379 E3.62405
G1 X97.224 Y103.545 E3.63507
G1 X97.454 Y103.878 E3.65387
G1 X97.688 Y104.333 E3.67758
G1 X97.831 Y104.009 E3.69401
G1 X97.983 Y103.735 E3.70855
G1 X98.172 Y103.507 E3.72228
G1 X98.365 Y103.346 E3.73396
G1 X98.630 Y103.232 E3.74732
G1 X98.912 Y103.255 E3.76045
G1 X99.162 Y103.415 E3.77421
G1 X99.326 Y103.641 E3.78718
G1 X99.395 Y103.932 E3.80106
G1 X99.315 Y104.248 E3.81619
G1 X98.626 Y105.414 E3.87899
G1 X98.557 Y105.580 E3.88735
G1 X98.534 Y105.700 E3.89303
G1 X98.544 Y105.808 E3.89807
G1 X98.587 Y105.925 E3.90384
G1 X99.269 Y107.060 E3.96528
G1 X99.408 Y107.368 E3.98094
G1 X99.447 Y107.630 E3.99322
G1 X99.416 Y107.875 E4.00470
G1 X99.309 Y108.090 E4.01585
G1 X99.137 Y108.229 E4.02608
G1 X99.069 Y108.507 F7800.000
G1 E2.02608 F2400.00000
G92 E0
G1 X108.113 Y106.087 F7800.000
G1 E2.00000 F2400.00000
G1 X108.833 Y105.039 E2.05899 F1500.000
G1 X109.013 Y104.635 E2.07951
G1 X109.082 Y104.266 E2.09694
G1 X109.480 Y104.920 E2.13248
G1 X109.501 Y105.009 E2.13670
G1 X109.472 Y105.093 E2.14081
G1 X109.235 Y105.500 E2.16267
G1 X108.638 Y106.372 E2.21173
G1 X108.408 Y106.198 E2.22511
G1 X108.170 Y106.108 E2.23691
G1 E0.23691 F2400.00000
G92 E0
G1 X107.582 Y102.342 F7800.000
G1 E2.00000 F2400.00000
G1 X105.375 Y102.338 E2.10241 F1500.000
G1 X105.052 Y102.361 E2.11741
G1 X104.650 Y102.448 E2.13650
G1 X104.255 Y102.642 E2.15692
G1 X104.091 Y102.514 E2.16656
G1 X103.583 Y102.332 E2.19161
G1 X103.016 Y102.364 E2.21796
G1 X102.540 Y102.596 E2.24253
G1 X102.203 Y102.916 E2.26409
G1 X102.072 Y103.107 E2.27481
G1 X101.807 Y102.782 E2.29425
G1 X101.394 Y102.511 E2.31715
G1 X100.977 Y102.371 E2.33760
G1 X100.473 Y102.328 E2.36107
G1 X99.853 Y102.487 E2.39074
G1 X99.644 Y102.663 E2.40344
G1 X99.206 Y102.383 E2.42754
G1 X98.481 Y102.324 E2.46129
G1 X97.894 Y102.577 E2.49095
G1 X97.686 Y102.749 E2.50346
G1 X97.608 Y102.673 E2.50853
G1 X97.318 Y102.491 E2.52443
G1 X96.980 Y102.368 E2.54109
G1 X96.566 Y102.329 E2.56040
G1 X96.158 Y102.400 E2.57963
G1 X95.782 Y102.562 E2.59858
G1 X95.385 Y102.892 E2.62255
G1 X95.152 Y103.231 E2.64162
G1 X95.021 Y103.691 E2.66381
G1 X95.051 Y104.239 E2.68930
G1 X95.195 Y104.666 E2.71021
G1 X95.612 Y105.434 E2.75073
G1 X95.475 Y105.578 E2.75997
G1 X95.058 Y105.367 E2.78162
G1 X94.678 Y105.255 E2.80003
G1 X94.255 Y105.219 E2.81972
G1 X94.264 Y104.980 E2.83082
G1 X94.241 Y104.382 E2.85857
G1 X94.129 Y103.674 E2.89182
G1 X94.026 Y103.307 E2.90952
G1 X93.838 Y102.830 E2.93332
G1 X93.511 Y102.271 E2.96336
G1 X93.129 Y101.826 E2.99057
G1 X92.638 Y101.433 E3.01972
G1 X92.084 Y101.163 E3.04831
G1 X91.468 Y101.002 E3.07787
G1 X90.908 Y100.929 E3.10407
G1 X89.189 Y100.890 E3.18381
G1 X88.710 Y100.940 E3.20617
G1 X88.135 Y101.162 E3.23475
G1 X87.602 Y101.682 E3.26930
G1 X87.352 Y101.412 E3.28638
G1 X87.071 Y101.195 E3.30284
G1 X86.680 Y100.985 E3.32345
G1 X86.351 Y100.868 E3.33966
G1 X85.917 Y100.774 E3.36022
G1 X85.542 Y100.734 E3.37774
G1 X85.099 Y100.730 E3.39828
G1 X84.767 Y100.755 E3.41375
G1 X84.307 Y100.837 E3.43542
G1 X83.865 Y100.986 E3.45708
G1 X83.453 Y101.199 E3.47856
G1 X83.310 Y101.307 E3.48688
G1 X83.129 Y101.144 E3.49821
G1 X82.717 Y100.960 E3.51913
G1 X82.369 Y100.902 E3.53549
G1 X79.016 Y100.913 E3.69108
G1 X78.323 Y100.865 E3.72327
G1 X77.831 Y100.941 E3.74637
G1 X77.391 Y101.174 E3.76946
G1 X77.173 Y101.405 E3.78419
G1 X76.937 Y101.224 E3.79803
G1 X76.528 Y101.001 E3.81959
G1 X76.065 Y100.841 E3.84234
G1 X75.558 Y100.751 E3.86622
G1 X75.111 Y100.729 E3.88698
G1 X74.755 Y100.742 E3.90353
G1 X74.357 Y100.795 E3.92212
G1 X73.954 Y100.895 E3.94139
G1 X73.633 Y101.012 E3.95724
G1 X73.322 Y101.163 E3.97330
G1 X72.761 Y101.522 E4.00418
G1 X72.762 Y100.105 E4.06993
G1 X72.817 Y99.826 E4.08313
G1 X72.859 Y99.740 E4.08758
G1 X72.950 Y99.627 E4.09429
G1 X73.047 Y99.558 E4.09981
G1 X73.187 Y99.505 E4.10677
G1 X73.389 Y99.473 E4.11626
G1 X96.714 Y98.051 E5.20037
G1 X97.561 Y98.027 E5.23969
G1 X98.563 Y98.063 E5.28619
G1 X99.315 Y98.139 E5.32126
G1 X100.079 Y98.260 E5.35712
G1 X101.105 Y98.493 E5.40597
G1 X101.849 Y98.713 E5.44195
G1 X102.843 Y99.082 E5.49115
G1 X103.638 Y99.443 E5.53167
G1 X104.495 Y99.903 E5.57677
G1 X105.165 Y100.320 E5.61339
G1 X106.025 Y100.939 E5.66252
G1 X106.770 Y101.564 E5.70766
G1 X107.539 Y102.301 E5.75705
G1 X103.131 Y102.805 F7800.000
G1 X102.797 Y102.967 E5.77427 F1500.000
G1 X102.544 Y103.207 E5.79043
G1 X102.341 Y103.504 E5.80713
G1 X102.137 Y103.970 E5.83073
G1 X101.941 Y103.964 E5.83982
G1 X101.862 Y103.691 E5.85303
G1 X101.729 Y103.392 E5.86823
G1 X101.505 Y103.118 E5.88464
G1 X101.198 Y102.916 E5.90167
G1 X100.885 Y102.811 E5.91698
G1 X100.510 Y102.779 E5.93444
G1 X100.063 Y102.894 E5.95588
G1 X99.762 Y103.147 E5.97410
G1 X99.653 Y103.331 E5.98404
G1 X99.473 Y103.084 E5.99823
G1 X99.059 Y102.819 E6.02105
G1 X98.555 Y102.778 E6.04448
G1 X98.130 Y102.961 E6.06599
G1 X97.855 Y103.190 E6.08259
G1 X97.673 Y103.409 E6.09579
G1 X97.567 Y103.255 E6.10448
G1 X97.331 Y103.026 E6.11972
G1 X97.120 Y102.894 E6.13125
G1 X96.882 Y102.807 E6.14304
G1 X96.584 Y102.779 E6.15693
G1 X96.286 Y102.831 E6.17095
G1 X96.018 Y102.946 E6.18448
G1 X95.718 Y103.195 E6.20257
G1 X95.562 Y103.423 E6.21539
G1 X95.471 Y103.741 E6.23073
G1 X95.493 Y104.154 E6.24991
G1 X95.609 Y104.495 E6.26661
G1 X96.203 Y105.570 E6.32360
G1 X96.329 Y105.760 E6.33417
G1 X96.113 Y106.065 E6.35153
G1 X95.799 Y106.616 E6.38093
G1 X95.607 Y106.318 E6.39738
G1 X95.400 Y106.097 E6.41139
G1 X95.161 Y105.920 E6.42519
G1 X94.893 Y105.784 E6.43914
G1 X94.595 Y105.696 E6.45357
G1 X94.240 Y105.666 E6.47009
G1 X93.751 Y105.727 E6.49293
G1 X93.802 Y105.379 E6.50924
G1 X93.817 Y104.980 E6.52776
G1 X93.796 Y104.426 E6.55348
G1 X93.692 Y103.769 E6.58431
G1 X93.603 Y103.449 E6.59974
G1 X93.436 Y103.025 E6.62087
G1 X93.146 Y102.531 E6.64745
G1 X92.818 Y102.148 E6.67086
G1 X92.398 Y101.813 E6.69576
G1 X91.929 Y101.584 E6.72000
G1 X91.382 Y101.441 E6.74620
G1 X90.874 Y101.375 E6.76998
G1 X89.208 Y101.337 E6.84729
G1 X88.816 Y101.378 E6.86558
G1 X88.382 Y101.546 E6.88717
G1 X88.024 Y101.895 E6.91036
G1 X87.891 Y102.375 E6.93347
G1 X87.938 Y103.066 E6.96563
G1 X87.935 Y105.182 E7.06376
G1 X87.713 Y105.220 E7.07420
G1 X87.584 Y104.860 E7.09195
G1 X87.412 Y104.564 E7.10781
G1 X87.331 Y104.480 E7.11326
G1 X87.505 Y104.198 E7.12863
G1 X87.624 Y103.759 E7.14973
G1 X87.666 Y103.188 E7.17627
G1 X87.643 Y102.804 E7.19412
G1 X87.512 Y102.357 E7.21574
G1 X87.305 Y102.019 E7.23414
G1 X87.050 Y101.743 E7.25158
G1 X86.827 Y101.571 E7.26463
G1 X86.498 Y101.394 E7.28197
G1 X86.228 Y101.298 E7.29525
G1 X85.846 Y101.216 E7.31338
G1 X85.516 Y101.180 E7.32879
G1 X85.114 Y101.176 E7.34744
G1 X84.823 Y101.198 E7.36099
G1 X84.418 Y101.271 E7.38006
G1 X84.040 Y101.398 E7.39860
G1 X83.692 Y101.578 E7.41673
G1 X83.408 Y101.794 E7.43330
G1 X83.249 Y101.979 E7.44462
G1 X83.110 Y101.727 E7.45798
G1 X82.883 Y101.523 E7.47217
G1 X82.587 Y101.391 E7.48718
G1 X82.333 Y101.348 E7.49914
G1 X79.001 Y101.360 E7.65373
G1 X78.342 Y101.313 E7.68435
G1 X77.974 Y101.371 E7.70165
G1 X77.665 Y101.534 E7.71785
G1 X77.419 Y101.795 E7.73451
G1 X77.252 Y102.112 E7.75109
G1 X77.024 Y101.852 E7.76712
G1 X76.693 Y101.599 E7.78646
G1 X76.347 Y101.411 E7.80472
G1 X75.952 Y101.274 E7.82411
G1 X75.508 Y101.196 E7.84502
G1 X75.108 Y101.176 E7.86361
G1 X74.792 Y101.187 E7.87828
G1 X74.441 Y101.234 E7.89472
G1 X74.085 Y101.322 E7.91172
G1 X73.808 Y101.424 E7.92543
G1 X73.540 Y101.553 E7.93922
G1 X73.190 Y101.778 E7.95854
G1 X72.952 Y101.975 E7.97284
G1 X72.666 Y102.280 E7.99227
G1 X72.499 Y102.506 E8.00529
G1 X72.315 Y102.445 E8.01428
G1 X72.316 Y100.071 E8.12443
G1 X72.358 Y99.791 E8.13757
G1 X72.402 Y99.657 E8.14413
G1 X72.473 Y99.513 E8.15155
G1 X72.643 Y99.302 E8.16415
G1 X72.851 Y99.155 E8.17593
G1 X73.072 Y99.072 E8.18689
G1 X73.341 Y99.029 E8.19953
G1 X96.694 Y97.605 E9.28497
G1 X97.563 Y97.580 E9.32529
G1 X98.593 Y97.617 E9.37313
G1 X99.372 Y97.696 E9.40946
G1 X100.163 Y97.821 E9.44659
G1 X101.218 Y98.061 E9.49679
G1 X101.990 Y98.290 E9.53415
G1 X103.013 Y98.669 E9.58477
G1 X103.836 Y99.043 E9.62671
G1 X104.719 Y99.517 E9.67317
G1 X105.414 Y99.949 E9.71114
G1 X106.299 Y100.586 E9.76174
G1 X107.069 Y101.231 E9.80834
G1 X107.717 Y101.854 E9.85004
G1 X108.307 Y102.495 E9.89043
G1 X108.909 Y103.239 E9.93485
G1 X109.423 Y103.967 E9.97623
G1 X109.883 Y104.725 E10.01735
G1 X109.928 Y104.845 E10.02327
G1 X109.948 Y104.983 E10.02976
G1 X109.937 Y105.113 E10.03581
G1 X109.881 Y105.279 E10.04392
G1 X109.614 Y105.736 E10.06847
G1 X109.202 Y106.359 E10.10311
G1 X108.651 Y107.088 E10.14551
G1 X108.424 Y106.771 E10.16360
G1 X108.190 Y106.593 E10.17726
G1 X107.802 Y106.447 E10.19650
G1 X107.346 Y106.396 E10.21777
G1 X108.174 Y105.232 E10.28401
G1 X108.440 Y104.825 E10.30659
G1 X108.584 Y104.501 E10.32302
G1 X108.656 Y104.115 E10.34128
G1 X108.636 Y103.738 E10.35880
G1 X108.508 Y103.362 E10.37717
G1 X108.334 Y103.117 E10.39115
G1 X108.033 Y102.893 E10.40857
G1 X107.609 Y102.789 E10.42882
G1 X105.390 Y102.785 E10.53176
G1 X105.115 Y102.804 E10.54453
G1 X104.798 Y102.872 E10.55960
G1 X104.482 Y103.028 E10.57590
G1 X104.256 Y103.264 E10.59110
G1 X104.157 Y103.132 E10.59874
G1 X103.873 Y102.910 E10.61548
G1 X103.518 Y102.783 E10.63300
G1 X103.190 Y102.801 E10.64819
G1 E8.64819 F2400.00000
G92 E0
