; generated by Slic3r 1.2.9 on 2016-12-30 at 20:26:04

; external perimeters extrusion width = 0.40mm
; perimeters extrusion width = 0.67mm
; infill extrusion width = 0.67mm
; solid infill extrusion width = 0.67mm
; top infill extrusion width = 0.67mm

M107
M190 S65 ; set bed temperature
M104 S200 ; set temperature
G28 ; home all axes
G1 Z5 F5000 ; lift nozzle

M109 S200 ; wait for temperature to be reached
G21 ; set units to millimeters
G90 ; use absolute coordinates
M82 ; use absolute distances for extrusion
G92 E0
G1 Z0.250 F7800.000
G1 E-2.00000 F2400.00000
G92 E0
G1 X27.651 Y40.215 F7800.000
G1 E2.00000 F2400.00000
G1 X28.330 Y39.790 E2.03714 F1500.000
G1 X28.958 Y39.464 E2.06997
G1 X29.454 Y39.247 E2.09509
G1 X30.186 Y38.984 E2.13120
G1 X30.552 Y38.877 E2.14888
G1 X31.336 Y38.702 E2.18616
G1 X32.124 Y38.595 E2.22302
G1 X32.833 Y38.556 E2.25599
G1 X147.170 Y38.556 E7.56037
G1 X147.877 Y38.595 E7.59324 F1500.000
G1 X148.664 Y38.702 E7.63009
G1 X149.448 Y38.877 E7.66733
G1 X150.213 Y39.118 E7.70456
G1 X150.957 Y39.423 E7.74186
G1 X151.672 Y39.791 E7.77917
G1 X152.349 Y40.215 E7.81623
G1 X152.992 Y40.700 E7.85359
G1 X153.589 Y41.233 E7.89071
G1 X154.282 Y41.986 E7.93818
G1 X157.064 Y45.511 E8.14655
G1 X158.130 Y47.507 E8.25149
G1 X158.389 Y48.644 E8.30560
G1 X165.693 Y103.144 E10.85660
G1 X165.750 Y104.000 E10.89641
G1 X165.750 Y106.000 E10.98920
G1 X165.693 Y106.856 E11.02901
G1 X158.389 Y161.356 E13.58001
G1 X157.700 Y163.511 E13.68496
G1 X157.064 Y164.489 E13.73906
G1 X154.304 Y167.988 E13.94581
G1 X153.767 Y168.589 E13.98324
G1 X153.197 Y169.127 E14.01958
G1 X152.588 Y169.614 E14.05574
G1 X151.939 Y170.050 E14.09202
G1 X151.258 Y170.430 E14.12822
G1 X150.959 Y170.576 E14.14364
G1 X150.322 Y170.841 E14.17567
G1 X149.453 Y171.122 E14.21803
G1 X148.672 Y171.297 E14.25515
G1 X147.878 Y171.405 E14.29233
G1 X147.161 Y171.444 E14.32565
G1 X32.837 Y171.444 E19.62946
G1 X31.952 Y171.386 E19.67059
G1 X31.336 Y171.298 E19.69946
G1 X30.942 Y171.218 E19.71811
G1 X30.417 Y171.085 E19.74322
G1 X29.784 Y170.881 E19.77409
G1 X29.043 Y170.576 E19.81127
G1 X28.268 Y170.173 E19.85180
G1 X27.412 Y169.614 E19.89924
G1 X26.803 Y169.127 E19.93541
G1 X26.410 Y168.766 E19.96017
G1 X25.873 Y168.197 E19.99643
G1 X25.386 Y167.588 E20.03262
G1 X24.950 Y166.940 E20.06888
G1 X24.570 Y166.259 E20.10505
G1 X24.422 Y165.955 E20.12071
G1 X24.159 Y165.322 E20.15253
G1 X23.879 Y164.455 E20.19480
G1 X23.703 Y163.669 E20.23218
G1 X23.595 Y162.876 E20.26928
G1 X23.556 Y162.167 E20.30224
G1 X23.556 Y47.833 E25.60648
G1 X23.594 Y47.131 E25.63912
G1 X23.644 Y46.710 E25.65876
G1 X23.733 Y46.178 E25.68380
G1 X23.877 Y45.552 E25.71360
G1 X24.159 Y44.678 E25.75621
G1 X24.423 Y44.044 E25.78809
G1 X24.570 Y43.741 E25.80369
G1 X24.827 Y43.267 E25.82869
G1 X25.214 Y42.653 E25.86241
G1 X25.873 Y41.803 E25.91230
G1 X26.410 Y41.234 E25.94856
G1 X26.803 Y40.873 E25.97332
G1 X27.602 Y40.250 E26.02035
G1 E24.02035 F2400.00000
G92 E0
G1 X148.857 Y99.357 F7800.000
G1 E2.00000 F2400.00000
G1 X148.857 Y110.643 E2.52356 F1500.000
G1 X150.857 Y110.643 E2.61634
G1 X150.857 Y159.357 E4.87634
G1 X148.857 Y159.357 E4.96912
G1 X148.857 Y161.957 E5.08973
G1 X148.800 Y162.454 E5.11292
G1 X148.621 Y162.902 E5.13530
G1 X148.349 Y163.274 E5.15669
G1 X148.018 Y163.548 E5.17665
G1 X147.722 Y163.709 E5.19228
G1 X147.309 Y163.827 E5.21220
G1 X146.952 Y163.857 E5.22882
G1 X33.048 Y163.857 E10.51314
G1 X32.691 Y163.827 E10.52976
G1 X32.377 Y163.748 E10.54481
G1 X31.987 Y163.552 E10.56505
G1 X31.651 Y163.274 E10.58528
G1 X31.452 Y163.018 E10.60031
G1 X31.291 Y162.722 E10.61594
G1 X31.173 Y162.309 E10.63586
G1 X31.143 Y161.952 E10.65249
G1 X31.143 Y48.048 E15.93681
G1 X31.173 Y47.691 E15.95343
G1 X31.252 Y47.377 E15.96847
G1 X31.448 Y46.987 E15.98871
G1 X31.726 Y46.651 E16.00895
G1 X31.982 Y46.452 E16.02398
G1 X32.278 Y46.291 E16.03961
G1 X32.691 Y46.173 E16.05953
G1 X33.048 Y46.143 E16.07615
G1 X146.955 Y46.143 E21.36061
G1 X147.453 Y46.200 E21.38388
G1 X147.902 Y46.379 E21.40627
G1 X148.255 Y46.636 E21.42656
G1 X148.555 Y46.986 E21.44794
G1 X148.751 Y47.394 E21.46892
G1 X148.828 Y47.697 E21.48346
G1 X148.857 Y48.047 E21.49974
G1 X148.857 Y50.643 E21.62015
G1 X150.857 Y50.643 E21.71294
G1 X150.857 Y99.357 E23.97294
G1 X148.917 Y99.357 E24.06294
G1 X149.304 Y99.804 F7800.000
G1 X149.304 Y104.696 E24.28993 F1500.000
G1 X158.607 Y104.696 E24.72155
G1 X158.607 Y105.304 E24.74973
G1 X149.304 Y105.304 E25.18135
G1 X149.304 Y110.196 E25.40834
G1 X151.304 Y110.196 E25.50112
G1 X151.304 Y159.804 E27.80254
G1 X149.304 Y159.804 E27.89532
G1 X149.304 Y161.976 E27.99608
G1 X149.269 Y162.391 E28.01543
G1 X149.181 Y162.739 E28.03206
G1 X149.019 Y163.107 E28.05072
G1 X148.932 Y163.252 E28.05855
G1 X148.684 Y163.570 E28.07726
G1 X148.570 Y163.685 E28.08478
G1 X148.263 Y163.923 E28.10280
G1 X147.910 Y164.115 E28.12144
G1 X147.760 Y164.173 E28.12893
G1 X147.383 Y164.269 E28.14695
G1 X146.971 Y164.304 E28.16615
G1 X33.029 Y164.304 E33.45221
G1 X32.617 Y164.269 E33.47141
G1 X32.240 Y164.173 E33.48943
G1 X32.089 Y164.115 E33.49695
G1 X31.742 Y163.927 E33.51527
G1 X31.430 Y163.684 E33.53359
G1 X31.316 Y163.570 E33.54111
G1 X31.077 Y163.263 E33.55913
G1 X30.885 Y162.910 E33.57777
G1 X30.827 Y162.760 E33.58526
G1 X30.731 Y162.383 E33.60328
G1 X30.696 Y161.971 E33.62248
G1 X30.696 Y48.029 E38.90854
G1 X30.731 Y47.617 E38.92774
G1 X30.827 Y47.240 E38.94576
G1 X30.885 Y47.089 E38.95328
G1 X31.073 Y46.742 E38.97160
G1 X31.316 Y46.430 E38.98992
G1 X31.430 Y46.316 E38.99744
G1 X31.737 Y46.077 E39.01546
G1 X32.090 Y45.885 E39.03410
G1 X32.240 Y45.827 E39.04159
G1 X32.617 Y45.731 E39.05961
G1 X33.029 Y45.696 E39.07881
G1 X146.973 Y45.696 E44.36499
G1 X147.391 Y45.731 E44.38444
G1 X147.563 Y45.767 E44.39259
G1 X147.739 Y45.819 E44.40108
G1 X148.107 Y45.981 E44.41975
G1 X148.252 Y46.068 E44.42758
G1 X148.559 Y46.307 E44.44561
G1 X148.822 Y46.593 E44.46365
G1 X149.019 Y46.892 E44.48028
G1 X149.175 Y47.248 E44.49830
G1 X149.270 Y47.624 E44.51627
G1 X149.304 Y48.029 E44.53514
G1 X149.304 Y50.196 E44.63570
G1 X151.304 Y50.196 E44.72848
G1 X151.304 Y99.804 E47.02990
G1 X149.364 Y99.804 E47.11990
G1 X149.750 Y100.250 F7800.000
G1 X149.750 Y104.250 E47.30547 F1500.000
G1 X159.054 Y104.250 E47.73710
G1 X159.054 Y105.750 E47.80668
G1 X149.750 Y105.750 E48.23831
G1 X149.750 Y109.750 E48.42388
G1 X151.750 Y109.750 E48.51667
G1 X151.750 Y160.250 E50.85949
G1 X149.750 Y160.250 E50.95228
G1 X149.750 Y161.994 E51.03319
G1 X149.712 Y162.456 E51.05468
G1 X149.600 Y162.893 E51.07561
G1 X149.416 Y163.312 E51.09685
G1 X149.301 Y163.505 E51.10725
G1 X149.020 Y163.866 E51.12851
G1 X148.866 Y164.020 E51.13859
G1 X148.509 Y164.298 E51.15959
G1 X148.099 Y164.521 E51.18125
G1 X147.896 Y164.599 E51.19132
G1 X147.457 Y164.711 E51.21233
G1 X146.990 Y164.750 E51.23411
G1 X33.010 Y164.750 E56.52190
G1 X32.543 Y164.711 E56.54367
G1 X32.104 Y164.599 E56.56468
G1 X31.901 Y164.521 E56.57476
G1 X31.497 Y164.302 E56.59609
G1 X31.134 Y164.020 E56.61742
G1 X30.980 Y163.866 E56.62750
G1 X30.702 Y163.509 E56.64851
G1 X30.479 Y163.098 E56.67016
G1 X30.401 Y162.896 E56.68023
G1 X30.289 Y162.457 E56.70124
G1 X30.250 Y161.990 E56.72302
G1 X30.250 Y48.010 E62.01081
G1 X30.289 Y47.543 E62.03258
G1 X30.401 Y47.104 E62.05359
G1 X30.479 Y46.901 E62.06367
G1 X30.698 Y46.497 E62.08500
G1 X30.980 Y46.134 E62.10633
G1 X31.134 Y45.980 E62.11641
G1 X31.491 Y45.702 E62.13742
G1 X31.901 Y45.479 E62.15907
G1 X32.104 Y45.401 E62.16914
G1 X32.543 Y45.289 E62.19015
G1 X33.010 Y45.250 E62.21193
G1 X146.992 Y45.250 E67.49983
G1 X147.456 Y45.288 E67.52141
G1 X147.673 Y45.334 E67.53172
G1 X147.893 Y45.400 E67.54236
G1 X148.312 Y45.584 E67.56360
G1 X148.505 Y45.699 E67.57401
G1 X148.862 Y45.977 E67.59502
G1 X149.169 Y46.310 E67.61604
G1 X149.416 Y46.688 E67.63697
G1 X149.598 Y47.102 E67.65797
G1 X149.712 Y47.550 E67.67939
G1 X149.750 Y48.010 E67.70083
G1 X149.750 Y49.750 E67.78154
G1 X151.750 Y49.750 E67.87433
G1 X151.750 Y100.250 E70.21716
G1 X149.810 Y100.250 E70.30716
G1 X149.350 Y100.250 F7800.000
G1 X149.080 Y105.000 F7800.000
G1 X158.384 Y105.000 E70.73878 F1500.000
G1 E68.73878 F2400.00000
G92 E0
G1 X149.994 Y110.907 F7800.000
G1 E2.00000 F2400.00000
G1 X150.593 Y111.506 E2.03939 F1500.000
G1 X150.593 Y112.139 E2.06880
G1 X149.361 Y110.907 E2.14979
G1 X148.728 Y110.907 E2.17920
G1 X150.593 Y112.772 E2.30178
G1 X150.593 Y113.404 E2.33119
G1 X83.596 Y46.407 E6.73632
G1 X84.228 Y46.407 E6.76573
G1 X148.593 Y110.772 E10.99777
G1 X148.593 Y110.139 E11.02718
G1 X84.861 Y46.407 E15.21762
G1 X85.494 Y46.407 E15.24703
G1 X148.593 Y109.506 E19.39587
G1 X148.593 Y108.874 E19.42529
G1 X86.126 Y46.407 E23.53254
G1 X86.759 Y46.407 E23.56195
G1 X148.593 Y108.241 E27.62760
G1 X148.593 Y107.609 E27.65702
G1 X87.391 Y46.407 E31.68108
G1 X88.024 Y46.407 E31.71049
G1 X148.593 Y106.976 E35.69296
G1 X148.593 Y106.343 E35.72237
G1 X88.657 Y46.407 E39.66324
G1 X89.289 Y46.407 E39.69265
G1 X148.593 Y105.711 E43.59193
G1 X148.593 Y105.078 E43.62134
G1 X89.922 Y46.407 E47.47903
G1 X90.554 Y46.407 E47.50844
G1 X148.593 Y104.446 E51.32453
G1 X148.593 Y103.813 E51.35394
G1 X91.187 Y46.407 E55.12843
G1 X91.820 Y46.407 E55.15785
G1 X148.593 Y103.180 E58.89075
G1 X148.593 Y102.548 E58.92016
G1 X92.452 Y46.407 E62.61146
G1 X93.085 Y46.407 E62.64088
G1 X148.593 Y101.915 E66.29059
G1 X148.593 Y101.283 E66.32000
G1 X93.717 Y46.407 E69.92812
G1 X94.350 Y46.407 E69.95753
G1 X148.593 Y100.650 E73.52405
G1 X148.593 Y100.017 E73.55346
G1 X94.983 Y46.407 E77.07839
G1 X95.615 Y46.407 E77.10780
G1 X148.593 Y99.385 E80.59114
G1 X148.933 Y99.093 F7800.000
G1 X96.248 Y46.407 E84.05526 F1500.000
G1 X96.880 Y46.407 E84.08467
G1 X149.566 Y99.093 E87.54879
G1 X150.198 Y99.093 E87.57820
G1 X97.513 Y46.407 E91.04232
G1 X98.146 Y46.407 E91.07173
G1 X150.593 Y98.854 E94.52019
G1 X150.593 Y98.222 E94.54960
G1 X98.778 Y46.407 E97.95647
G1 X99.411 Y46.407 E97.98588
G1 X150.593 Y97.589 E101.35115
G1 X150.593 Y96.957 E101.38056
G1 X100.043 Y46.407 E104.70424
G1 X100.676 Y46.407 E104.73365
G1 X150.593 Y96.324 E108.01573
G1 X150.593 Y95.691 E108.04515
G1 X101.309 Y46.407 E111.28563
G1 X101.941 Y46.407 E111.31505
G1 X150.593 Y95.059 E114.51394
G1 X150.593 Y94.426 E114.54335
G1 X102.574 Y46.407 E117.70065
G1 X103.206 Y46.407 E117.73006
G1 X150.593 Y93.794 E120.84577
G1 X150.593 Y93.161 E120.87518
G1 X103.839 Y46.407 E123.94929
G1 X104.472 Y46.407 E123.97870
G1 X150.593 Y92.528 E127.01122
G1 X150.593 Y91.896 E127.04063
G1 X105.104 Y46.407 E130.03155
G1 X105.737 Y46.407 E130.06096
G1 X150.593 Y91.263 E133.01029
G1 X150.593 Y90.631 E133.03970
G1 X106.369 Y46.407 E135.94743
G1 X107.002 Y46.407 E135.97684
G1 X150.593 Y89.998 E138.84298
G1 X150.593 Y89.365 E138.87239
G1 X107.635 Y46.407 E141.69694
G1 X108.267 Y46.407 E141.72635
G1 X150.593 Y88.733 E144.50930
G1 X150.593 Y88.100 E144.53871
G1 X108.900 Y46.407 E147.28007
G1 X109.532 Y46.407 E147.30948
G1 X150.593 Y87.468 E150.00924
G1 X150.593 Y86.835 E150.03865
G1 X110.165 Y46.407 E152.69682
G1 X110.798 Y46.407 E152.72623
G1 X150.593 Y86.202 E155.34280
G1 X150.593 Y85.570 E155.37221
G1 X111.430 Y46.407 E157.94719
G1 X112.063 Y46.407 E157.97660
G1 X150.593 Y84.937 E160.50999
G1 X150.593 Y84.305 E160.53940
G1 X112.695 Y46.407 E163.03119
G1 X113.328 Y46.407 E163.06060
G1 X150.593 Y83.672 E165.51079
G1 X150.593 Y83.039 E165.54021
G1 X113.961 Y46.407 E167.94881
G1 X114.593 Y46.407 E167.97822
G1 X150.593 Y82.407 E170.34522
G1 X150.593 Y81.774 E170.37464
G1 X115.226 Y46.407 E172.70005
G1 X115.858 Y46.407 E172.72946
G1 X150.593 Y81.142 E175.01328
G1 X150.593 Y80.509 E175.04269
G1 X116.491 Y46.407 E177.28491
G1 X117.124 Y46.407 E177.31432
G1 X150.593 Y79.876 E179.51495
G1 X150.593 Y79.244 E179.54436
G1 X117.756 Y46.407 E181.70340
G1 X118.389 Y46.407 E181.73281
G1 X150.593 Y78.611 E183.85025
G1 X150.593 Y77.979 E183.87966
G1 X119.021 Y46.407 E185.95551
G1 X119.654 Y46.407 E185.98492
G1 X150.593 Y77.346 E188.01917
G1 X150.593 Y76.713 E188.04858
G1 X120.287 Y46.407 E190.04124
G1 X120.919 Y46.407 E190.07065
G1 X150.593 Y76.081 E192.02171
G1 X150.593 Y75.448 E192.05112
G1 X121.552 Y46.407 E193.96059
G1 X122.184 Y46.407 E193.99000
G1 X150.593 Y74.816 E195.85788
G1 X150.593 Y74.183 E195.88729
G1 X122.817 Y46.407 E197.71357
G1 X123.450 Y46.407 E197.74298
G1 X150.593 Y73.550 E199.52766
G1 X150.593 Y72.918 E199.55708
G1 X124.082 Y46.407 E201.30017
G1 X124.715 Y46.407 E201.32958
G1 X150.593 Y72.285 E203.03107
G1 X150.593 Y71.653 E203.06049
G1 X125.347 Y46.407 E204.72039
G1 X125.980 Y46.407 E204.74980
G1 X150.593 Y71.020 E206.36811
G1 X150.593 Y70.387 E206.39752
G1 X126.613 Y46.407 E207.97423
G1 X127.245 Y46.407 E208.00364
G1 X150.593 Y69.755 E209.53876
G1 X150.593 Y69.122 E209.56817
G1 X127.878 Y46.407 E211.06170
G1 X128.510 Y46.407 E211.09111
G1 X150.593 Y68.490 E212.54304
G1 X150.593 Y67.857 E212.57245
G1 X129.143 Y46.407 E213.98279
G1 X129.776 Y46.407 E214.01220
G1 X150.593 Y67.224 E215.38094
G1 X150.593 Y66.592 E215.41035
G1 X130.408 Y46.407 E216.73750
G1 X131.041 Y46.407 E216.76691
G1 X150.593 Y65.959 E218.05246
G1 X150.593 Y65.327 E218.08187
G1 X131.673 Y46.407 E219.32583
G1 X132.306 Y46.407 E219.35524
G1 X150.593 Y64.694 E220.55761
G1 X150.593 Y64.061 E220.58702
G1 X132.939 Y46.407 E221.74779
G1 X133.571 Y46.407 E221.77720
G1 X150.593 Y63.429 E222.89638
G1 X150.593 Y62.796 E222.92579
G1 X134.204 Y46.407 E224.00337
G1 X134.836 Y46.407 E224.03278
G1 X150.593 Y62.164 E225.06877
G1 X150.593 Y61.531 E225.09818
G1 X135.469 Y46.407 E226.09257
G1 X136.102 Y46.407 E226.12198
G1 X150.593 Y60.898 E227.07478
G1 X150.593 Y60.266 E227.10419
G1 X136.734 Y46.407 E228.01539
G1 X137.367 Y46.407 E228.04481
G1 X150.593 Y59.633 E228.91441
G1 X150.593 Y59.001 E228.94383
G1 X137.999 Y46.407 E229.77184
G1 X138.632 Y46.407 E229.80125
G1 X150.593 Y58.368 E230.58767
G1 X150.593 Y57.735 E230.61708
G1 X139.265 Y46.407 E231.36191
G1 X139.897 Y46.407 E231.39132
G1 X150.593 Y57.103 E232.09455
G1 X150.593 Y56.470 E232.12396
G1 X140.530 Y46.407 E232.78560
G1 X141.162 Y46.407 E232.81501
G1 X150.593 Y55.838 E233.43506
G1 X150.593 Y55.205 E233.46447
G1 X141.795 Y46.407 E234.04292
G1 X142.428 Y46.407 E234.07233
G1 X150.593 Y54.572 E234.60918
G1 X150.593 Y53.940 E234.63859
G1 X143.060 Y46.407 E235.13385
G1 X143.693 Y46.407 E235.16326
G1 X150.593 Y53.307 E235.61693
G1 X150.593 Y52.675 E235.64634
G1 X148.825 Y50.907 E235.76254
G1 X148.593 Y50.675 F7800.000
G1 X144.326 Y46.407 E236.04310 F1500.000
G1 X144.958 Y46.407 E236.07252
G1 X148.593 Y50.042 E236.31149
G1 X148.593 Y49.409 E236.34090
G1 X145.591 Y46.407 E236.53828
G1 X146.223 Y46.407 E236.56769
G1 X148.593 Y48.777 E236.72348
G1 X148.591 Y48.143 E236.75294
G1 X146.858 Y46.410 E236.86692
G1 X147.788 Y46.707 E236.91231
G1 X148.311 Y47.229 E236.94668
G1 X149.458 Y50.907 F7800.000
G1 X150.593 Y52.042 E237.02127 F1500.000
G1 X150.593 Y51.409 E237.05069
G1 X150.091 Y50.907 E237.08369
G1 E235.08369 F2400.00000
G92 E0
G1 X150.593 Y114.037 F7800.000
G1 E2.00000 F2400.00000
G1 X82.963 Y46.407 E6.44672 F1500.000
G1 X82.331 Y46.407 E6.47614
G1 X150.593 Y114.669 E10.96446
G1 X150.593 Y115.302 E10.99387
G1 X81.698 Y46.407 E15.52378
G1 X81.065 Y46.407 E15.55319
G1 X150.593 Y115.935 E20.12470
G1 X150.593 Y116.567 E20.15411
G1 X80.433 Y46.407 E24.76721
G1 X79.800 Y46.407 E24.79662
G1 X150.593 Y117.200 E29.45132
G1 X150.593 Y117.832 E29.48073
G1 X79.168 Y46.407 E34.17702
G1 X78.535 Y46.407 E34.20644
G1 X150.593 Y118.465 E38.94432
G1 X150.593 Y119.098 E38.97373
G1 X77.902 Y46.407 E43.75321
G1 X77.270 Y46.407 E43.78262
G1 X150.593 Y119.730 E48.60370
G1 X150.593 Y120.363 E48.63311
G1 X76.637 Y46.407 E53.49578
G1 X76.005 Y46.407 E53.52519
G1 X150.593 Y120.995 E58.42945
G1 X150.593 Y121.628 E58.45886
G1 X75.372 Y46.407 E63.40472
G1 X74.739 Y46.407 E63.43413
G1 X150.593 Y122.261 E68.42158
G1 X150.593 Y122.893 E68.45099
G1 X74.107 Y46.407 E73.48004
G1 X73.474 Y46.407 E73.50945
G1 X150.593 Y123.526 E78.58009
G1 X150.593 Y124.159 E78.60950
G1 X72.842 Y46.407 E83.72174
G1 X72.209 Y46.407 E83.75115
G1 X150.593 Y124.791 E88.90498
G1 X150.593 Y125.424 E88.93439
G1 X71.576 Y46.407 E94.12981
