; generated by Slic3r 1.2.9 on 2016-12-31 at 12:36:00

; external perimeters extrusion width = 0.40mm
; perimeters extrusion width = 0.67mm
; infill extrusion width = 0.67mm
; solid infill extrusion width = 0.67mm
; top infill extrusion width = 0.67mm

M107
M190 S65 ; set bed temperature
M104 S200 ; set temperature
G28 ; home all axes
G1 Z5 F5000 ; lift nozzle

M109 S200 ; wait for temperature to be reached
G21 ; set units to millimeters
G90 ; use absolute coordinates
M82 ; use absolute distances for extrusion
G92 E0
G1 Z0.250 F6000.000
G1 E-2.00000 F2400.00000
G92 E0
G1 X27.650 Y40.216 F6000.000
G1 E2.00000 F2400.00000
G1 X28.331 Y39.790 E2.03729 F1500.000
G1 X28.957 Y39.464 E2.07005
G1 X29.452 Y39.247 E2.09510
G1 X30.189 Y38.983 E2.13140
G1 X30.552 Y38.877 E2.14897
G1 X31.336 Y38.702 E2.18625
G1 X32.123 Y38.595 E2.22308
G1 X32.833 Y38.556 E2.25608
G1 X147.167 Y38.556 E7.56032
G1 X147.870 Y38.594 E7.59300 F1500.000
G1 X148.664 Y38.702 E7.63018
G1 X149.448 Y38.877 E7.66745
G1 X150.213 Y39.117 E7.70463
G1 X150.957 Y39.423 E7.74195
G1 X151.671 Y39.791 E7.77922
G1 X152.350 Y40.216 E7.81641
G1 X152.992 Y40.699 E7.85367
G1 X153.589 Y41.233 E7.89080
G1 X154.281 Y41.984 E7.93818
G1 X157.064 Y45.512 E8.14664
G1 X158.130 Y47.507 E8.25159
G1 X158.389 Y48.644 E8.30569
G1 X165.693 Y103.144 E10.85669
G1 X165.750 Y104.000 E10.89650
G1 X165.750 Y106.000 E10.98929
G1 X165.693 Y106.856 E11.02910
G1 X158.389 Y161.356 E13.58010
G1 X157.700 Y163.511 E13.68505
G1 X157.064 Y164.488 E13.73915
G1 X154.305 Y167.988 E13.94589
G1 X153.767 Y168.589 E13.98332
G1 X153.197 Y169.127 E14.01969
G1 X152.588 Y169.614 E14.05584
G1 X151.940 Y170.050 E14.09210
G1 X151.258 Y170.430 E14.12829
G1 X150.960 Y170.575 E14.14370
G1 X150.324 Y170.840 E14.17567
G1 X149.454 Y171.121 E14.21807
G1 X148.672 Y171.297 E14.25524
G1 X147.878 Y171.405 E14.29242
G1 X147.164 Y171.444 E14.32561
G1 X32.837 Y171.444 E19.62955
G1 X31.953 Y171.386 E19.67066
G1 X31.335 Y171.298 E19.69958
G1 X30.942 Y171.218 E19.71820
G1 X30.420 Y171.085 E19.74321
G1 X29.789 Y170.883 E19.77392
G1 X29.043 Y170.577 E19.81135
G1 X28.267 Y170.173 E19.85190
G1 X27.412 Y169.614 E19.89934
G1 X26.803 Y169.127 E19.93549
G1 X26.410 Y168.765 E19.96028
G1 X25.874 Y168.199 E19.99644
G1 X25.385 Y167.587 E20.03278
G1 X24.951 Y166.941 E20.06892
G1 X24.570 Y166.258 E20.10518
G1 X24.422 Y165.955 E20.12080
G1 X24.159 Y165.322 E20.15264
G1 X23.879 Y164.455 E20.19489
G1 X23.703 Y163.670 E20.23222
G1 X23.595 Y162.876 E20.26937
G1 X23.556 Y162.167 E20.30234
G1 X23.556 Y47.830 E25.60672
G1 X23.594 Y47.130 E25.63925
G1 X23.644 Y46.710 E25.65886
G1 X23.733 Y46.178 E25.68389
G1 X23.877 Y45.552 E25.71370
G1 X24.159 Y44.678 E25.75629
G1 X24.423 Y44.044 E25.78818
G1 X24.570 Y43.742 E25.80375
G1 X24.827 Y43.266 E25.82883
G1 X25.215 Y42.651 E25.86256
G1 X25.874 Y41.801 E25.91247
G1 X26.410 Y41.235 E25.94864
G1 X26.803 Y40.873 E25.97343
G1 X27.601 Y40.251 E26.02035
G1 E24.02035 F2400.00000
G92 E0
G1 X148.857 Y99.357 F6000.000
G1 E2.00000 F2400.00000
G1 X148.857 Y110.643 E2.52356 F1500.000
G1 X150.857 Y110.643 E2.61634
G1 X150.857 Y159.357 E4.87634
G1 X148.857 Y159.357 E4.96912
G1 X148.857 Y161.957 E5.08973
G1 X148.800 Y162.454 E5.11292
G1 X148.631 Y162.881 E5.13426
G1 X148.366 Y163.257 E5.15559
G1 X148.018 Y163.548 E5.17664
G1 X147.722 Y163.709 E5.19227
G1 X147.309 Y163.827 E5.21219
G1 X146.952 Y163.857 E5.22881
G1 X33.047 Y163.857 E10.51317
G1 X32.697 Y163.828 E10.52945
G1 X32.394 Y163.751 E10.54398
G1 X32.097 Y163.621 E10.55901
G1 X31.745 Y163.364 E10.57925
G1 X31.537 Y163.138 E10.59349
G1 X31.360 Y162.867 E10.60853
G1 X31.252 Y162.623 E10.62085
G1 X31.173 Y162.309 E10.63590
G1 X31.143 Y161.952 E10.65252
G1 X31.143 Y48.048 E15.93684
G1 X31.173 Y47.691 E15.95346
G1 X31.252 Y47.377 E15.96850
G1 X31.448 Y46.987 E15.98874
G1 X31.726 Y46.651 E16.00898
G1 X31.982 Y46.452 E16.02401
G1 X32.278 Y46.291 E16.03964
G1 X32.691 Y46.173 E16.05956
G1 X33.048 Y46.143 E16.07618
G1 X146.955 Y46.143 E21.36064
G1 X147.454 Y46.200 E21.38392
G1 X147.902 Y46.379 E21.40630
G1 X148.255 Y46.636 E21.42660
G1 X148.555 Y46.986 E21.44797
G1 X148.751 Y47.394 E21.46895
G1 X148.828 Y47.697 E21.48349
G1 X148.857 Y48.047 E21.49977
G1 X148.857 Y50.643 E21.62019
G1 X150.857 Y50.643 E21.71297
G1 X150.857 Y99.357 E23.97297
G1 X148.917 Y99.357 E24.06297
G1 X149.304 Y99.804 F6000.000
G1 X149.304 Y104.696 E24.28996 F1500.000
G1 X158.607 Y104.696 E24.72158
G1 X158.607 Y105.304 E24.74976
G1 X149.304 Y105.304 E25.18138
G1 X149.304 Y110.196 E25.40837
G1 X151.304 Y110.196 E25.50115
G1 X151.304 Y159.804 E27.80257
G1 X149.304 Y159.804 E27.89535
G1 X149.304 Y161.976 E27.99611
G1 X149.269 Y162.391 E28.01546
G1 X149.181 Y162.739 E28.03209
G1 X149.024 Y163.094 E28.05012
G1 X148.808 Y163.425 E28.06845
G1 X148.694 Y163.560 E28.07662
G1 X148.570 Y163.685 E28.08481
G1 X148.263 Y163.923 E28.10283
G1 X147.910 Y164.115 E28.12147
G1 X147.760 Y164.174 E28.12896
G1 X147.383 Y164.269 E28.14698
G1 X146.971 Y164.304 E28.16618
G1 X33.029 Y164.304 E33.45226
G1 X32.623 Y164.270 E33.47112
G1 X32.248 Y164.175 E33.48910
G1 X31.892 Y164.019 E33.50711
G1 X31.753 Y163.936 E33.51463
G1 X31.441 Y163.693 E33.53295
G1 X31.184 Y163.413 E33.55062
G1 X30.971 Y163.088 E33.56864
G1 X30.827 Y162.760 E33.58527
G1 X30.731 Y162.383 E33.60330
G1 X30.696 Y161.971 E33.62250
G1 X30.696 Y48.029 E38.90855
G1 X30.731 Y47.617 E38.92775
G1 X30.827 Y47.240 E38.94578
G1 X30.885 Y47.089 E38.95329
G1 X31.073 Y46.742 E38.97161
G1 X31.316 Y46.430 E38.98994
G1 X31.430 Y46.316 E38.99745
G1 X31.737 Y46.077 E39.01547
G1 X32.090 Y45.885 E39.03412
G1 X32.240 Y45.826 E39.04160
G1 X32.617 Y45.731 E39.05963
G1 X33.029 Y45.696 E39.07883
G1 X146.973 Y45.696 E44.36500
G1 X147.391 Y45.731 E44.38446
G1 X147.563 Y45.767 E44.39261
G1 X147.739 Y45.819 E44.40110
G1 X148.107 Y45.981 E44.41976
G1 X148.252 Y46.068 E44.42760
G1 X148.559 Y46.307 E44.44563
G1 X148.822 Y46.593 E44.46366
G1 X149.019 Y46.892 E44.48030
G1 X149.175 Y47.248 E44.49831
G1 X149.270 Y47.624 E44.51629
G1 X149.304 Y48.029 E44.53515
G1 X149.304 Y50.196 E44.63571
G1 X151.304 Y50.196 E44.72850
G1 X151.304 Y99.804 E47.02991
G1 X149.364 Y99.804 E47.11992
G1 X149.750 Y100.250 F6000.000
G1 X149.750 Y104.250 E47.30549 F1500.000
G1 X159.054 Y104.250 E47.73711
G1 X159.054 Y105.750 E47.80670
G1 X149.750 Y105.750 E48.23833
G1 X149.750 Y109.750 E48.42390
G1 X151.750 Y109.750 E48.51668
G1 X151.750 Y160.250 E50.85951
G1 X149.750 Y160.250 E50.95229
G1 X149.750 Y161.994 E51.03321
G1 X149.712 Y162.456 E51.05469
G1 X149.600 Y162.893 E51.07563
G1 X149.418 Y163.308 E51.09664
G1 X149.167 Y163.693 E51.11797
G1 X149.023 Y163.862 E51.12828
G1 X148.866 Y164.020 E51.13861
G1 X148.509 Y164.298 E51.15961
G1 X148.098 Y164.521 E51.18127
G1 X147.896 Y164.599 E51.19134
G1 X147.457 Y164.711 E51.21235
G1 X146.990 Y164.750 E51.23412
G1 X33.010 Y164.750 E56.52192
G1 X32.550 Y164.712 E56.54336
G1 X32.102 Y164.598 E56.56478
G1 X31.688 Y164.416 E56.58578
G1 X31.501 Y164.305 E56.59586
G1 X31.138 Y164.023 E56.61719
G1 X30.830 Y163.688 E56.63828
G1 X30.582 Y163.309 E56.65929
G1 X30.401 Y162.896 E56.68023
G1 X30.289 Y162.457 E56.70124
G1 X30.250 Y161.990 E56.72301
G1 X30.250 Y48.010 E62.01080
G1 X30.289 Y47.543 E62.03258
G1 X30.401 Y47.104 E62.05359
G1 X30.479 Y46.901 E62.06367
G1 X30.698 Y46.497 E62.08500
G1 X30.980 Y46.134 E62.10633
G1 X31.134 Y45.980 E62.11641
G1 X31.491 Y45.702 E62.13741
G1 X31.902 Y45.479 E62.15907
G1 X32.104 Y45.401 E62.16914
G1 X32.543 Y45.289 E62.19015
G1 X33.010 Y45.250 E62.21192
G1 X146.992 Y45.250 E67.49982
G1 X147.456 Y45.288 E67.52141
G1 X147.673 Y45.334 E67.53172
G1 X147.893 Y45.400 E67.54236
G1 X148.312 Y45.584 E67.56360
G1 X148.505 Y45.699 E67.57401
G1 X148.862 Y45.977 E67.59502
G1 X149.169 Y46.310 E67.61603
G1 X149.416 Y46.688 E67.63697
G1 X149.598 Y47.102 E67.65797
G1 X149.712 Y47.550 E67.67939
G1 X149.750 Y48.010 E67.70083
G1 X149.750 Y49.750 E67.78154
G1 X151.750 Y49.750 E67.87433
G1 X151.750 Y100.250 E70.21716
G1 X149.810 Y100.250 E70.30716
G1 X149.350 Y100.250 F6000.000
G1 X149.080 Y105.000 F6000.000
G1 X158.384 Y105.000 E70.73878 F1500.000
G1 E68.73878 F2400.00000
G92 E0
G1 X149.994 Y110.907 F6000.000
G1 E2.00000 F2400.00000
G1 X150.593 Y111.506 E2.03935 F1500.000
G1 X150.593 Y112.138 E2.06876
G1 X149.362 Y110.907 E2.14970
G1 X148.729 Y110.907 E2.17911
G1 X150.593 Y112.771 E2.30164
G1 X150.593 Y113.404 E2.33106
G1 X83.596 Y46.407 E6.73610
G1 X84.229 Y46.407 E6.76551
G1 X148.593 Y110.771 E10.99745
G1 X148.593 Y110.138 E11.02686
G1 X84.862 Y46.407 E15.21722
G1 X85.494 Y46.407 E15.24663
G1 X148.593 Y109.506 E19.39538
G1 X148.593 Y108.873 E19.42480
G1 X86.127 Y46.407 E23.53196
G1 X86.759 Y46.407 E23.56137
G1 X148.593 Y108.241 E27.62694
G1 X148.593 Y107.608 E27.65635
G1 X87.392 Y46.407 E31.68033
G1 X88.025 Y46.407 E31.70974
G1 X148.593 Y106.975 E35.69213
G1 X148.593 Y106.343 E35.72154
G1 X88.657 Y46.407 E39.66233
G1 X89.290 Y46.407 E39.69174
G1 X148.593 Y105.710 E43.59094
G1 X148.593 Y105.078 E43.62035
G1 X89.922 Y46.407 E47.47795
G1 X90.555 Y46.407 E47.50736
G1 X148.593 Y104.445 E51.32337
G1 X148.593 Y103.812 E51.35278
G1 X91.188 Y46.407 E55.12720
G1 X91.820 Y46.407 E55.15661
G1 X148.593 Y103.180 E58.88943
G1 X148.593 Y102.547 E58.91884
G1 X92.453 Y46.407 E62.61007
G1 X93.085 Y46.407 E62.63949
G1 X148.593 Y101.915 E66.28912
G1 X148.593 Y101.282 E66.31853
G1 X93.718 Y46.407 E69.92658
G1 X94.351 Y46.407 E69.95599
G1 X148.593 Y100.649 E73.52244
G1 X148.593 Y100.017 E73.55185
G1 X94.983 Y46.407 E77.07670
G1 X95.616 Y46.407 E77.10611
G1 X148.593 Y99.384 E80.58937
G1 X148.934 Y99.093 F6000.000
G1 X96.248 Y46.407 E84.05346 F1500.000
G1 X96.881 Y46.407 E84.08287
G1 X149.566 Y99.093 E87.54695
G1 X150.199 Y99.093 E87.57636
G1 X97.514 Y46.407 E91.04045
G1 X98.146 Y46.407 E91.06986
G1 X150.593 Y98.854 E94.51825
G1 X150.593 Y98.221 E94.54766
G1 X98.779 Y46.407 E97.95446
G1 X99.411 Y46.407 E97.98387
G1 X150.593 Y97.589 E101.34907
G1 X150.593 Y96.956 E101.37848
G1 X100.044 Y46.407 E104.70209
G1 X100.676 Y46.407 E104.73150
G1 X150.593 Y96.324 E108.01351
G1 X150.593 Y95.691 E108.04293
G1 X101.309 Y46.407 E111.28335
G1 X101.942 Y46.407 E111.31276
G1 X150.593 Y95.058 E114.51159
G1 X150.593 Y94.426 E114.54100
G1 X102.574 Y46.407 E117.69823
G1 X103.207 Y46.407 E117.72764
G1 X150.593 Y93.793 E120.84328
G1 X150.593 Y93.161 E120.87269
G1 X103.839 Y46.407 E123.94674
G1 X104.472 Y46.407 E123.97615
G1 X150.593 Y92.528 E127.00861
G1 X150.593 Y91.895 E127.03802
G1 X105.105 Y46.407 E130.02888
G1 X105.737 Y46.407 E130.05829
G1 X150.593 Y91.263 E133.00756
G1 X150.593 Y90.630 E133.03697
G1 X106.370 Y46.407 E135.94464
G1 X107.002 Y46.407 E135.97405
G1 X150.593 Y89.998 E138.84013
G1 X150.593 Y89.365 E138.86954
G1 X107.635 Y46.407 E141.69403
G1 X108.268 Y46.407 E141.72344
G1 X150.593 Y88.732 E144.50633
G1 X150.593 Y88.100 E144.53574
G1 X108.900 Y46.407 E147.27704
G1 X109.533 Y46.407 E147.30645
G1 X150.593 Y87.467 E150.00616
G1 X150.593 Y86.835 E150.03557
G1 X110.165 Y46.407 E152.69368
G1 X110.798 Y46.407 E152.72309
G1 X150.593 Y86.202 E155.33961
G1 X150.593 Y85.569 E155.36902
G1 X111.431 Y46.407 E157.94395
G1 X112.063 Y46.407 E157.97336
G1 X150.593 Y84.937 E160.50669
G1 X150.593 Y84.304 E160.53610
G1 X112.696 Y46.407 E163.02784
G1 X113.328 Y46.407 E163.05725
G1 X150.593 Y83.672 E165.50740
G1 X150.593 Y83.039 E165.53681
G1 X113.961 Y46.407 E167.94536
G1 X114.594 Y46.407 E167.97477
G1 X150.593 Y82.406 E170.34173
G1 X150.593 Y81.774 E170.37114
G1 X115.226 Y46.407 E172.69650
G1 X115.859 Y46.407 E172.72592
G1 X150.593 Y81.141 E175.00969
G1 X150.593 Y80.509 E175.03910
G1 X116.491 Y46.407 E177.28127
G1 X117.124 Y46.407 E177.31069
G1 X150.593 Y79.876 E179.51127
G1 X150.593 Y79.243 E179.54068
G1 X117.757 Y46.407 E181.69967
G1 X118.389 Y46.407 E181.72908
G1 X150.593 Y78.611 E183.84648
G1 X150.593 Y77.978 E183.87589
G1 X119.022 Y46.407 E185.95169
G1 X119.654 Y46.407 E185.98110
G1 X150.593 Y77.346 E188.01531
G1 X150.593 Y76.713 E188.04472
G1 X120.287 Y46.407 E190.03734
G1 X120.920 Y46.407 E190.06675
G1 X150.593 Y76.080 E192.01777
G1 X150.593 Y75.448 E192.04718
G1 X121.552 Y46.407 E193.95661
G1 X122.185 Y46.407 E193.98602
G1 X150.593 Y74.815 E195.85386
G1 X150.593 Y74.183 E195.88327
G1 X122.817 Y46.407 E197.70951
G1 X123.450 Y46.407 E197.73892
G1 X150.593 Y73.550 E199.52357
G1 X150.593 Y72.918 E199.55298
G1 X124.083 Y46.407 E201.29604
G1 X124.715 Y46.407 E201.32545
G1 X150.593 Y72.285 E203.02691
G1 X150.593 Y71.652 E203.05632
G1 X125.348 Y46.407 E204.71619
G1 X125.980 Y46.407 E204.74560
G1 X150.593 Y71.020 E206.36388
G1 X150.593 Y70.387 E206.39329
G1 X126.613 Y46.407 E207.96997
G1 X127.245 Y46.407 E207.99938
G1 X150.593 Y69.755 E209.53447
G1 X150.593 Y69.122 E209.56388
G1 X127.878 Y46.407 E211.05737
G1 X128.511 Y46.407 E211.08678
G1 X150.593 Y68.489 E212.53868
G1 X150.593 Y67.857 E212.56809
G1 X129.143 Y46.407 E213.97840
G1 X129.776 Y46.407 E214.00781
G1 X150.593 Y67.224 E215.37652
G1 X150.593 Y66.592 E215.40594
G1 X130.408 Y46.407 E216.73306
G1 X131.041 Y46.407 E216.76247
G1 X150.593 Y65.959 E218.04799
G1 X150.593 Y65.326 E218.07740
G1 X131.674 Y46.407 E219.32134
G1 X132.306 Y46.407 E219.35075
G1 X150.593 Y64.694 E220.55309
G1 X150.593 Y64.061 E220.58250
G1 X132.939 Y46.407 E221.74324
G1 X133.571 Y46.407 E221.77265
G1 X150.593 Y63.429 E222.89181
G1 X150.593 Y62.796 E222.92122
G1 X134.204 Y46.407 E223.99878
G1 X134.837 Y46.407 E224.02819
G1 X150.593 Y62.163 E225.06415
G1 X150.593 Y61.531 E225.09356
G1 X135.469 Y46.407 E226.08794
G1 X136.102 Y46.407 E226.11735
G1 X150.593 Y60.898 E227.07013
G1 X150.593 Y60.266 E227.09954
G1 X136.734 Y46.407 E228.01072
G1 X137.367 Y46.407 E228.04013
G1 X150.593 Y59.633 E228.90972
G1 X150.593 Y59.000 E228.93913
G1 X138.000 Y46.407 E229.76713
G1 X138.632 Y46.407 E229.79654
G1 X150.593 Y58.368 E230.58295
G1 X150.593 Y57.735 E230.61236
G1 X139.265 Y46.407 E231.35717
G1 X139.897 Y46.407 E231.38658
G1 X150.593 Y57.103 E232.08980
G1 X150.593 Y56.470 E232.11921
G1 X140.530 Y46.407 E232.78083
G1 X141.163 Y46.407 E232.81024
G1 X150.593 Y55.837 E233.43027
G1 X150.593 Y55.205 E233.45968
G1 X141.795 Y46.407 E234.03812
G1 X142.428 Y46.407 E234.06753
G1 X150.593 Y54.572 E234.60437
G1 X150.593 Y53.940 E234.63378
G1 X143.060 Y46.407 E235.12903
G1 X143.693 Y46.407 E235.15845
G1 X150.593 Y53.307 E235.61210
G1 X150.593 Y51.409 F6000.000
G1 X150.091 Y50.907 E235.64510 F1500.000
G1 X149.458 Y50.907 E235.67451
G1 X150.593 Y52.042 E235.74911
G1 X150.593 Y52.674 E235.77852
G1 X148.826 Y50.907 E235.89471
G1 X148.593 Y50.674 F6000.000
G1 X144.326 Y46.407 E236.17527 F1500.000
G1 X144.958 Y46.407 E236.20468
G1 X148.593 Y50.042 E236.44365
G1 X148.593 Y49.409 E236.47306
G1 X145.591 Y46.407 E236.67043
G1 X146.223 Y46.407 E236.69985
G1 X148.593 Y48.777 E236.85563
G1 X148.591 Y48.143 E236.88509
G1 X146.858 Y46.410 E236.99906
G1 X147.788 Y46.707 E237.04446
G1 X148.311 Y47.230 E237.07882
G1 E235.07882 F2400.00000
G92 E0
G1 X150.593 Y114.036 F6000.000
G1 E2.00000 F2400.00000
G1 X82.964 Y46.407 E6.44663 F1500.000
G1 X82.331 Y46.407 E6.47604
G1 X150.593 Y114.669 E10.96427
G1 X150.593 Y115.301 E10.99368
G1 X81.699 Y46.407 E15.52350
G1 X81.066 Y46.407 E15.55291
G1 X150.593 Y115.934 E20.12433
G1 X150.593 Y116.567 E20.15374
G1 X80.433 Y46.407 E24.76675
G1 X79.801 Y46.407 E24.79616
G1 X150.593 Y117.199 E29.45076
G1 X150.593 Y117.832 E29.48017
G1 X79.168 Y46.407 E34.17636
G1 X78.536 Y46.407 E34.20578
G1 X150.593 Y118.464 E38.94356
G1 X150.593 Y119.097 E38.97297
G1 X77.903 Y46.407 E43.75236
G1 X77.270 Y46.407 E43.78177
G1 X150.593 Y119.730 E48.60274
G1 X150.593 Y120.362 E48.63215
G1 X76.638 Y46.407 E53.49472
G1 X76.005 Y46.407 E53.52413
G1 X150.593 Y120.995 E58.42830
G1 X150.593 Y121.627 E58.45771
G1 X75.373 Y46.407 E63.40346
G1 X74.740 Y46.407 E63.43287
G1 X150.593 Y122.260 E68.42022
G1 X150.593 Y122.893 E68.44963
G1 X74.107 Y46.407 E73.47858
G1 X73.475 Y46.407 E73.50799
G1 X150.593 Y123.525 E78.57852
G1 X150.593 Y124.158 E78.60793
G1 X72.842 Y46.407 E83.72006
G1 X72.210 Y46.407 E83.74948
G1 X150.593 Y124.790 E88.90320
G1 X150.593 Y125.423 E88.93261
G1 X71.577 Y46.407 E94.12793
G1 X70.945 Y46.407 E94.15734
