; generated by Slic3r 1.2.9 on 2016-12-31 at 17:19:02

; external perimeters extrusion width = 0.40mm
; perimeters extrusion width = 0.67mm
; infill extrusion width = 0.67mm
; solid infill extrusion width = 0.67mm
; top infill extrusion width = 0.67mm

M107
M190 S65 ; set bed temperature
M104 S200 ; set temperature
G28 ; home all axes
G1 Z5 F5000 ; lift nozzle

M109 S200 ; wait for temperature to be reached
G21 ; set units to millimeters
G90 ; use absolute coordinates
M82 ; use absolute distances for extrusion
G92 E0
G1 Z0.250 F6000.000
G1 E-2.00000 F2400.00000
G92 E0
G1 X27.651 Y40.215 F6000.000
G1 E2.00000 F2400.00000
G1 X28.328 Y39.791 E2.03521 F1500.000
G1 X28.959 Y39.464 E2.06652
G1 X29.454 Y39.246 E2.09035
G1 X30.186 Y38.984 E2.12465
G1 X30.551 Y38.877 E2.14138
G1 X31.336 Y38.702 E2.17686
G1 X32.124 Y38.595 E2.21189
G1 X32.830 Y38.556 E2.24307
G1 X147.167 Y38.556 E7.28223
G1 X147.870 Y38.594 E7.31327 F1500.000
G1 X148.663 Y38.702 E7.34854
G1 X149.448 Y38.877 E7.38397
G1 X150.213 Y39.118 E7.41933
G1 X150.955 Y39.422 E7.45468
G1 X151.672 Y39.791 E7.49022
G1 X152.349 Y40.216 E7.52544
G1 X152.992 Y40.700 E7.56092
G1 X153.589 Y41.233 E7.59618
G1 X154.283 Y41.987 E7.64133
G1 X157.064 Y45.511 E7.83923
G1 X158.130 Y47.507 E7.93892
G1 X158.389 Y48.644 E7.99033
G1 X165.693 Y103.144 E10.41378
G1 X165.750 Y104.000 E10.45160
G1 X165.750 Y106.000 E10.53975
G1 X165.693 Y106.856 E10.57757
G1 X158.389 Y161.356 E13.00102
G1 X157.700 Y163.511 E13.10072
G1 X157.064 Y164.489 E13.15212
G1 X154.301 Y167.992 E13.34876
G1 X153.766 Y168.590 E13.38415
G1 X153.197 Y169.127 E13.41860
G1 X152.588 Y169.614 E13.45298
G1 X151.939 Y170.050 E13.48743
G1 X151.259 Y170.430 E13.52179
G1 X150.956 Y170.577 E13.53661
G1 X150.322 Y170.841 E13.56689
G1 X149.453 Y171.122 E13.60715
G1 X148.670 Y171.297 E13.64252
G1 X147.878 Y171.405 E13.67772
G1 X147.164 Y171.444 E13.70925
G1 X32.837 Y171.444 E18.74800
G1 X31.952 Y171.386 E18.78706
G1 X31.335 Y171.298 E18.81452
G1 X30.942 Y171.218 E18.83221
G1 X30.417 Y171.085 E18.85607
G1 X29.783 Y170.881 E18.88544
G1 X29.043 Y170.576 E18.92072
G1 X28.267 Y170.173 E18.95927
G1 X27.413 Y169.615 E19.00423
G1 X26.801 Y169.126 E19.03874
G1 X26.235 Y168.590 E19.07310
G1 X25.873 Y168.197 E19.09664
G1 X25.386 Y167.588 E19.13099
G1 X24.950 Y166.939 E19.16545
G1 X24.570 Y166.259 E19.19979
G1 X24.422 Y165.955 E19.21470
G1 X24.160 Y165.324 E19.24483
G1 X23.879 Y164.455 E19.28508
G1 X23.703 Y163.669 E19.32058
G1 X23.595 Y162.877 E19.35582
G1 X23.556 Y162.170 E19.38702
G1 X23.556 Y47.833 E24.42617
G1 X23.594 Y47.131 E24.45718
G1 X23.643 Y46.713 E24.47570
G1 X23.733 Y46.178 E24.49962
G1 X23.877 Y45.552 E24.52793
G1 X24.160 Y44.676 E24.56849
G1 X24.422 Y44.045 E24.59864
G1 X24.570 Y43.741 E24.61353
G1 X24.827 Y43.268 E24.63725
G1 X25.215 Y42.651 E24.66937
G1 X25.873 Y41.803 E24.71668
G1 X26.234 Y41.410 E24.74020
G1 X26.801 Y40.874 E24.77458
G1 X27.602 Y40.250 E24.81933
G1 E22.81933 F2400.00000
G92 E0
G1 X148.857 Y99.357 F6000.000
G1 E2.00000 F2400.00000
G1 X148.857 Y110.643 E2.49738 F1500.000
G1 X150.857 Y110.643 E2.58553
G1 X150.857 Y159.357 E4.73253
G1 X148.857 Y159.357 E4.82067
G1 X148.857 Y161.957 E4.93525
G1 X148.800 Y162.453 E4.95727
G1 X148.621 Y162.902 E4.97854
G1 X148.349 Y163.274 E4.99885
G1 X148.018 Y163.548 E5.01782
G1 X147.722 Y163.709 E5.03266
G1 X147.309 Y163.827 E5.05159
G1 X146.952 Y163.857 E5.06738
G1 X33.048 Y163.857 E10.08748
G1 X32.691 Y163.827 E10.10328
G1 X32.377 Y163.748 E10.11757
G1 X31.987 Y163.552 E10.13679
G1 X31.651 Y163.274 E10.15602
G1 X31.452 Y163.018 E10.17030
G1 X31.291 Y162.722 E10.18515
G1 X31.173 Y162.309 E10.20407
G1 X31.143 Y161.952 E10.21986
G1 X31.143 Y48.047 E15.24000
G1 X31.172 Y47.697 E15.25547
G1 X31.249 Y47.394 E15.26927
G1 X31.434 Y47.005 E15.28823
G1 X31.726 Y46.651 E15.30850
G1 X31.982 Y46.452 E15.32278
G1 X32.278 Y46.291 E15.33762
G1 X32.691 Y46.173 E15.35655
G1 X33.048 Y46.143 E15.37234
G1 X146.955 Y46.143 E20.39257
G1 X147.453 Y46.200 E20.41469
G1 X147.902 Y46.379 E20.43596
G1 X148.274 Y46.651 E20.45626
G1 X148.566 Y47.005 E20.47653
G1 X148.751 Y47.394 E20.49549
G1 X148.828 Y47.697 E20.50930
G1 X148.857 Y48.047 E20.52476
G1 X148.857 Y50.643 E20.63916
G1 X150.857 Y50.643 E20.72730
G1 X150.857 Y99.357 E22.87430
G1 X148.917 Y99.357 E22.95980
G1 X149.304 Y99.804 F6000.000
G1 X149.304 Y104.696 E23.17544 F1500.000
G1 X158.607 Y104.696 E23.58548
G1 X158.607 Y105.304 E23.61225
G1 X149.304 Y105.304 E24.02229
G1 X149.304 Y110.196 E24.23793
G1 X151.304 Y110.196 E24.32607
G1 X151.304 Y159.804 E26.51242
G1 X149.304 Y159.804 E26.60056
G1 X149.304 Y161.976 E26.69628
G1 X149.269 Y162.391 E26.71467
G1 X149.181 Y162.739 E26.73046
G1 X149.019 Y163.107 E26.74819
G1 X148.932 Y163.252 E26.75563
G1 X148.684 Y163.570 E26.77340
G1 X148.570 Y163.684 E26.78055
G1 X148.263 Y163.923 E26.79766
G1 X147.910 Y164.115 E26.81537
G1 X147.760 Y164.173 E26.82249
G1 X147.383 Y164.269 E26.83961
G1 X146.971 Y164.304 E26.85785
G1 X33.029 Y164.304 E31.87960
G1 X32.617 Y164.269 E31.89784
G1 X32.240 Y164.173 E31.91497
G1 X32.089 Y164.115 E31.92211
G1 X31.742 Y163.927 E31.93951
G1 X31.430 Y163.684 E31.95692
G1 X31.316 Y163.570 E31.96406
G1 X31.077 Y163.263 E31.98118
G1 X30.885 Y162.910 E31.99889
G1 X30.826 Y162.760 E32.00600
G1 X30.731 Y162.383 E32.02312
G1 X30.696 Y161.971 E32.04136
G1 X30.696 Y48.029 E37.06314
G1 X30.730 Y47.623 E37.08106
G1 X30.825 Y47.248 E37.09813
G1 X30.981 Y46.892 E37.11525
G1 X31.064 Y46.753 E37.12239
G1 X31.316 Y46.430 E37.14043
G1 X31.430 Y46.316 E37.14757
G1 X31.737 Y46.077 E37.16469
G1 X32.090 Y45.885 E37.18240
G1 X32.240 Y45.827 E37.18951
G1 X32.617 Y45.731 E37.20664
G1 X33.029 Y45.696 E37.22488
G1 X146.973 Y45.696 E42.24675
G1 X147.391 Y45.731 E42.26523
G1 X147.563 Y45.767 E42.27297
G1 X147.739 Y45.819 E42.28103
G1 X148.107 Y45.981 E42.29876
G1 X148.252 Y46.068 E42.30620
G1 X148.570 Y46.316 E42.32397
G1 X148.684 Y46.430 E42.33111
G1 X148.936 Y46.753 E42.34915
G1 X149.019 Y46.892 E42.35629
G1 X149.175 Y47.248 E42.37341
G1 X149.270 Y47.624 E42.39048
G1 X149.304 Y48.029 E42.40840
G1 X149.304 Y50.196 E42.50394
G1 X151.304 Y50.196 E42.59208
G1 X151.304 Y99.804 E44.77843
G1 X149.364 Y99.804 E44.86393
G1 X149.750 Y100.250 F6000.000
G1 X149.750 Y104.250 E45.04022 F1500.000
G1 X159.054 Y104.250 E45.45026
G1 X159.054 Y105.750 E45.51637
G1 X149.750 Y105.750 E45.92641
G1 X149.750 Y109.750 E46.10271
G1 X151.750 Y109.750 E46.19085
G1 X151.750 Y160.250 E48.41654
G1 X149.750 Y160.250 E48.50468
G1 X149.750 Y161.994 E48.58155
G1 X149.712 Y162.456 E48.60196
G1 X149.600 Y162.893 E48.62185
G1 X149.416 Y163.312 E48.64202
G1 X149.301 Y163.505 E48.65191
G1 X149.020 Y163.866 E48.67210
G1 X148.866 Y164.020 E48.68168
G1 X148.509 Y164.298 E48.70163
G1 X148.098 Y164.521 E48.72220
G1 X147.896 Y164.599 E48.73177
G1 X147.457 Y164.711 E48.75173
G1 X146.990 Y164.750 E48.77242
G1 X33.010 Y164.750 E53.79582
G1 X32.543 Y164.711 E53.81651
G1 X32.104 Y164.599 E53.83646
G1 X31.901 Y164.520 E53.84604
G1 X31.497 Y164.302 E53.86630
G1 X31.134 Y164.020 E53.88656
G1 X30.980 Y163.866 E53.89614
G1 X30.702 Y163.509 E53.91610
G1 X30.479 Y163.098 E53.93667
G1 X30.401 Y162.896 E53.94624
G1 X30.289 Y162.457 E53.96619
G1 X30.250 Y161.990 E53.98688
G1 X30.250 Y48.010 E59.01029
G1 X30.288 Y47.550 E59.03066
G1 X30.402 Y47.102 E59.05101
G1 X30.584 Y46.688 E59.07096
G1 X30.695 Y46.501 E59.08054
G1 X30.980 Y46.134 E59.10103
G1 X31.134 Y45.980 E59.11061
G1 X31.491 Y45.702 E59.13056
G1 X31.901 Y45.479 E59.15113
G1 X32.104 Y45.401 E59.16070
G1 X32.543 Y45.289 E59.18066
G1 X33.010 Y45.250 E59.20135
G1 X146.992 Y45.250 E64.22485
G1 X147.456 Y45.288 E64.24536
G1 X147.673 Y45.334 E64.25515
G1 X147.893 Y45.400 E64.26526
G1 X148.312 Y45.584 E64.28544
G1 X148.505 Y45.699 E64.29532
G1 X148.866 Y45.980 E64.31551
G1 X149.020 Y46.134 E64.32509
G1 X149.305 Y46.501 E64.34558
G1 X149.416 Y46.688 E64.35516
G1 X149.598 Y47.102 E64.37511
G1 X149.712 Y47.550 E64.39546
G1 X149.750 Y48.010 E64.41583
G1 X149.750 Y49.750 E64.49250
G1 X151.750 Y49.750 E64.58065
G1 X151.750 Y100.250 E66.80633
G1 X149.810 Y100.250 E66.89184
G1 X149.350 Y100.250 F6000.000
G1 X149.080 Y105.000 F6000.000
G1 X158.384 Y105.000 E67.30188 F1500.000
G1 E65.30188 F2400.00000
G92 E0
G1 X149.995 Y110.907 F6000.000
G1 E2.00000 F2400.00000
G1 X150.593 Y111.505 E2.03732 F1500.000
G1 X150.593 Y112.137 E2.06526
G1 X149.363 Y110.907 E2.14210
G1 X148.730 Y110.907 E2.17004
G1 X150.593 Y112.770 E2.28639
G1 X150.593 Y113.403 E2.31433
G1 X83.597 Y46.407 E6.49914
G1 X84.230 Y46.407 E6.52708
G1 X148.593 Y110.770 E10.54745
G1 X148.593 Y110.137 E10.57539
G1 X84.863 Y46.407 E14.55624
G1 X85.495 Y46.407 E14.58419
G1 X148.593 Y109.505 E18.52552
G1 X148.593 Y108.872 E18.55346
G1 X86.128 Y46.407 E22.45529
G1 X86.760 Y46.407 E22.48323
G1 X148.593 Y108.240 E26.34553
G1 X148.593 Y107.607 E26.37348
G1 X87.393 Y46.407 E30.19627
G1 X88.026 Y46.407 E30.22421
G1 X148.593 Y106.974 E34.00748
G1 X148.593 Y106.342 E34.03543
G1 X88.658 Y46.407 E37.77918
G1 X89.291 Y46.407 E37.80713
G1 X148.593 Y105.709 E41.51137
G1 X148.593 Y105.077 E41.53931
G1 X89.923 Y46.407 E45.20404
G1 X90.556 Y46.407 E45.23198
G1 X148.593 Y104.444 E48.85720
G1 X148.593 Y103.811 E48.88514
G1 X91.189 Y46.407 E52.47084
G1 X91.821 Y46.407 E52.49878
G1 X148.593 Y103.179 E56.04496
G1 X148.593 Y102.546 E56.07290
G1 X92.454 Y46.407 E59.57957
G1 X93.086 Y46.407 E59.60751
G1 X148.593 Y101.914 E63.07466
G1 X148.593 Y101.281 E63.10261
G1 X93.719 Y46.407 E66.53024
G1 X94.352 Y46.407 E66.55818
G1 X148.593 Y100.648 E69.94631
G1 X148.593 Y100.016 E69.97425
G1 X94.984 Y46.407 E73.32285
G1 X95.617 Y46.407 E73.35080
G1 X148.593 Y99.383 E76.65989
G1 X148.935 Y99.093 F6000.000
G1 X96.250 Y46.407 E79.95083 F1500.000
G1 X96.882 Y46.407 E79.97877
G1 X149.567 Y99.093 E83.26971
G1 X150.200 Y99.093 E83.29766
G1 X97.515 Y46.407 E86.58860
G1 X98.147 Y46.407 E86.61654
G1 X150.593 Y98.853 E89.89250
G1 X150.593 Y98.220 E89.92044
G1 X98.780 Y46.407 E93.15688
G1 X99.413 Y46.407 E93.18482
G1 X150.593 Y97.587 E96.38175
G1 X150.593 Y96.955 E96.40969
G1 X100.045 Y46.407 E99.56710
G1 X100.678 Y46.407 E99.59504
G1 X150.593 Y96.322 E102.71294
G1 X150.593 Y95.690 E102.74088
G1 X101.310 Y46.407 E105.81926
G1 X101.943 Y46.407 E105.84720
G1 X150.593 Y95.057 E108.88607
G1 X150.593 Y94.424 E108.91401
G1 X102.576 Y46.407 E111.91336
G1 X103.208 Y46.407 E111.94130
G1 X150.593 Y93.792 E114.90114
G1 X150.593 Y93.159 E114.92908
G1 X103.841 Y46.407 E117.84940
G1 X104.473 Y46.407 E117.87734
G1 X150.593 Y92.527 E120.75814
G1 X150.593 Y91.894 E120.78608
G1 X105.106 Y46.407 E123.62737
G1 X105.739 Y46.407 E123.65531
G1 X150.593 Y91.261 E126.45709
G1 X150.593 Y90.629 E126.48503
G1 X106.371 Y46.407 E129.24729
G1 X107.004 Y46.407 E129.27523
G1 X150.593 Y89.996 E131.99797
G1 X150.593 Y89.364 E132.02591
G1 X107.636 Y46.407 E134.70914
G1 X108.269 Y46.407 E134.73708
G1 X150.593 Y88.731 E137.38079
G1 X150.593 Y88.098 E137.40873
G1 X108.902 Y46.407 E140.01293
G1 X109.534 Y46.407 E140.04087
G1 X150.593 Y87.466 E142.60555
G1 X150.593 Y86.833 E142.63349
G1 X110.167 Y46.407 E145.15866
G1 X110.799 Y46.407 E145.18660
G1 X150.593 Y86.201 E147.67225
G1 X150.593 Y85.568 E147.70019
G1 X111.432 Y46.407 E150.14632
G1 X112.065 Y46.407 E150.17426
G1 X150.593 Y84.935 E152.58088
G1 X150.593 Y84.303 E152.60882
G1 X112.697 Y46.407 E154.97593
G1 X113.330 Y46.407 E155.00387
G1 X150.593 Y83.670 E157.33146
G1 X150.593 Y83.038 E157.35940
G1 X113.963 Y46.407 E159.64747
G1 X114.595 Y46.407 E159.67541
G1 X150.593 Y82.405 E161.92397
G1 X150.593 Y81.772 E161.95191
G1 X115.228 Y46.407 E164.16095
G1 X115.860 Y46.407 E164.18889
G1 X150.593 Y81.140 E166.35842
G1 X150.593 Y80.507 E166.38636
G1 X116.493 Y46.407 E168.51637
G1 X117.126 Y46.407 E168.54432
G1 X150.593 Y79.874 E170.63481
G1 X150.593 Y79.242 E170.66275
G1 X117.758 Y46.407 E172.71373
G1 X118.391 Y46.407 E172.74167
G1 X150.593 Y78.609 E174.75314
G1 X150.593 Y77.977 E174.78108
G1 X119.023 Y46.407 E176.75303
G1 X119.656 Y46.407 E176.78097
G1 X150.593 Y77.344 E178.71341
G1 X150.593 Y76.711 E178.74135
G1 X120.289 Y46.407 E180.63427
G1 X120.921 Y46.407 E180.66221
G1 X150.593 Y76.079 E182.51561
G1 X150.593 Y75.446 E182.54355
G1 X121.554 Y46.407 E184.35744
G1 X122.186 Y46.407 E184.38538
G1 X150.593 Y74.814 E186.15975
G1 X150.593 Y74.181 E186.18770
G1 X122.819 Y46.407 E187.92255
G1 X123.452 Y46.407 E187.95049
G1 X150.593 Y73.548 E189.64584
G1 X150.593 Y72.916 E189.67378
G1 X124.084 Y46.407 E191.32960
G1 X124.717 Y46.407 E191.35754
G1 X150.593 Y72.283 E192.97386
G1 X150.593 Y71.651 E193.00180
G1 X125.349 Y46.407 E194.57859
G1 X125.982 Y46.407 E194.60653
G1 X150.593 Y71.018 E196.14381
G1 X150.593 Y70.385 E196.17176
G1 X126.615 Y46.407 E197.66952
G1 X127.247 Y46.407 E197.69746
G1 X150.593 Y69.753 E199.15571
G1 X150.593 Y69.120 E199.18365
G1 X127.880 Y46.407 E200.60239
G1 X128.513 Y46.407 E200.63033
G1 X150.593 Y68.488 E202.00955
G1 X150.593 Y67.855 E202.03749
G1 X129.145 Y46.407 E203.37719
G1 X129.778 Y46.407 E203.40513
G1 X150.593 Y67.222 E204.70532
G1 X150.593 Y66.590 E204.73326
G1 X130.410 Y46.407 E205.99393
G1 X131.043 Y46.407 E206.02188
G1 X150.593 Y65.957 E207.24303
G1 X150.593 Y65.325 E207.27097
G1 X131.676 Y46.407 E208.45262
G1 X132.308 Y46.407 E208.48056
G1 X150.593 Y64.692 E209.62268
G1 X150.593 Y64.059 E209.65062
G1 X132.941 Y46.407 E210.75324
G1 X133.573 Y46.407 E210.78118
G1 X150.593 Y63.427 E211.84427
G1 X150.593 Y62.794 E211.87221
G1 X134.206 Y46.407 E212.89579
G1 X134.839 Y46.407 E212.92373
G1 X150.593 Y62.161 E213.90780
G1 X150.593 Y61.529 E213.93574
G1 X135.471 Y46.407 E214.88029
G1 X136.104 Y46.407 E214.90823
G1 X150.593 Y60.896 E215.81326
G1 X150.593 Y60.264 E215.84121
G1 X136.736 Y46.407 E216.70672
G1 X137.369 Y46.407 E216.73467
G1 X150.593 Y59.631 E217.56067
G1 X150.593 Y58.998 E217.58861
G1 X138.002 Y46.407 E218.37510
G1 X138.634 Y46.407 E218.40304
G1 X150.593 Y58.366 E219.15001
G1 X150.593 Y57.733 E219.17795
G1 X139.267 Y46.407 E219.88541
G1 X139.899 Y46.407 E219.91335
G1 X150.593 Y57.101 E220.58129
G1 X150.593 Y56.468 E220.60923
G1 X140.532 Y46.407 E221.23766
G1 X141.165 Y46.407 E221.26560
G1 X150.593 Y55.835 E221.85451
G1 X150.593 Y55.203 E221.88245
G1 X141.797 Y46.407 E222.43185
G1 X142.430 Y46.407 E222.45979
G1 X150.593 Y54.570 E222.96967
G1 X150.593 Y53.938 E222.99761
G1 X143.062 Y46.407 E223.46798
G1 X143.695 Y46.407 E223.49592
G1 X150.593 Y53.305 E223.92677
G1 X150.593 Y51.407 F6000.000
G1 X150.093 Y50.907 E223.95798 F1500.000
G1 X149.460 Y50.907 E223.98592
G1 X150.593 Y52.040 E224.05666
G1 X150.593 Y52.672 E224.08460
G1 X148.828 Y50.907 E224.19485
G1 X148.593 Y50.672 F6000.000
G1 X144.328 Y46.407 E224.46125 F1500.000
G1 X144.960 Y46.407 E224.48919
G1 X148.593 Y50.040 E224.71608
G1 X148.593 Y49.407 E224.74402
G1 X145.593 Y46.407 E224.93140
G1 X146.226 Y46.407 E224.95934
G1 X148.593 Y48.775 E225.10720
G1 X148.591 Y48.141 E225.13520
G1 X146.861 Y46.410 E225.24331
G1 X147.831 Y46.747 F6000.000
G1 X148.284 Y47.201 E225.27163 F1500.000
G1 E223.27163 F2400.00000
G92 E0
G1 X150.593 Y114.035 F6000.000
G1 E2.00000 F2400.00000
G1 X82.965 Y46.407 E6.22433 F1500.000
G1 X82.332 Y46.407 E6.25227
G1 X150.593 Y114.668 E10.51611
G1 X150.593 Y115.300 E10.54405
G1 X81.700 Y46.407 E14.84741
G1 X81.067 Y46.407 E14.87535
G1 X150.593 Y115.933 E19.21823
G1 X150.593 Y116.566 E19.24617
G1 X80.434 Y46.407 E23.62856
G1 X79.802 Y46.407 E23.65650
G1 X150.593 Y117.198 E28.07840
G1 X150.593 Y117.831 E28.10634
G1 X79.169 Y46.407 E32.56776
G1 X78.536 Y46.407 E32.59570
G1 X150.593 Y118.464 E37.09664
G1 X150.593 Y119.096 E37.12458
G1 X77.904 Y46.407 E41.66503
G1 X77.271 Y46.407 E41.69297
G1 X150.593 Y119.729 E46.27294
G1 X150.593 Y120.361 E46.30088
G1 X76.639 Y46.407 E50.92036
G1 X76.006 Y46.407 E50.94830
G1 X150.593 Y120.994 E55.60730
G1 X150.593 Y121.627 E55.63524
G1 X75.373 Y46.407 E60.33375
G1 X74.741 Y46.407 E60.36169
G1 X150.593 Y122.259 E65.09972
G1 X150.593 Y122.892 E65.12766
G1 X74.108 Y46.407 E69.90521
G1 X73.476 Y46.407 E69.93315
G1 X150.593 Y123.524 E74.75021
G1 X150.593 Y124.157 E74.77815
G1 X72.843 Y46.407 E79.63472
G1 X72.210 Y46.407 E79.66266
G1 X150.593 Y124.790 E84.55875
